DJI夜景青橙色调LUT（不加还原LUT使用）_2.DJI_20260420195141_0027_D.cube
TITLE "Generated by Resolve"
LUT_3D_SIZE 5
0.0233616 0.0404669 0.0841535
0.310155 0.0501564 0.0932937
0.845472 0.0175784 0.0538186
1 0 0.0055848
1 0 0.0055848
0 0.260258 0.0554055
0.201373 0.233356 0.0412299
0.777813 0.132494 0.0135653
1 0 0.0055848
1 0 0.0055848
0.193301 0.664347 0
0.189548 0.660502 0
0.629252 0.594934 0
1 0.522393 0
1 0.511177 0
0.440009 0.954894 0
0.440009 0.954894 0
0.478325 0.930663 0
1 0.888502 0
1 0.885237 0
0.440009 0.954894 0
0.440009 0.954894 0
0.441367 0.954223 0
0.984512 0.892668 0
1 0.885237 0
0.012665 0.0406653 0.302724
0.297078 0.0455634 0.29955
0.836744 0.0132906 0.239109
1 0 0.120287
1 0 0.0831769
0 0.226719 0.236042
0.182498 0.199344 0.216251
0.784192 0.0760967 0.164874
1 0 0.0443275
1 0 0.0152285
0.184482 0.655299 0
0.180697 0.651453 0
0.623026 0.585901 0
1 0.512184 0
1 0.500832 0
0.440009 0.954894 0
0.440009 0.954894 0
0.473793 0.931289 0
1 0.888869 0
1 0.885237 0
0.440009 0.954894 0
0.440009 0.954894 0
0.440833 0.954467 0
0.981369 0.892927 0
1 0.885237 0
0.00358587 0.0445106 0.742489
0.240879 0.038407 0.730037
0.818357 0.00543221 0.699229
1 0 0.651865
1 0 0.647089
0.00251774 0.0444038 0.731899
0.0968643 0.0403906 0.724453
0.792554 0.00842298 0.690486
1 0 0.640955
1 0 0.635996
0.16289 0.594583 0.529442
0.159045 0.59057 0.529305
0.583902 0.525231 0.477821
1 0.446403 0.401007
1 0.433616 0.400748
0.442649 0.944076 0.10103
0.442344 0.944137 0.0945144
0.449958 0.925032 0.0380102
1 0.864866 0
1 0.852216 0
0.441016 0.944808 0
0.440894 0.944869 0
0.440665 0.944778 0
0.957671 0.885985 0
1 0.877333 0
0.0311894 0.0433204 0.977234
0.0330663 0.0432288 0.977188
0.785641 0.00122072 0.978302
1 0 0.956924
1 0 0.956939
0.0311894 0.0433204 0.977234
0.0311894 0.0433204 0.977234
0.759121 0.00381476 0.979461
1 0 0.956924
1 0 0.956924
0.146731 0.491081 0.965972
0.142611 0.485939 0.966827
0.544289 0.418997 0.936843
1 0.32311 0.874601
1 0.305455 0.87689
0.452232 0.90547 0.719615
0.450645 0.902815 0.719844
0.440299 0.888426 0.720027
0.978058 0.801251 0.649104
1 0.785702 0.637308
0.472175 0.939284 0.679286
0.472129 0.939269 0.677852
0.471427 0.939284 0.670634
0.937072 0.884642 0.595682
1 0.874403 0.574884
0.0311894 0.0433204 0.977234
0.0311894 0.0433204 0.977234
0.773709 0.00257877 0.978836
1 0 0.956924
1 0 0.956924
0.0311894 0.0433204 0.977234
0.0311894 0.0433204 0.977234
0.746548 0.0049897 0.97995
1 0 0.956924
1 0 0.956924
0.1205 0.455482 0.972793
0.11632 0.449897 0.973526
0.528618 0.381598 0.958984
1 0.276829 0.908141
1 0.256214 0.914183
0.447745 0.886244 0.799146
0.446036 0.883604 0.800702
0.436301 0.869139 0.80766
0.969696 0.78143 0.751125
1 0.764706 0.742489
0.481086 0.938018 0.773037
0.481086 0.938018 0.773037
0.481086 0.938018 0.773037
0.931823 0.884337 0.715892
1 0.874342 0.700633
