DJI夜景青橙色调2LUT（不加还原LUT使用）_2.DJI_20260420195141_0027_D.cube
TITLE "Generated by Resolve"
LUT_3D_SIZE 9
0.0233616 0.0404669 0.0841535
0.138277 0.041413 0.0857557
0.309972 0.0501564 0.0932937
0.548089 0.0440833 0.0832074
0.844144 0.017731 0.0540169
1 0 0.00563058
1 0 0.0055848
1 0 0.0055848
1 0 0.0055848
0.00390631 0.113497 0.0795453
0.0479286 0.100267 0.0781872
0.270024 0.0861982 0.0813001
0.531609 0.0465858 0.0833448
0.833906 0.0189822 0.0556191
1 0 0.0056611
1 0 0.0055848
1 0 0.0055848
1 0 0.0055848
0 0.261204 0.0551766
0 0.256855 0.0564889
0.197711 0.234531 0.0411994
0.46302 0.204685 0.0288243
0.773968 0.134829 0.013489
1 0.0024567 0.00419623
1 0 0.00552377
1 0 0.00553903
1 0 0.00555428
0.0205997 0.443275 0.00561532
0.0197757 0.441062 0.00646983
0.0203098 0.437064 0.00764477
0.377295 0.398962 0
0.704402 0.359365 0
0.997238 0.293858 0
1 0.258137 0
1 0.24155 0
1 0.234775 0
0.194385 0.665461 0
0.192996 0.664042 0
0.190646 0.661677 0
0.23154 0.641016 0
0.619486 0.597345 0
0.948089 0.55108 0
1 0.524102 0
1 0.515923 0
1 0.513039 0
0.380301 0.875776 0
0.379492 0.874739 0
0.378103 0.872984 0
0.374426 0.868254 0
0.53341 0.823865 0
0.869902 0.785077 0
1 0.756176 0
1 0.750042 0
1 0.747677 0
0.440009 0.954894 0
0.440009 0.954894 0
0.440009 0.954894 0
0.440009 0.954894 0
0.470451 0.935103 0
0.80502 0.90547 0
0.998749 0.889097 0
1 0.885237 0
1 0.885237 0
0.440009 0.954894 0
0.440009 0.954894 0
0.440009 0.954894 0
0.440009 0.954894 0
0.435996 0.947433 0
0.760098 0.90837 0
0.989487 0.892119 0
1 0.885237 0
1 0.885237 0
0.440009 0.954894 0
0.440009 0.954894 0
0.440009 0.954894 0
0.440009 0.954894 0
0.440742 0.954513 0
0.739483 0.909606 0
0.973816 0.893538 0
1 0.885344 0
1 0.885237 0
0.0211948 0.0399329 0.138537
0.127123 0.0401923 0.135714
0.304341 0.0487831 0.136629
0.544488 0.0432288 0.109407
0.841978 0.0179446 0.0562295
1 0 0.00564584
1 0 0.0055848
1 0 0.0055848
1 0 0.0055848
0.00943008 0.0860304 0.109056
0.0428779 0.0730602 0.10573
0.270848 0.0623331 0.10782
0.529198 0.045182 0.0886397
0.831495 0.0192721 0.0560311
1 0 0.00567636
1 0 0.0055848
1 0 0.0055848
1 0 0.0055848
0 0.250156 0.0595865
0 0.245319 0.0612802
0.191852 0.223133 0.0464027
0.46186 0.192096 0.0322728
0.775906 0.115999 0.0192111
1 0.000946059 0.00483711
1 0 0.00555428
1 0 0.00556954
1 0 0.00556954
0.0182345 0.437064 0.00773632
0.0173648 0.43476 0.00863661
0.01738 0.430518 0.00984207
0.373846 0.393027 0
0.702541 0.353109 0
0.996811 0.286458 0
1 0.250217 0
1 0.232456 0
1 0.225788 0
0.190478 0.661463 0
0.189303 0.660273 0
0.186618 0.657526 0
0.225605 0.637461 0
0.616968 0.592996 0
0.94638 0.547234 0
1 0.519921 0
1 0.511727 0
1 0.508476 0
0.378058 0.872816 0
0.377249 0.871839 0
0.375967 0.870222 0
0.372305 0.865705 0
0.530236 0.821118 0
0.868238 0.782467 0
1 0.753552 0
1 0.747158 0
1 0.744778 0
0.440009 0.954894 0
0.440009 0.954894 0
0.440009 0.954894 0
0.440009 0.954894 0
0.469093 0.935393 0
0.803571 0.905562 0
0.99855 0.88922 0
1 0.885237 0
1 0.885237 0
0.440009 0.954894 0
0.440009 0.954894 0
0.440009 0.954894 0
0.440009 0.954894 0
0.436637 0.948302 0
0.758495 0.908476 0
0.988388 0.892195 0
1 0.885237 0
1 0.885237 0
0.440009 0.954894 0
0.440009 0.954894 0
0.440009 0.954894 0
0.440009 0.954894 0
0.44062 0.954543 0
0.738064 0.909697 0
0.972717 0.893599 0
1 0.885374 0
1 0.885237 0
0.0127871 0.04065 0.300755
0.103319 0.0395666 0.298665
0.296269 0.0455329 0.299916
0.537484 0.0382391 0.282414
0.834455 0.0134279 0.244755
1 0 0.173312
1 0 0.139834
1 0 0.123705
1 0 0.123674
0.0124361 0.0438544 0.289143
0.0271763 0.0409705 0.287251
0.264973 0.0452888 0.288441
0.521614 0.0396429 0.271214
0.824399 0.0149081 0.231464
1 0 0.154131
1 0 0.114992
1 0 0.100664
1 0 0.102541
0 0.225818 0.240879
0 0.220645 0.240223
0.176837 0.198642 0.223392
0.455467 0.164691 0.203586
0.780575 0.0742962 0.180194
1 7.62951e-05 0.116747
1 0 0.0797436
1 0 0.0667887
1 0 0.0681926
0.0149081 0.42327 0.120287
0.0136416 0.420676 0.118471
0.0132296 0.416541 0.114519
0.365652 0.379751 0.0717479
0.697261 0.34023 0.0213931
0.996414 0.272786 0
1 0.234699 0
1 0.216037 0
1 0.208591 0
0.184314 0.655131 0
0.18294 0.653742 0
0.18056 0.651347 0
0.214496 0.6318 0
0.612589 0.58677 0
0.943282 0.540108 0
1 0.512184 0
1 0.503777 0
1 0.500557 0
0.374136 0.867872 0
0.373434 0.867063 0
0.37203 0.865293 0
0.368124 0.860395 0
0.524453 0.816464 0
0.864744 0.777066 0
1 0.747997 0
1 0.74136 0
1 0.73901 0
0.440009 0.954894 0
0.440009 0.954894 0
0.440009 0.954894 0
0.440009 0.954894 0
0.466346 0.935897 0
0.800885 0.905699 0
0.998184 0.889479 0
1 0.885237 0
1 0.885237 0
0.440009 0.954894 0
0.440009 0.954894 0
0.440009 0.954894 0
0.440009 0.954894 0
0.437659 0.950332 0
0.755825 0.908598 0
0.985748 0.892409 0
1 0.885237 0
1 0.885237 0
0.440009 0.954894 0
0.440009 0.954894 0
0.440009 0.954894 0
0.440009 0.954894 0
0.440543 0.954604 0
0.734478 0.909941 0
0.969879 0.893843 0
1 0.88542 0
1 0.885237 0
0.000396735 0.0425727 0.505211
0.0380255 0.0410773 0.50309
0.277913 0.0419013 0.498573
0.527138 0.0335546 0.486213
0.826139 0.0093843 0.464149
1 0 0.421973
1 0 0.413031
1 0 0.41059
1 0 0.413031
0.000717174 0.0425116 0.500954
0.000961318 0.0425116 0.500648
0.242817 0.0417945 0.495109
0.510918 0.0345312 0.482033
0.815885 0.0108186 0.460121
1 0 0.416526
1 0 0.407523
1 0 0.405112
1 0 0.407599
0 0.156954 0.468147
0 0.148867 0.469657
0.149325 0.124743 0.459739
0.465064 0.0765545 0.455924
0.798642 0.0134432 0.452964
1 0 0.407996
1 0 0.398642
1 0 0.395941
1 0 0.398138
0.0110933 0.389578 0.396002
0.0102083 0.387106 0.395834
0.00886549 0.382605 0.395956
0.34844 0.344656 0.367178
0.685664 0.302144 0.338231
0.995209 0.228412 0.285878
1 0.181109 0.281178
1 0.15639 0.287068
1 0.145953 0.2934
0.171008 0.629984 0.229282
0.169635 0.628519 0.229297
0.167193 0.626001 0.229587
0.181018 0.609049 0.221225
0.59205 0.561898 0.15462
0.926696 0.515358 0.0597696
1 0.485893 0.0347753
1 0.477012 0.0353246
1 0.473213 0.0379187
0.362081 0.849775 0
0.361181 0.848569 0
0.359625 0.846754 0
0.35584 0.842252 0
0.505196 0.799603 0
0.852216 0.76083 0
1 0.730632 0
1 0.723674 0
1 0.720958 0
0.438697 0.952651 0
0.438575 0.952697 0
0.438621 0.952712 0
0.438651 0.953048 0
0.459037 0.936233 0
0.793652 0.906157 0
0.997299 0.890059 0
1 0.882475 0
1 0.880201 0
0.440009 0.954894 0
0.440009 0.954894 0
0.440009 0.954894 0
0.440009 0.954894 0
0.440467 0.954604 0
0.748409 0.909056 0
0.97969 0.892912 0
1 0.885191 0
1 0.885023 0
0.439994 0.954849 0
0.439979 0.954818 0
0.439933 0.954742 0
0.439902 0.95465 0
0.440146 0.954345 0
0.726299 0.91017 0
0.963241 0.89398 0
1 0.885344 0
1 0.88513 0
0.00456245 0.0445411 0.751369
0.00437934 0.0445869 0.751431
0.234836 0.0383001 0.741054
0.50753 0.0283665 0.732464
0.814054 0.00552377 0.714244
1 0 0.67628
1 0 0.672251
1 0 0.672099
1 0 0.674754
0.00422675 0.0445411 0.749752
0.00436408 0.0444953 0.749828
0.189105 0.0387274 0.740444
0.490944 0.0293126 0.730465
0.803296 0.00665293 0.712917
1 0 0.674205
1 0 0.669779
1 0 0.669566
1 0 0.671916
0.00401312 0.04448 0.746609
0.00401312 0.04448 0.746471
0.0816815 0.0410925 0.741421
0.462013 0.0307774 0.727657
0.786145 0.00863661 0.710491
1 0 0.671046
1 0 0.665751
1 0 0.665568
1 0 0.667765
0.00436408 0.317082 0.670451
0.00344854 0.314046 0.670832
0.0019379 0.307546 0.671611
0.322484 0.269001 0.6486
0.679713 0.216052 0.6318
0.995239 0.112657 0.603204
1 0.0285496 0.62121
1 0.00349432 0.637232
1 0 0.646036
0.161196 0.588724 0.558282
0.159899 0.587198 0.558862
0.157656 0.584787 0.559487
0.153307 0.577295 0.560388
0.569772 0.520256 0.513359
0.910658 0.471717 0.465827
1 0.439231 0.443702
1 0.428992 0.447639
1 0.424689 0.451911
0.353185 0.816358 0.36936
0.352453 0.815412 0.369909
0.351003 0.813581 0.370779
0.34699 0.808545 0.372061
0.474662 0.766842 0.344106
0.829053 0.725963 0.290654
1 0.69395 0.241962
1 0.6869 0.244373
1 0.683742 0.251011
0.444907 0.943496 0.192874
0.44477 0.943557 0.192523
0.444709 0.943572 0.191638
0.444541 0.943603 0.187228
0.447532 0.928588 0.162737
0.77055 0.886671 0.102922
0.993622 0.859693 0.0448615
1 0.847715 0.0184482
1 0.844984 0.0187686
0.444053 0.943801 0.165438
0.444266 0.943771 0.165515
0.444083 0.943786 0.164614
0.443885 0.943816 0.161532
0.443946 0.943664 0.154665
0.725277 0.900374 0.0682231
0.960189 0.885008 0
1 0.876616 0
1 0.876417 0
0.4439 0.943755 0.179248
0.444129 0.943709 0.180087
0.444175 0.943709 0.179599
0.444038 0.94374 0.1776
0.443915 0.943618 0.168521
0.704097 0.901671 0.0610666
0.943481 0.886015 0.00512703
1 0.877546 0.00868238
1 0.876341 0.0132296
0.0325933 0.0446784 0.973312
0.0324407 0.0447089 0.973358
0.143145 0.0379339 0.970306
0.478355 0.024155 0.963592
0.798169 0.00242618 0.947616
1 0 0.909651
1 0 0.905745
1 0 0.905119
1 0 0.906355
0.0325475 0.0446937 0.973251
0.032517 0.0447242 0.973236
0.0698558 0.0419928 0.970932
0.460594 0.0251011 0.962325
0.787533 0.00363165 0.947173
1 0 0.908354
1 0 0.903639
1 0 0.903075
1 0 0.904356
0.0321813 0.04477 0.971283
0.0320897 0.04477 0.970993
0.0327916 0.0446326 0.970474
0.429252 0.0264744 0.960296
0.769848 0.0055848 0.946777
1 0 0.90605
1 0 0.900435
1 0 0.899825
1 0 0.90103
0.0118868 0.171679 0.936156
0.0124208 0.16524 0.937377
0.0130007 0.153857 0.938231
0.303624 0.102388 0.929824
0.716594 0.0223697 0.935561
0.998947 0 0.89781
1 0 0.889876
1 0 0.889189
1 0 0.890394
0.15172 0.531365 0.825223
0.150362 0.529641 0.825544
0.14815 0.526528 0.826383
0.14226 0.518196 0.827893
0.545663 0.461799 0.785428
0.895949 0.410193 0.744656
1 0.372061 0.723964
1 0.360082 0.727199
1 0.355489 0.729946
0.347723 0.776257 0.672267
0.347051 0.775082 0.672755
0.345495 0.773205 0.673396
0.341253 0.767865 0.674556
0.444587 0.728267 0.652201
0.810132 0.685054 0.614191
1 0.651881 0.583078
1 0.643458 0.583627
1 0.640772 0.585946
0.453483 0.927779 0.558343
0.452811 0.926879 0.55874
0.451514 0.925063 0.559426
0.448432 0.920714 0.560388
0.435782 0.902983 0.555764
0.751003 0.852125 0.514107
0.980377 0.824292 0.486244
1 0.811048 0.47509
1 0.808484 0.478141
0.461143 0.940688 0.537789
0.461112 0.940688 0.538048
0.461082 0.940688 0.537408
0.461036 0.940688 0.535805
0.460594 0.940642 0.53109
0.713619 0.899321 0.481376
0.948394 0.884321 0.447303
1 0.876143 0.429419
1 0.87483 0.428824
0.461326 0.940658 0.538811
0.461097 0.940688 0.538796
0.461082 0.940703 0.538277
0.460945 0.940703 0.536538
0.460746 0.940627 0.532021
0.691875 0.900618 0.484947
0.931746 0.88539 0.45069
1 0.877333 0.432853
1 0.874876 0.429267
0.0311894 0.0433204 0.977234
0.0311894 0.0433204 0.977234
0.0324865 0.0432593 0.977203
0.446464 0.0230106 0.981964
0.778653 0.00187686 0.978576
1 0 0.957031
1 0 0.956924
1 0 0.956924
1 0 0.956924
0.0311894 0.0433204 0.977234
0.0311894 0.0433204 0.977234
0.0315862 0.0432898 0.977218
0.427543 0.0239261 0.98175
0.768154 0.00289921 0.979004
1 0 0.957092
1 0 0.956924
1 0 0.956924
1 0 0.956939
0.0311894 0.0433204 0.977234
0.0311894 0.0433204 0.977234
0.0311894 0.0433204 0.977234
0.393576 0.0253147 0.981277
0.750164 0.00450141 0.979706
1 0 0.957198
1 0 0.956924
1 0 0.956909
1 0 0.956924
0.031342 0.0437476 0.977203
0.0313268 0.0437171 0.977218
0.031342 0.0436713 0.977218
0.279088 0.0306554 0.979446
0.702876 0.00862135 0.981216
0.997421 0 0.957916
1 0 0.956924
1 0 0.956924
1 0 0.956924
0.140658 0.482597 0.967971
0.139361 0.48069 0.968292
0.136751 0.477394 0.968795
0.130495 0.468666 0.970092
0.52813 0.411124 0.945769
0.887282 0.35639 0.909346
1 0.31165 0.88954
1 0.298619 0.89308
1 0.293278 0.895216
0.345769 0.744915 0.844999
0.344884 0.743816 0.845167
0.343343 0.741817 0.845487
0.339284 0.736629 0.846311
0.422232 0.698421 0.826505
0.797177 0.653376 0.788708
0.998657 0.619333 0.76022
1 0.609903 0.757794
1 0.606668 0.75903
0.451881 0.901396 0.740841
0.451057 0.900404 0.741115
0.450065 0.898985 0.741405
0.446708 0.894331 0.741924
0.439979 0.884535 0.742168
0.737133 0.826047 0.699031
0.969192 0.79794 0.674388
1 0.783398 0.663066
1 0.780957 0.663981
0.474907 0.938933 0.70808
0.474739 0.938933 0.707759
0.474769 0.938949 0.707195
0.474784 0.938964 0.705303
0.47422 0.938994 0.701122
0.705486 0.898772 0.65713
0.94052 0.877791 0.63212
1 0.863844 0.619699
1 0.859129 0.617548
0.474525 0.939025 0.705165
0.47454 0.93901 0.704967
0.474571 0.93901 0.704463
0.474296 0.93904 0.702663
0.474037 0.93904 0.698131
0.68394 0.900145 0.656001
0.924361 0.885237 0.62739
1 0.877379 0.612558
1 0.874327 0.607385
0.0311894 0.0433204 0.977234
0.0311894 0.0433204 0.977234
0.0314031 0.0433051 0.977218
0.430076 0.0238193 0.981765
0.769543 0.00277714 0.978973
1 0 0.957122
1 0 0.956924
1 0 0.956924
1 0 0.956924
0.0311894 0.0433204 0.977234
0.0311894 0.0433204 0.977234
0.031281 0.0433204 0.977203
0.410651 0.0245975 0.981537
0.758709 0.00383001 0.97937
1 0 0.957168
1 0 0.956924
1 0 0.956924
1 0 0.956924
0.0311894 0.0433204 0.977234
0.0311894 0.0433204 0.977234
0.0311894 0.0433204 0.977234
0.374624 0.0262608 0.980972
0.740703 0.00531014 0.980041
1 0 0.957321
1 0 0.956924
1 0 0.956924
1 0 0.956924
0.0312657 0.0433661 0.977234
0.0312047 0.0433661 0.977234
0.0312657 0.0433356 0.977218
0.249302 0.0317082 0.979049
0.693095 0.00926223 0.98143
0.996353 0 0.958648
1 0 0.956924
1 0 0.956924
1 0 0.956924
0.121904 0.456947 0.972305
0.120821 0.455283 0.972564
0.117983 0.451545 0.973022
0.111727 0.442664 0.974166
0.517021 0.384955 0.958572
0.881788 0.327459 0.926268
1 0.278508 0.907561
1 0.263325 0.911833
1 0.257374 0.913405
0.337758 0.72958 0.873899
0.337179 0.728481 0.874281
0.335546 0.726467 0.875181
0.331426 0.721035 0.877791
0.407279 0.684504 0.863218
0.789059 0.637675 0.830213
0.997711 0.602869 0.805997
1 0.592767 0.804669
1 0.590341 0.805554
0.44921 0.888533 0.798245
0.448722 0.887739 0.798627
0.447486 0.886091 0.799313
0.444846 0.881819 0.801541
0.437949 0.871839 0.80592
0.730068 0.813275 0.769329
0.963973 0.784756 0.749111
1 0.770001 0.739071
1 0.767559 0.739925
0.481071 0.938018 0.772564
0.481132 0.938018 0.772534
0.480995 0.938033 0.772412
0.481025 0.938033 0.77203
0.480827 0.93785 0.771389
0.700999 0.892424 0.732799
0.9355 0.866148 0.710338
1 0.851972 0.698314
1 0.847303 0.695064
0.480995 0.938033 0.772122
0.481117 0.938018 0.772122
0.48098 0.938033 0.772122
0.480873 0.938048 0.771923
0.480705 0.938079 0.767605
0.680598 0.899992 0.726268
0.921126 0.885145 0.69894
1 0.877394 0.684367
1 0.874495 0.678859
0.0311894 0.0433204 0.977234
0.0311894 0.0433204 0.977234
0.0311894 0.0433204 0.977234
0.422415 0.0242161 0.981674
0.765026 0.00331121 0.979126
1 0 0.957168
1 0 0.956924
1 0 0.956924
1 0 0.956924
0.0311894 0.0433204 0.977234
0.0311894 0.0433204 0.977234
0.0311894 0.0433204 0.977234
0.403159 0.0249943 0.981399
0.754757 0.00415045 0.979507
1 0 0.957229
1 0 0.956924
1 0 0.956924
1 0 0.956924
0.0311894 0.0433204 0.977234
0.0311894 0.0433204 0.977234
0.0311894 0.0433204 0.977234
0.366644 0.0266117 0.980819
0.736629 0.00573739 0.980194
1 0 0.957412
1 0 0.956924
1 0 0.956924
1 0 0.956924
0.0311894 0.0433204 0.977234
0.0311894 0.0433204 0.977234
0.0311894 0.0433204 0.977234
0.234775 0.0324254 0.978866
0.688746 0.0096437 0.981521
0.995605 0 0.958892
1 0 0.956924
1 0 0.956924
1 0 0.956924
0.114244 0.446082 0.973663
0.11284 0.444038 0.973892
0.110414 0.44065 0.974304
0.103761 0.43125 0.975372
0.512322 0.373724 0.962066
0.880247 0.315022 0.930663
1 0.264317 0.911513
1 0.248234 0.915709
1 0.24152 0.917327
0.33312 0.723537 0.87657
0.332357 0.722438 0.877073
0.331136 0.720455 0.87808
0.327367 0.715511 0.880369
0.401389 0.679713 0.866545
0.785595 0.631754 0.832914
0.997299 0.596582 0.808606
1 0.586297 0.806958
1 0.583581 0.807797
0.446418 0.884276 0.800122
0.445808 0.883513 0.80061
0.444862 0.881895 0.801526
0.441993 0.877455 0.803632
0.435218 0.867597 0.808087
0.726497 0.808911 0.771771
0.961624 0.780423 0.752605
1 0.765423 0.742672
1 0.762844 0.743206
0.481086 0.938018 0.773037
0.481086 0.938018 0.773037
0.481086 0.938018 0.773037
0.481086 0.938018 0.773037
0.480812 0.937591 0.773281
0.697414 0.888747 0.742
0.93315 0.862318 0.724956
1 0.848188 0.715282
1 0.843336 0.712627
0.481086 0.938018 0.773037
0.481086 0.938018 0.773037
0.481086 0.938018 0.773037
0.481086 0.938018 0.773037
0.481086 0.938018 0.773037
0.67805 0.900053 0.738872
0.919432 0.885145 0.717083
1 0.87715 0.705379
1 0.874266 0.700908
