DJI夜景青橙色调2LUT（不加还原LUT使用）_2.DJI_20260420195141_0027_D.cube
TITLE "Generated by Resolve"
LUT_3D_SIZE 5
0.0233616 0.0404669 0.0841535
0.309972 0.0501564 0.0932937
0.844144 0.017731 0.0540169
1 0 0.0055848
1 0 0.0055848
0 0.261204 0.0551766
0.197711 0.234531 0.0411994
0.773968 0.134829 0.013489
1 0 0.00552377
1 0 0.00555428
0.194385 0.665461 0
0.190646 0.661677 0
0.619486 0.597345 0
1 0.524102 0
1 0.513039 0
0.440009 0.954894 0
0.440009 0.954894 0
0.470451 0.935103 0
0.998749 0.889097 0
1 0.885237 0
0.440009 0.954894 0
0.440009 0.954894 0
0.440742 0.954513 0
0.973816 0.893538 0
1 0.885237 0
0.0127871 0.04065 0.300755
0.296269 0.0455329 0.299916
0.834455 0.0134279 0.244755
1 0 0.139834
1 0 0.123674
0 0.225818 0.240879
0.176837 0.198642 0.223392
0.780575 0.0742962 0.180194
1 0 0.0797436
1 0 0.0681926
0.184314 0.655131 0
0.18056 0.651347 0
0.612589 0.58677 0
1 0.512184 0
1 0.500557 0
0.440009 0.954894 0
0.440009 0.954894 0
0.466346 0.935897 0
0.998184 0.889479 0
1 0.885237 0
0.440009 0.954894 0
0.440009 0.954894 0
0.440543 0.954604 0
0.969879 0.893843 0
1 0.885237 0
0.00456245 0.0445411 0.751369
0.234836 0.0383001 0.741054
0.814054 0.00552377 0.714244
1 0 0.672251
1 0 0.674754
0.00401312 0.04448 0.746609
0.0816815 0.0410925 0.741421
0.786145 0.00863661 0.710491
1 0 0.665751
1 0 0.667765
0.161196 0.588724 0.558282
0.157656 0.584787 0.559487
0.569772 0.520256 0.513359
1 0.439231 0.443702
1 0.424689 0.451911
0.444907 0.943496 0.192874
0.444709 0.943572 0.191638
0.447532 0.928588 0.162737
0.993622 0.859693 0.0448615
1 0.844984 0.0187686
0.4439 0.943755 0.179248
0.444175 0.943709 0.179599
0.443915 0.943618 0.168521
0.943481 0.886015 0.00512703
1 0.876341 0.0132296
0.0311894 0.0433204 0.977234
0.0324865 0.0432593 0.977203
0.778653 0.00187686 0.978576
1 0 0.956924
1 0 0.956924
0.0311894 0.0433204 0.977234
0.0311894 0.0433204 0.977234
0.750164 0.00450141 0.979706
1 0 0.956924
1 0 0.956924
0.140658 0.482597 0.967971
0.136751 0.477394 0.968795
0.52813 0.411124 0.945769
1 0.31165 0.88954
1 0.293278 0.895216
0.451881 0.901396 0.740841
0.450065 0.898985 0.741405
0.439979 0.884535 0.742168
0.969192 0.79794 0.674388
1 0.780957 0.663981
0.474525 0.939025 0.705165
0.474571 0.93901 0.704463
0.474037 0.93904 0.698131
0.924361 0.885237 0.62739
1 0.874327 0.607385
0.0311894 0.0433204 0.977234
0.0311894 0.0433204 0.977234
0.765026 0.00331121 0.979126
1 0 0.956924
1 0 0.956924
0.0311894 0.0433204 0.977234
0.0311894 0.0433204 0.977234
0.736629 0.00573739 0.980194
1 0 0.956924
1 0 0.956924
0.114244 0.446082 0.973663
0.110414 0.44065 0.974304
0.512322 0.373724 0.962066
1 0.264317 0.911513
1 0.24152 0.917327
0.446418 0.884276 0.800122
0.444862 0.881895 0.801526
0.435218 0.867597 0.808087
0.961624 0.780423 0.752605
1 0.762844 0.743206
0.481086 0.938018 0.773037
0.481086 0.938018 0.773037
0.481086 0.938018 0.773037
0.919432 0.885145 0.717083
1 0.874266 0.700908
