DJI夜景通透风格LUT_6.DJI_20260420220703_0028_D.cube
TITLE "Generated by Resolve"
LUT_3D_SIZE 5
0 0 0
0.19855 0 0
0.490333 0 0
0.794553 0 0
1 0 0
0 0.215091 0
0.222171 0.222171 0
0.511788 0.21854 0
0.824216 0.211139 0
1 0.194598 0
0 0.496803 0
0.216983 0.510246 0
0.515892 0.510765 0
0.843519 0.502342 0
1 0.480018 0
0.120623 0.806088 0
0.312871 0.809689 0
0.596139 0.806836 0
0.927565 0.79382 0
1 0.767636 0
0.456123 1 0
0.573816 1 0
0.796704 1 0
1 1 0
1 1 0
0 0.0103304 0.247898
0.193393 0 0.23209
0.491035 0 0.197772
0.796323 0 0.183261
1 0 0.165682
0 0.217029 0.218036
0.225132 0.225132 0.225132
0.515419 0.222171 0.222171
0.828412 0.215351 0.215351
1 0.1991 0.193698
0 0.501213 0.20795
0.22266 0.515038 0.221286
0.522469 0.516075 0.218738
0.851667 0.508507 0.198642
1 0.487388 0.147005
0.137514 0.814176 0.143862
0.326711 0.817929 0.138949
0.609308 0.815457 0.11342
0.940215 0.802197 0.0472114
1 0.772656 0
0.467674 1 0
0.584024 1 0
0.804852 1 0
1 1 0
1 1 0
0 0.0500343 0.520119
0.139086 0 0.530144
0.483818 0 0.49073
0.794003 0 0.474205
1 0 0.455558
0 0.225879 0.504265
0.124788 0.16669 0.574762
0.510353 0.207645 0.531289
0.828382 0.21532 0.508568
1 0.198062 0.484977
0 0.501076 0.50277
0.223163 0.515007 0.516075
0.526268 0.516777 0.510811
0.857435 0.509377 0.491646
1 0.488701 0.449241
0.160052 0.817227 0.446342
0.343664 0.820691 0.444068
0.623484 0.818692 0.427985
0.954894 0.807004 0.390524
1 0.782528 0.325872
0.498497 1 0.26334
0.612833 1 0.253666
0.831266 1 0.228244
1 1 0.179828
1 1 0.0967575
0 0.105501 0.799161
0.0592203 0 0.820813
0.447654 0 0.820996
0.784131 0 0.79559
1 0 0.766979
0 0.256397 0.80975
0.0716259 0.218158 0.849226
0.451469 0.0773327 0.896056
0.821729 0.197513 0.838605
1 0.194156 0.795422
0 0.504509 0.823255
0.0679789 0.505058 0.858228
0.351171 0.361135 1
0.865278 0.507866 0.801495
1 0.486915 0.757259
0.194827 0.818372 0.755566
0.368566 0.821164 0.752575
0.643458 0.818936 0.736889
0.972946 0.807401 0.702312
1 0.783795 0.648859
0.530236 1 0.602136
0.641047 1 0.595926
0.85536 1 0.579828
1 1 0.55079
1 1 0.507729
0 0.181186 1
0 0.10811 1
0.315557 0 1
0.75288 0 1
1 0 1
0 0.302358 1
0 0.269352 1
0.318791 0 1
0.78909 0.132616 1
1 0.17789 1
0 0.52491 1
0 0.519036 1
0.337926 0.386404 1
0.835813 0.386297 1
1 0.483238 1
0 0.811551 1
0.260807 0.804517 1
0.521935 0.755673 1
0.998672 0.798764 1
1 0.783185 0.964614
0.571679 1 0.923506
0.677806 1 0.918257
0.885634 1 0.904707
1 1 0.880659
1 1 0.846113
