DJI夜景还原LUT_1.DJI_20260420195141_0027_D.cube
TITLE "Generated by Resolve"
LUT_3D_SIZE 33
0.059617 0.059617 0.0908522
0.059617 0.059617 0.0908522
0.0729076 0.0589761 0.0902113
0.132723 0.0562753 0.0875105
0.185245 0.0552071 0.0864424
0.22504 0.0554208 0.086656
0.265431 0.0558328 0.087068
0.308934 0.0563363 0.0875715
0.355398 0.0567178 0.087953
0.404852 0.056672 0.0879072
0.458106 0.05626 0.0874952
0.514626 0.055436 0.0866712
0.574594 0.0539864 0.0852216
0.637629 0.0516518 0.082887
0.703975 0.0493172 0.0805524
0.772564 0.0463722 0.0776074
0.842725 0.0431067 0.074342
0.913176 0.0395056 0.0707408
0.982513 0.035584 0.0668193
1 0.0312657 0.062501
1 0.0287327 0.059968
1 0.0287327 0.059968
1 0.0287327 0.059968
1 0.0287327 0.059968
1 0.0287327 0.059968
1 0.0287327 0.059968
1 0.0287327 0.059968
1 0.0287327 0.059968
1 0.0287327 0.059968
1 0.0287327 0.059968
1 0.0287327 0.059968
1 0.0287327 0.059968
1 0.0287327 0.059968
0.059617 0.059617 0.0908522
0.059617 0.059617 0.0908522
0.059617 0.059617 0.0908522
0.112902 0.0569619 0.0881819
0.168215 0.0553292 0.0865644
0.212909 0.0552529 0.0864881
0.255665 0.0556802 0.0869154
0.300984 0.0561685 0.0874037
0.348882 0.0566415 0.0878767
0.399481 0.0566567 0.087892
0.453422 0.0562905 0.0875257
0.510719 0.0554818 0.086717
0.571374 0.0540475 0.0852827
0.634653 0.0517586 0.0829938
0.701335 0.049424 0.0806592
0.770214 0.046479 0.0777142
0.840589 0.0431983 0.0744335
0.911284 0.0396887 0.0709239
0.980758 0.0356756 0.0669108
1 0.0313268 0.062562
1 0.0287327 0.059968
1 0.0287327 0.059968
1 0.0287327 0.059968
1 0.0287327 0.059968
1 0.0287327 0.059968
1 0.0287327 0.059968
1 0.0287327 0.059968
1 0.0287327 0.059968
1 0.0287327 0.059968
1 0.0287327 0.059968
1 0.0287327 0.059968
1 0.0287327 0.059968
1 0.0287327 0.059968
0.059617 0.059617 0.0908522
0.059617 0.059617 0.0908522
0.059617 0.059617 0.0908522
0.0924697 0.0577859 0.0890211
0.150164 0.0555428 0.0867781
0.199939 0.0553445 0.0865797
0.245533 0.0556649 0.0869001
0.292561 0.0560159 0.0872511
0.341878 0.0565957 0.0878309
0.393927 0.0566262 0.0878614
0.448783 0.0562753 0.0875105
0.506722 0.0555123 0.0867475
0.56791 0.0541543 0.0853895
0.631754 0.0518349 0.0830701
0.698894 0.0494698 0.080705
0.768032 0.0465248 0.07776
0.838636 0.0432441 0.0744793
0.909545 0.0397955 0.0710307
0.978866 0.0357824 0.0670176
1 0.0314641 0.0626993
1 0.0287327 0.059968
1 0.0287327 0.059968
1 0.0287327 0.059968
1 0.0287327 0.059968
1 0.0287327 0.059968
1 0.0287327 0.059968
1 0.0287327 0.059968
1 0.0287327 0.059968
1 0.0287327 0.059968
1 0.0287327 0.059968
1 0.0287327 0.059968
1 0.0287327 0.059968
1 0.0287327 0.059968
0.0531014 0.0924392 0.0843366
0.053666 0.0893263 0.0848859
0.0540169 0.0862593 0.0852522
0.0661631 0.0824445 0.0852979
0.126802 0.0765545 0.0832837
0.181659 0.0718853 0.0825208
0.231571 0.06804 0.0835737
0.282078 0.0631571 0.0854963
0.334722 0.0568551 0.087602
0.387961 0.0566567 0.087892
0.443809 0.0563058 0.087541
0.502632 0.0556802 0.0869154
0.564355 0.0542611 0.0854963
0.628763 0.0519112 0.0831464
0.696178 0.0495766 0.0808118
0.765606 0.0466316 0.0778668
0.836423 0.0433509 0.0745861
0.907515 0.0399023 0.0711376
0.976959 0.0359045 0.0671397
1 0.0316625 0.0628977
1 0.0287327 0.059968
1 0.0287327 0.059968
1 0.0287327 0.059968
1 0.0287327 0.059968
1 0.0287327 0.059968
1 0.0287327 0.059968
1 0.0287327 0.059968
1 0.0287327 0.059968
1 0.0287327 0.059968
1 0.0287327 0.059968
1 0.0287327 0.059968
1 0.0287327 0.059968
1 0.0287327 0.059968
0.045655 0.13312 0.0768902
0.0458381 0.130343 0.0770733
0.04654 0.127626 0.0777752
0.047013 0.12459 0.0782483
0.0981155 0.118441 0.075639
0.155154 0.112947 0.073518
0.210269 0.108354 0.0737926
0.26186 0.102861 0.0742809
0.315465 0.0957504 0.0755016
0.371466 0.087129 0.0772106
0.431556 0.076524 0.0800946
0.49572 0.0628977 0.0840467
0.560998 0.0543221 0.0855573
0.625757 0.0521248 0.08336
0.693446 0.0496834 0.0809186
0.76318 0.0467384 0.0779736
0.834211 0.0434577 0.0746929
0.90547 0.0400092 0.0712444
0.975052 0.0360113 0.0672465
1 0.0318608 0.0630961
1 0.0287327 0.059968
1 0.0287327 0.059968
1 0.0287327 0.059968
1 0.0287327 0.059968
1 0.0287327 0.059968
1 0.0287327 0.059968
1 0.0287327 0.059968
1 0.0287327 0.059968
1 0.0287327 0.059968
1 0.0287327 0.059968
1 0.0287327 0.059968
1 0.0287327 0.059968
1 0.0287327 0.059968
0.0404212 0.171221 0.0716411
0.0407416 0.168887 0.0719768
0.0410773 0.166445 0.0723125
0.0414435 0.163897 0.0726787
0.0707256 0.159091 0.070573
0.129274 0.152132 0.0667735
0.188739 0.145968 0.0651255
0.242451 0.140063 0.0644083
0.296529 0.132662 0.0642252
0.352544 0.123888 0.0644541
0.411551 0.112825 0.0654612
0.475227 0.0991073 0.06804
0.54377 0.0827039 0.0721752
0.617563 0.0627604 0.078233
0.690822 0.0497444 0.0809796
0.7608 0.0467994 0.0780346
0.831922 0.0435645 0.0747997
0.903349 0.0401312 0.0713664
0.973266 0.0360723 0.0673075
1 0.0320287 0.0632639
1 0.0287327 0.059968
1 0.0287327 0.059968
1 0.0287327 0.059968
1 0.0287327 0.059968
1 0.0287327 0.059968
1 0.0287327 0.059968
1 0.0287327 0.059968
1 0.0287327 0.059968
1 0.0287327 0.059968
1 0.0287327 0.059968
1 0.0287327 0.059968
1 0.0287327 0.059968
1 0.0287327 0.059968
0.0363622 0.20708 0.0675975
0.0365911 0.205356 0.0678264
0.0368505 0.203555 0.0680858
0.0370947 0.201724 0.0683299
0.0387732 0.199695 0.0684367
0.0989395 0.192065 0.0628824
0.164111 0.184726 0.0582742
0.221073 0.178698 0.0560464
0.276295 0.172045 0.0541695
0.332753 0.164141 0.0529793
0.391653 0.154635 0.0522316
0.454032 0.142336 0.0523842
0.521202 0.126543 0.0542916
0.592569 0.107408 0.0575265
0.670115 0.0842756 0.0640421
0.752209 0.0571603 0.072755
0.829206 0.0436561 0.0748913
0.900877 0.0402075 0.0714427
0.970764 0.0362249 0.0674601
1 0.032166 0.0634012
1 0.0287327 0.059968
1 0.0287327 0.059968
1 0.0287327 0.059968
1 0.0287327 0.059968
1 0.0287327 0.059968
1 0.0287327 0.059968
1 0.0287327 0.059968
1 0.0287327 0.059968
1 0.0287327 0.059968
1 0.0287327 0.059968
1 0.0287327 0.059968
1 0.0287327 0.059968
1 0.0287327 0.059968
0.0301061 0.241932 0.0613413
0.0304723 0.240696 0.0617075
0.030518 0.239384 0.0617533
0.0307774 0.237964 0.0620127
0.0310369 0.23653 0.0622721
0.0587472 0.232151 0.0596475
0.130282 0.223453 0.0532387
0.196002 0.216739 0.0493019
0.255055 0.210529 0.0469673
0.313848 0.203479 0.0449836
0.373861 0.19527 0.0434119
0.436347 0.185412 0.0421454
0.502068 0.173556 0.0417029
0.57113 0.15848 0.0414588
0.643977 0.139528 0.042649
0.722133 0.114336 0.0470893
0.804944 0.0847944 0.0546426
0.891234 0.0517281 0.0655222
0.967453 0.0364233 0.0676585
1 0.0323339 0.0635691
1 0.0287327 0.059968
1 0.0287327 0.059968
1 0.0287327 0.059968
1 0.0287327 0.059968
1 0.0287327 0.059968
1 0.0287327 0.059968
1 0.0287327 0.059968
1 0.0287327 0.059968
1 0.0287327 0.059968
1 0.0287327 0.059968
1 0.0287327 0.059968
1 0.0287327 0.059968
1 0.0287327 0.059968
0.0230564 0.278737 0.0542763
0.0232242 0.277623 0.0544594
0.0234379 0.276478 0.0546731
0.0237736 0.275441 0.0550088
0.0241093 0.274388 0.0553292
0.0243229 0.273167 0.0555581
0.0827039 0.265293 0.0494392
0.162844 0.256703 0.0430915
0.228748 0.250477 0.0400397
0.291341 0.243885 0.0375982
0.353735 0.236545 0.0353857
0.417777 0.227985 0.0335088
0.484092 0.217838 0.0320592
0.553307 0.205615 0.0310216
0.625422 0.190768 0.0304723
0.700084 0.172976 0.030518
0.776669 0.151186 0.031342
0.854856 0.124071 0.0339666
0.936263 0.0909438 0.0407568
1 0.0556954 0.0515297
1 0.0287327 0.059968
1 0.0287327 0.059968
1 0.0287327 0.059968
1 0.0287327 0.059968
1 0.0287327 0.059968
1 0.0287327 0.059968
1 0.0287327 0.059968
1 0.0287327 0.059968
1 0.0287327 0.059968
1 0.0287327 0.059968
1 0.0287327 0.059968
1 0.0287327 0.059968
1 0.0287327 0.059968
0.0159304 0.318059 0.0471504
0.0159609 0.317174 0.0471962
0.016144 0.316228 0.0473793
0.0163272 0.315267 0.0475624
0.0165103 0.31429 0.0477455
0.0166934 0.313283 0.0479286
0.0184787 0.311818 0.0479896
0.113207 0.300389 0.0384375
0.194385 0.292882 0.0333715
0.263554 0.28629 0.0301823
0.329473 0.279225 0.0272221
0.396109 0.271412 0.0250553
0.464225 0.26244 0.0229648
0.534356 0.251957 0.0212558
0.606683 0.239628 0.0198672
0.681132 0.225025 0.0187381
0.75668 0.208286 0.0180514
0.832425 0.188602 0.0174716
0.907195 0.1664 0.0174716
0.980102 0.141466 0.0184176
1 0.113573 0.0206912
1 0.0868696 0.0307622
1 0.0614481 0.0428016
1 0.0386053 0.0545357
1 0.0287327 0.059968
1 0.0287327 0.059968
1 0.0287327 0.059968
1 0.0287327 0.059968
1 0.0287327 0.059968
1 0.0287327 0.059968
1 0.0287327 0.059968
1 0.0287327 0.059968
1 0.0287327 0.059968
0.0080415 0.359976 0.0392767
0.00819409 0.359182 0.0394141
0.00833143 0.358389 0.0395666
0.00848402 0.35758 0.0397192
0.00863661 0.356771 0.0398718
0.00868238 0.355978 0.0399023
0.00880446 0.354925 0.0400397
0.0374304 0.350317 0.0371099
0.146334 0.338476 0.027451
0.227344 0.331212 0.0230106
0.299763 0.324453 0.0196078
0.370153 0.316854 0.0166629
0.440742 0.308675 0.0140688
0.512642 0.299336 0.0117647
0.585962 0.288609 0.00976577
0.660929 0.276158 0.00788891
0.736461 0.261982 0.00624094
0.811749 0.246067 0.00448615
0.885847 0.228672 0.00331121
0.956619 0.209842 0.00183108
1 0.19028 0.000640879
1 0.175128 0.00424201
1 0.160128 0.00791943
1 0.1458 0.0115511
1 0.132403 0.0151064
1 0.119997 0.0186007
1 0.108797 0.0221714
1 0.0988022 0.0260319
1 0.0908675 0.0289006
1 0.0847791 0.0314488
1 0.0797436 0.0336767
1 0.0761273 0.0354467
1 0.0730755 0.0369268
0 0.404608 0.0308537
0 0.404044 0.0310826
0 0.403388 0.03122
0.000122072 0.402701 0.0313573
0.000106813 0.40206 0.031342
0.000183108 0.401373 0.0314183
0.000366217 0.400458 0.0315862
0.000579843 0.399268 0.0318151
0.064622 0.390448 0.0248417
0.177829 0.379751 0.0165255
0.261753 0.372274 0.0118257
0.338445 0.364858 0.00831617
0.412818 0.357092 0.00515755
0.487617 0.348394 0.00254826
0.562539 0.338552 0
0.638422 0.327611 0
0.714595 0.315312 0
0.790249 0.301656 0
0.863722 0.286976 0
0.934173 0.271687 0
0.999969 0.255909 0
1 0.24419 0
1 0.233936 0
1 0.224598 0
1 0.216251 0
1 0.209079 0
1 0.202823 0
1 0.197864 0
1 0.193729 0
1 0.190356 0.000381476
1 0.187976 0.00105287
1 0.185901 0.0015259
1 0.184298 0.00192264
0 0.45211 0.0218357
0 0.45153 0.0219425
0 0.45095 0.0220493
0 0.450355 0.0221714
0 0.449775 0.0222782
0 0.449149 0.0224002
0 0.448371 0.0225528
0 0.447349 0.0227359
0 0.446281 0.0229648
0.100404 0.432959 0.0116884
0.210773 0.423362 0.00469978
0.298558 0.415656 0.000198367
0.379171 0.407904 0
0.457511 0.399558 0
0.5355 0.39057 0
0.613016 0.380438 0
0.690364 0.369451 0
0.766522 0.357458 0
0.840497 0.344579 0
0.910811 0.331212 0
0.976593 0.317876 0
0.998566 0.307759 0
1 0.299992 0
1 0.292943 0
1 0.286625 0
1 0.281483 0
1 0.277058 0
1 0.273381 0
1 0.270726 0
1 0.268391 0
1 0.26656 0
1 0.265141 0
1 0.264042 0
0 0.501976 0.012253
0 0.501488 0.0123445
0 0.500984 0.0124361
0 0.500465 0.0125429
0 0.499962 0.0126345
0 0.499443 0.0127108
0 0.498848 0.012726
0 0.498116 0.0130159
0 0.497017 0.0132753
0 0.495552 0.0135653
0.136751 0.478523 0
0.246281 0.46949 0
0.337484 0.461295 0
0.421897 0.453101 0
0.503456 0.444434 0
0.583932 0.435218 0
0.66305 0.424918 0
0.740505 0.414038 0
0.815259 0.402502 0
0.885939 0.390631 0
0.951461 0.378744 0
0.985351 0.369238 0
0.98674 0.362997 0
0.987793 0.357244 0
0.989075 0.352392 0
0.989807 0.348196 0
0.990677 0.344884 0
0.991196 0.342092 0
0.991684 0.339803 0
0.992065 0.338003 0
0.992172 0.336675 0
0.992462 0.335653 0
0.992782 0.334951 0
0 0.553979 0.00196841
0 0.553536 0.00205997
0 0.553094 0.00213626
0 0.552651 0.00222782
0 0.552209 0.00231937
0 0.551751 0.00241093
0 0.551263 0.00250248
0 0.550668 0.00268559
0 0.549676 0.00289921
0 0.548394 0.00315862
0 0.544274 0.00102235
0.174029 0.526299 0
0.284367 0.516945 0
0.378622 0.508583 0
0.466011 0.500328 0
0.550393 0.491279 0
0.63183 0.481758 0
0.711025 0.471778 0
0.786892 0.46128 0
0.858656 0.450401 0
0.924483 0.439719 0
0.972564 0.43006 0
0.973709 0.424887 0
0.974716 0.42002 0
0.975601 0.416098 0
0.976333 0.412573 0
0.97673 0.409751 0
0.977371 0.407538 0
0.977829 0.405737 0
0.978134 0.404273 0
0.978164 0.403204 0
0.978363 0.402319 0
0.9785 0.401633 0
0 0.607401 0
0 0.607019 0
0 0.606622 0
0 0.606226 0
0 0.605829 0
0 0.605432 0
0 0.604898 0
0 0.604212 0
0 0.603357 0
0 0.60238 0
0 0.601038 0
0.0495155 0.589029 0
0.21471 0.575204 0
0.32549 0.56585 0
0.421775 0.55729 0
0.51133 0.548623 0
0.596704 0.539528 0
0.678172 0.530221 0
0.755886 0.520455 0
0.828458 0.510262 0
0.895048 0.500465 0
0.955612 0.491081 0
0.961303 0.485954 0
0.961959 0.481849 0
0.96286 0.478431 0
0.963317 0.475532 0
0.963821 0.47306 0
0.964233 0.471061 0
0.964462 0.46952 0
0.964782 0.468482 0
0.965026 0.467552 0
0.965179 0.466804 0
0.965301 0.466239 0
0 0.661341 0
0 0.661006 0
0 0.660655 0
0 0.660288 0
0 0.659937 0
0 0.659571 0
0 0.659098 0
0 0.658488 0
0 0.657694 0
0 0.656672 0
0 0.655375 0
0 0.653849 0
0.112276 0.635828 0
0.259007 0.624186 0
0.369421 0.615167 0
0.466987 0.60647 0
0.556954 0.597757 0
0.641825 0.588678 0
0.721523 0.579492 0
0.795804 0.570062 0
0.863432 0.560983 0
0.924239 0.552193 0
0.94905 0.546181 0
0.949599 0.54258 0
0.950439 0.539635 0
0.950942 0.537011 0
0.951217 0.534905 0
0.951568 0.53315 0
0.951873 0.531792 0
0.95227 0.530892 0
0.952453 0.530053 0
0.95259 0.529397 0
0.952636 0.528908 0
0 0.714626 0
0 0.714305 0
0 0.713985 0
0 0.71368 0
0 0.71339 0
0 0.713069 0
0 0.712657 0
0 0.712108 0
0 0.711376 0
0 0.710445 0
0 0.70927 0
0 0.707774 0
0 0.705959 0
0.171405 0.683299 0
0.307317 0.672648 0
0.415915 0.6636 0
0.512947 0.654932 0
0.601816 0.646311 0
0.684733 0.637613 0
0.760571 0.628779 0
0.829984 0.620157 0
0.891463 0.612024 0
0.937087 0.604791 0
0.937774 0.601785 0
0.938354 0.598947 0
0.938811 0.596582 0
0.93904 0.59472 0
0.939452 0.593256 0
0.939818 0.592142 0
0.940017 0.591165 0
0.940169 0.590402 0
0.940291 0.589822 0
0.940383 0.58938 0
0 0.766186 0
0 0.765927 0
0 0.765652 0
0 0.765377 0
0 0.765072 0
0 0.764767 0
0 0.76437 0
0 0.763851 0
0 0.763195 0
0 0.762341 0
0 0.761242 0
0 0.759869 0
0 0.758282 0
0.0318151 0.744595 0
0.232013 0.728923 0
0.358877 0.719112 0
0.46479 0.71046 0
0.559457 0.701976 0
0.645426 0.693568 0
0.724117 0.685328 0
0.794614 0.677104 0
0.857725 0.669306 0
0.912261 0.662211 0
0.926146 0.658137 0
0.926696 0.655833 0
0.927153 0.653666 0
0.927504 0.651896 0
0.92781 0.650462 0
0.928038 0.649332 0
0.928161 0.648478 0
0.928161 0.647852 0
0.928267 0.647318 0
0.928359 0.646906 0
0 0.814817 0
0 0.814542 0
0 0.814267 0
0 0.813993 0
0 0.813703 0
0 0.813413 0
0 0.813046 0
0 0.812573 0
0 0.811948 0
0 0.8112 0
0 0.81033 0
0 0.809125 0
0 0.807523 0
0 0.805554 0
0.136675 0.783597 0
0.294987 0.771984 0
0.413397 0.762798 0
0.514702 0.754528 0
0.605142 0.746349 0
0.686275 0.738399 0
0.759152 0.730678 0
0.823209 0.723445 0
0.878828 0.71667 0
0.915068 0.711162 0
0.915587 0.709041 0
0.916014 0.707012 0
0.91635 0.705364 0
0.91664 0.704036 0
0.916854 0.702983 0
0.916945 0.702205 0
0.91696 0.70161 0
0.917052 0.701106 0
0.917128 0.700725 0
0 0.859632 0
0 0.859373 0
0 0.859113 0
0 0.858839 0
0 0.858579 0
0 0.858305 0
0 0.857954 0
0 0.857496 0
0 0.856931 0
0 0.856245 0
0 0.855268 0
0 0.854047 0
0 0.852689 0
0 0.850889 0
0 0.839139 0
0.223316 0.821057 0
0.359518 0.811215 0
0.469306 0.802869 0
0.56466 0.794736 0
0.649226 0.787274 0
0.724041 0.779767 0
0.789792 0.772793 0
0.846281 0.766461 0
0.894392 0.760647 0
0.90515 0.757595 0
0.905364 0.755779 0
0.90576 0.754269 0
0.906188 0.753185 0
0.906416 0.752194 0
0.906584 0.751415 0
0.906706 0.750805 0
0.906813 0.750332 0
0.906889 0.749981 0
0 0.899718 0
0 0.899458 0
0 0.899214 0
0 0.898955 0
0 0.898695 0
0 0.898436 0
0 0.8981 0
0 0.897673 0
0 0.897093 0
0 0.896422 0
0 0.895628 0
0 0.894575 0
0 0.893126 0
0 0.89134 0
0 0.88922 0
0.141543 0.866056 0
0.304006 0.854734 0
0.424552 0.846189 0
0.525231 0.838254 0
0.613489 0.8309 0
0.690425 0.823835 0
0.757748 0.817166 0
0.815518 0.811032 0
0.864088 0.8056 0
0.895399 0.801205 0
0.895811 0.799374 0
0.8963 0.798047 0
0.896635 0.796902 0
0.896651 0.796033 0
0.896788 0.7953 0
0.89691 0.79472 0
0.897017 0.794278 0
0.897093 0.793927 0
0 0.933974 0
0 0.933974 0
0 0.933974 0
0 0.933974 0
0 0.933974 0
0 0.933837 0
0 0.933501 0
0 0.933074 0
0 0.932509 0
0 0.931777 0
0 0.930861 0
0 0.929732 0
0 0.928466 0
0 0.926741 0
0 0.924743 0
0.0415656 0.907134 0
0.248646 0.892943 0
0.381186 0.883986 0
0.48864 0.876204 0
0.580041 0.869017 0
0.65951 0.862043 0
0.728313 0.855711 0
0.786999 0.849882 0
0.83653 0.844587 0
0.877485 0.839963 0
0.887266 0.837507 0
0.887434 0.836133 0
0.887648 0.834989 0
0.887861 0.834073 0
0.888014 0.833356 0
0.888197 0.832837 0
0.888365 0.832486 0
0.888487 0.832197 0
0 0.933974 0
0 0.933974 0
0 0.933974 0
0 0.933974 0
0 0.933974 0
0 0.933974 0
0 0.933974 0
0 0.933974 0
0 0.933974 0
0 0.933974 0
0 0.933974 0
0 0.933974 0
0 0.933974 0
0 0.933974 0
0 0.933974 0
0 0.932647 0
0.197696 0.909773 0
0.344259 0.9028 0
0.457053 0.898085 0
0.551385 0.893919 0
0.632258 0.890303 0
0.701823 0.887144 0
0.761196 0.883009 0
0.811627 0.877821 0
0.853254 0.873533 0
0.879454 0.869978 0
0.879606 0.86865 0
0.879896 0.867506 0
0.880125 0.866606 0
0.8804 0.86598 0
0.880613 0.865522 0
0.880781 0.865171 0
0.880858 0.864836 0
0 0.933974 0
0 0.933974 0
0 0.933974 0
0 0.933974 0
0 0.933974 0
0 0.933974 0
0 0.933974 0
0 0.933974 0
0 0.933974 0
0 0.933974 0
0 0.933974 0
0 0.933974 0
0 0.933974 0
0 0.933974 0
0 0.933974 0
0 0.933974 0
0.151568 0.912169 0
0.315297 0.904173 0
0.434485 0.898985 0
0.532418 0.89485 0
0.615259 0.891234 0
0.685908 0.887831 0
0.745953 0.884901 0
0.795926 0.882048 0
0.837354 0.879637 0
0.871305 0.87776 0
0.877333 0.877333 0
0.877333 0.877333 0
0.877333 0.877333 0
0.877333 0.877333 0
0.877333 0.877333 0
0.877333 0.877333 0
0.877333 0.877333 0
0 0.933974 0
0 0.933974 0
0 0.933974 0
0 0.933974 0
0 0.933974 0
0 0.933974 0
0 0.933974 0
0 0.933974 0
0 0.933974 0
0 0.933974 0
0 0.933974 0
0 0.933974 0
0 0.933974 0
0 0.933974 0
0 0.933974 0
0 0.933974 0
0.105806 0.914687 0
0.289555 0.90544 0
0.41503 0.899947 0
0.515953 0.89546 0
0.600717 0.891783 0
0.672572 0.888365 0
0.733303 0.885496 0
0.783902 0.882902 0
0.825681 0.880507 0
0.859388 0.878492 0
0.877333 0.877333 0
0.877333 0.877333 0
0.877333 0.877333 0
0.877333 0.877333 0
0.877333 0.877333 0
0.877333 0.877333 0
0.877333 0.877333 0
0 0.933974 0
0 0.933974 0
0 0.933974 0
0 0.933974 0
0 0.933974 0
0 0.933974 0
0 0.933974 0
0 0.933974 0
0 0.933974 0
0 0.933974 0
0 0.933974 0
0 0.933974 0
0 0.933974 0
0 0.933974 0
0 0.933974 0
0 0.933974 0
0.0601358 0.917357 0
0.267033 0.90634 0
0.398428 0.900557 0
0.502083 0.89601 0
0.588495 0.892287 0
0.661463 0.88893 0
0.722789 0.885985 0
0.773907 0.883375 0
0.815946 0.88101 0
0.849836 0.879011 0
0.877333 0.877333 0
0.877333 0.877333 0
0.877333 0.877333 0
0.877333 0.877333 0
0.877333 0.877333 0
0.877333 0.877333 0
0.877333 0.877333 0
0 0.933974 0
0 0.933974 0
0 0.933974 0
0 0.933974 0
0 0.933974 0
0 0.933974 0
0 0.933974 0
0 0.933974 0
0 0.933974 0
