DJI夜景通透风格LUT_6.DJI_20260420220703_0028_D.cube
TITLE "Generated by Resolve"
LUT_3D_SIZE 9
0 0 0
0.0765087 0 0
0.19855 0 0
0.342473 0 0
0.490333 0 0
0.639948 0 0
0.794553 0 0
0.953521 0 0
1 0 0
0 0.0927138 0
0.0813916 0.0965744 0
0.217884 0.0936599 0
0.3608 0.0885786 0
0.50753 0.0839399 0
0.659663 0.0788281 0
0.816556 0.073167 0
0.977569 0.0670634 0
1 0.0570535 0
0 0.215091 0
0.0910201 0.221347 0
0.222171 0.222171 0
0.363455 0.220981 0
0.511788 0.21854 0
0.66569 0.215183 0
0.824216 0.211139 0
0.987655 0.205585 0
1 0.194598 0
0 0.351904 0
0.0872816 0.360067 0
0.220142 0.3626 0
0.362982 0.362982 0
0.512779 0.36199 0
0.668025 0.359991 0
0.82974 0.356008 0
0.99852 0.348638 0
1 0.336416 0
0 0.496803 0
0.0828107 0.506386 0
0.216983 0.510246 0
0.3626 0.511482 0
0.515892 0.510765 0
0.676387 0.507851 0
0.843519 0.502342 0
1 0.4934 0
1 0.480018 0
0 0.649912 0
0.111162 0.656901 0
0.240253 0.660075 0
0.384878 0.660899 0
0.539925 0.659373 0
0.703105 0.65539 0
0.87364 0.648569 0
1 0.638285 0
1 0.623865 0
0.120623 0.806088 0
0.2038 0.808377 0
0.312871 0.809689 0
0.446586 0.809354 0
0.596139 0.806836 0
0.757153 0.801801 0
0.927565 0.79382 0
1 0.782483 0
1 0.767636 0
0.285328 0.958206 0
0.345739 0.95848 0
0.433951 0.95819 0
0.551446 0.956542 0
0.689448 0.953033 0
0.841779 0.947417 0
1 0.939437 0
1 0.92903 0
1 0.916152 0
0.456123 1 0
0.502464 1 0
0.573816 1 0
0.674022 1 0
0.796704 1 0
0.935988 1 0
1 1 0
1 1 0
1 1 0
0 0.000885023 0.109255
0.0677958 0 0.116045
0.198108 0 0.102541
0.343755 0 0.0820172
0.491722 0 0.0681468
0.641535 0 0.0607156
0.796429 0 0.0530404
0.955642 0 0.0451514
1 0 0.0352483
0 0.0926986 0.105577
0.0853132 0.0970016 0.102739
0.220127 0.0948501 0.0972305
0.362936 0.090425 0.0905165
0.509728 0.0861524 0.0861524
0.662058 0.0809796 0.0809796
0.81915 0.075761 0.075761
0.980331 0.0698253 0.0698253
1 0.059968 0.0584115
0 0.217136 0.0868086
0.0933089 0.223636 0.0933089
0.224659 0.224659 0.0943313
0.36611 0.223636 0.0933242
0.514611 0.221363 0.0910353
0.668666 0.218158 0.0878309
0.827329 0.214252 0.0839246
0.991028 0.208804 0.0772717
1 0.198032 0.0599069
0 0.35462 0.0818341
0.0901503 0.362936 0.0901503
0.223163 0.365621 0.0928359
0.36614 0.36614 0.0933547
0.516075 0.36527 0.0924849
0.671443 0.363394 0.0906081
0.833555 0.359518 0.0839857
1 0.352377 0.0690013
1 0.340383 0.0409094
0 0.500023 0.0764324
0.0861372 0.509728 0.0861372
0.220905 0.513634 0.0896468
0.366476 0.515053 0.0898604
0.520104 0.514473 0.0862287
0.680751 0.511833 0.0773327
0.84831 0.506523 0.0607004
1 0.497612 0.0323339
1 0.483742 0
0.00132753 0.653986 0.0578164
0.116808 0.660975 0.0627451
0.24564 0.66424 0.0623026
0.390295 0.665171 0.0566567
0.545357 0.663722 0.0442206
0.708507 0.659693 0.0248875
0.878721 0.652476 0
1 0.641169 0
1 0.626017 0
0.127962 0.810132 0
0.210208 0.812299 0
0.318578 0.813306 0
0.451621 0.812558 0
0.600671 0.809644 0
0.761181 0.804211 0
0.931044 0.795865 0
1 0.7841 0
1 0.768917 0
0.290608 0.960113 0
0.350439 0.960342 0
0.438376 0.959945 0
0.555428 0.95819 0
0.692821 0.954559 0
0.844831 0.948775 0
1 0.940612 0
1 0.930037 0
1 0.916976 0
0.460227 1 0
0.506096 1 0
0.577539 1 0
0.67715 1 0
0.799344 1 0
0.938476 1 0
1 1 0
1 1 0
1 1 0
0 0.0103304 0.247898
0.0347906 0 0.261875
0.193393 0 0.23209
0.343603 0 0.209918
0.491035 0 0.197772
0.641169 0 0.190661
0.796323 0 0.183261
0.955779 0 0.175601
1 0 0.165682
0 0.0973068 0.228626
0.0405737 0.067689 0.267597
0.217456 0.084123 0.239612
0.363088 0.0903029 0.22063
0.509941 0.0863508 0.216678
0.66247 0.0816358 0.211963
0.81973 0.0763409 0.206668
0.981079 0.070573 0.2009
1 0.0602884 0.189914
0 0.217029 0.218036
0.0926528 0.22356 0.225193
0.225132 0.225132 0.225132
0.366751 0.224292 0.224292
0.515419 0.222171 0.222171
0.669627 0.21912 0.21912
0.828412 0.215351 0.215351
0.992569 0.209827 0.208789
1 0.1991 0.193698
0 0.355322 0.212863
0.0910201 0.363806 0.221347
0.22417 0.366629 0.22417
0.367285 0.367285 0.224826
0.517342 0.366537 0.224079
0.672831 0.364782 0.222324
0.835523 0.360891 0.216022
1 0.353857 0.203387
1 0.342229 0.181796
0 0.501213 0.20795
0.0874495 0.51104 0.217777
0.22266 0.515038 0.221286
0.368368 0.516579 0.221653
0.522469 0.516075 0.218738
0.683619 0.513542 0.211505
0.851667 0.508507 0.198642
1 0.50016 0.178119
1 0.487388 0.147005
0.0062562 0.656062 0.193057
0.121462 0.662959 0.198505
0.249882 0.6663 0.199191
0.394553 0.667399 0.195804
0.549676 0.666316 0.187671
0.71342 0.662791 0.173663
0.884596 0.656443 0.15198
1 0.646555 0.119677
1 0.632166 0.0708324
0.137514 0.814176 0.143862
0.218753 0.816495 0.142992
0.326711 0.817929 0.138949
0.459998 0.817777 0.129717
0.609308 0.815457 0.11342
0.770275 0.810483 0.0876478
0.940215 0.802197 0.0472114
1 0.789563 0
1 0.772656 0
0.302251 0.966369 0.0154879
0.361517 0.966476 0.00953689
0.448814 0.965759 0
0.564446 0.963302 0
0.70074 0.958877 0
0.851774 0.952438 0
1 0.943725 0
1 0.932692 0
1 0.919142 0
0.467674 1 0
0.513222 1 0
0.584024 1 0
0.683192 1 0
0.804852 1 0
0.943389 1 0
1 1 0
1 1 0
1 1 0
0 0.0280766 0.385595
0.0118868 0 0.391882
0.180301 0 0.374289
0.340032 0 0.350408
0.489586 0 0.338796
0.640024 0 0.331975
0.795422 0 0.324819
0.955093 0 0.317388
1 0 0.306996
0 0.108614 0.361624
0.0273289 0.0798962 0.387259
0.190845 0.0347601 0.40621
0.359258 0.0801099 0.370901
0.509346 0.0857557 0.358541
0.662058 0.0809796 0.354025
0.819501 0.076112 0.348898
0.981003 0.0705119 0.343297
1 0.0596323 0.331716
0 0.218235 0.361593
0.0349279 0.215778 0.386099
0.136736 0.155993 0.460655
0.360754 0.213184 0.386725
0.515404 0.222156 0.364614
0.669749 0.219242 0.3617
0.828672 0.21561 0.358068
0.993423 0.209949 0.35108
1 0.199039 0.336217
0 0.35494 0.356481
0.0880598 0.363409 0.365637
0.22414 0.366476 0.367742
0.36759 0.36759 0.36759
0.517769 0.366979 0.366979
0.673747 0.365194 0.364874
0.836881 0.361334 0.358526
1 0.354314 0.346212
1 0.342718 0.326375
0 0.501564 0.350774
0.0879225 0.511513 0.360708
0.223941 0.515572 0.363989
0.370047 0.517159 0.364279
0.524315 0.516762 0.361303
0.685924 0.514275 0.354391
0.85449 0.5093 0.342519
1 0.50106 0.324361
1 0.488563 0.298131
0.012604 0.657313 0.336522
0.126833 0.663951 0.341817
0.254444 0.667277 0.342794
0.398627 0.668452 0.340032
0.553933 0.667414 0.333059
0.717754 0.664042 0.321248
0.88922 0.657923 0.30341
1 0.648447 0.278202
1 0.63476 0.243336
0.147326 0.816083 0.294957
0.22768 0.818296 0.29482
0.33431 0.819776 0.292195
0.466926 0.819745 0.285573
0.616098 0.817655 0.273808
0.777234 0.813092 0.255787
0.947784 0.805661 0.229984
1 0.794751 0.193912
1 0.78024 0.146593
0.315679 0.970748 0.207294
0.374197 0.971084 0.203738
0.461036 0.970825 0.196811
0.576791 0.969375 0.184649
0.713329 0.966079 0.166018
0.864729 0.96054 0.139605
1 0.952544 0.103243
1 0.941512 0.0521859
1 0.926619 0
0.483757 1 0.0499428
0.528893 1 0.04271
0.599039 1 0.0300298
0.697108 1 0.0111543
0.817121 1 0
0.954086 1 0
1 1 0
1 1 0
1 1 0
0 0.0500343 0.520119
0.00187686 0.00926223 0.523674
0.139086 0 0.530144
0.329183 0 0.49987
0.483818 0 0.49073
0.638361 0 0.481102
0.794003 0 0.474205
0.953902 0 0.466972
1 0 0.455558
0 0.124712 0.502739
0.0144961 0.0996719 0.521874
0.130343 0 0.563851
0.341405 0.0496529 0.535683
0.504189 0.0749218 0.516304
0.661112 0.080293 0.503868
0.818723 0.0753338 0.498909
0.980377 0.0698863 0.493462
1 0.0580453 0.480476
0 0.225879 0.504265
0.0104372 0.221744 0.525505
0.124788 0.16669 0.574762
0.330556 0.139055 0.586633
0.510353 0.207645 0.531289
0.669322 0.218814 0.512078
0.828382 0.21532 0.508568
0.994018 0.209339 0.500526
1 0.198062 0.484977
0 0.355077 0.512245
0.00497444 0.359274 0.531289
0.149493 0.349416 0.559609
0.300954 0.309163 0.619104
0.513512 0.360006 0.532433
0.67422 0.365026 0.515099
0.838026 0.361135 0.508019
1 0.354009 0.495216
1 0.342367 0.475456
0 0.501076 0.50277
0.0846876 0.510964 0.512596
0.223163 0.515007 0.516075
0.371542 0.517159 0.514138
0.526268 0.516777 0.510811
0.688365 0.514321 0.503609
0.857435 0.509377 0.491646
1 0.501183 0.473899
1 0.488701 0.449241
0.0211948 0.658137 0.486213
0.1337 0.664363 0.491096
0.2598 0.667628 0.491966
0.403494 0.668803 0.489235
0.558572 0.667826 0.482506
0.722469 0.66453 0.471229
0.894179 0.658488 0.454643
1 0.649088 0.431724
1 0.635538 0.40116
0.160052 0.817227 0.446342
0.238315 0.819303 0.446311
0.343664 0.820691 0.444068
0.474968 0.820706 0.4383
0.623484 0.818692 0.427985
0.784436 0.814221 0.412436
0.954894 0.807004 0.390524
1 0.796368 0.36144
1 0.782528 0.325872
0.329458 0.972671 0.370672
0.386984 0.972992 0.368078
0.472755 0.972763 0.362921
0.587472 0.97142 0.353887
0.723125 0.968383 0.340276
0.873945 0.963256 0.321614
1 0.955795 0.297398
1 0.945953 0.267048
1 0.933425 0.229755
0.498497 1 0.26334
0.542947 1 0.259831
0.612833 1 0.253666
0.710781 1 0.243458
0.831266 1 0.228244
0.969177 1 0.207477
1 1 0.179828
1 1 0.143938
1 1 0.0967575
0 0.0742657 0.655512
0 0.0336156 0.660929
0.0894179 0 0.675731
0.300435 0 0.667292
0.471534 0 0.648814
0.631434 0 0.640604
0.792203 0 0.629633
0.952285 0 0.622629
1 0 0.609277
0 0.145602 0.650752
0 0.122927 0.667445
0.0934615 0.0222324 0.699718
0.301259 0 0.70837
0.489021 0.0563516 0.682033
0.654688 0.0696727 0.668025
0.817533 0.0741436 0.654978
0.979873 0.0683146 0.64863
1 0.0556954 0.634302
0 0.238926 0.653986
0 0.232471 0.673167
0.100069 0.189654 0.705898
0.262715 0.0286107 0.762737
0.491341 0.159945 0.714733
0.663447 0.202655 0.683024
0.82797 0.214435 0.664652
0.99472 0.208057 0.655299
1 0.19649 0.638437
0 0.360327 0.661692
0 0.363684 0.679896
0.104738 0.348394 0.707988
0.235248 0.272755 0.78204
0.468071 0.257465 0.785412
0.667704 0.347692 0.695613
0.839384 0.360327 0.66273
1 0.353063 0.648905
1 0.341207 0.628367
0 0.500038 0.668879
0 0.507271 0.685023
0.132189 0.505455 0.702174
0.282673 0.488655 0.741588
0.522026 0.495094 0.704387
0.691249 0.513848 0.657511
0.860929 0.508858 0.644953
1 0.500603 0.626856
1 0.48806 0.602258
0.0335546 0.658747 0.640803
0.142367 0.664408 0.644968
0.266789 0.667506 0.645518
0.409476 0.668681 0.642527
0.564263 0.667704 0.635584
0.728145 0.664424 0.624155
0.90013 0.658351 0.607767
1 0.648997 0.585473
1 0.635584 0.556451
0.175708 0.81796 0.599847
0.251316 0.819852 0.59968
0.354833 0.821118 0.597452
0.48481 0.821073 0.591836
0.632547 0.819043 0.581949
0.792844 0.814649 0.567208
0.963256 0.807446 0.546822
1 0.797024 0.520546
1 0.78349 0.489616
0.346303 0.9738 0.528222
0.402564 0.97406 0.525979
0.486519 0.973846 0.521492
0.599664 0.972549 0.513726
0.734096 0.969589 0.502083
0.884108 0.964569 0.486275
1 0.957443 0.466163
1 0.947784 0.441657
1 0.935699 0.412558
0.513024 1 0.437568
0.557321 1 0.434943
0.626291 1 0.430304
0.723201 1 0.422644
0.842725 1 0.411399
0.979904 1 0.396201
1 1 0.376776
1 1 0.352636
1 1 0.323659
0 0.105501 0.799161
0 0.068574 0.807126
0.0592203 0 0.820813
0.235111 0 0.844862
0.447654 0 0.820996
0.619089 0 0.804089
0.784131 0 0.79559
0.950362 0 0.783261
1 0 0.766979
0 0.17145 0.805844
0 0.151888 0.821118
0.0709697 0.0893873 0.841978
0.228504 0 0.883345
0.460288 0 0.857877
0.640787 0.0576944 0.836713
0.809857 0.063798 0.824796
0.979385 0.0661173 0.808331
1 0.0526894 0.791928
0 0.256397 0.80975
0 0.249042 0.826993
0.0716259 0.218158 0.849226
0.205005 0.0251164 0.908873
0.451469 0.0773327 0.896056
0.647318 0.16994 0.861875
0.821729 0.197513 0.838605
0.995712 0.206256 0.813962
1 0.194156 0.795422
0 0.370413 0.815778
0 0.371893 0.833539
0.0646983 0.358602 0.85507
0.215564 0.28957 0.910521
0.405341 0.156741 0.968811
0.650919 0.287648 0.896819
0.83595 0.344335 0.838895
1 0.351614 0.806073
1 0.339498 0.784283
0 0.504509 0.823255
0 0.510872 0.838911
0.0679789 0.505058 0.858228
0.246403 0.478157 0.898161
0.351171 0.361135 1
0.65333 0.41445 0.941299
0.865278 0.507866 0.801495
1 0.499565 0.782467
1 0.486915 0.757259
0 0.65594 0.817807
0.00428779 0.65919 0.825696
0.181308 0.658305 0.835813
0.333043 0.650248 0.857176
0.515709 0.637964 0.871275
0.749538 0.663249 0.767147
0.90721 0.657771 0.762829
1 0.648447 0.740353
1 0.634897 0.711589
0.194827 0.818372 0.755566
0.267704 0.82002 0.755062
0.368566 0.821164 0.752575
0.496788 0.821027 0.746838
0.643458 0.818936 0.736889
0.802945 0.814572 0.722286
0.972946 0.807401 0.702312
1 0.797086 0.677424
1 0.783795 0.648859
0.366094 0.974517 0.684611
0.420706 0.974701 0.682475
0.502541 0.974487 0.678279
0.613993 0.973129 0.671122
0.746761 0.97023 0.660441
0.895384 0.965347 0.646052
1 0.958282 0.628
1 0.948928 0.60618
1 0.936996 0.58085
0.530236 1 0.602136
0.573556 1 0.599878
0.641047 1 0.595926
0.736965 1 0.589395
0.85536 1 0.579828
0.991302 1 0.567056
1 1 0.55079
1 1 0.531044
1 1 0.507729
0 0.141558 0.953445
0 0.114229 0.963012
0.0302739 0.0428168 0.975128
0.177203 0 1
0.400153 0 1
0.598398 0 0.979187
0.771664 0 0.96376
0.942123 0 0.952789
1 0 0.927504
0 0.201297 0.966598
0 0.184222 0.980255
0.0400702 0.136019 0.996597
0.178866 0 1
0.407111 0 1
0.61767 0.00375372 1
0.796475 0.0573892 0.99675
0.972534 0.054902 0.980301
1 0.048661 0.95227
0 0.277699 0.970352
0 0.270237 0.986114
0.037705 0.241779 1
0.182559 0.122637 1
0.384802 0 1
0.618372 0.108537 1
0.808606 0.176242 1
0.991455 0.19028 0.987137
1 0.191394 0.954971
0 0.384558 0.975052
0 0.384848 0.991943
0.0255589 0.371099 1
0.189502 0.31487 1
0.338109 0.0965591 1
0.61474 0.217441 1
0.825284 0.300984 1
1 0.339818 0.976898
1 0.337407 0.942382
0 0.512932 0.980545
0 0.517006 0.995315
0.0224613 0.511528 1
0.213901 0.478996 1
0.351522 0.370565 1
0.606699 0.325109 1
0.853361 0.445518 1
1 0.498085 0.940154
1 0.485298 0.913802
0 0.659403 0.975326
0 0.660273 0.984344
0.112795 0.655467 0.998352
0.290028 0.638895 1
0.422065 0.587228 1
0.668254 0.551522 1
0.906798 0.641718 0.950912
1 0.64741 0.896422
1 0.633829 0.86717
0.114153 0.813352 0.936492
0.208301 0.813596 0.939193
0.319219 0.812299 0.943923
0.450462 0.807004 0.953796
0.636912 0.807324 0.928069
0.827482 0.814389 0.865965
0.984695 0.806821 0.858
1 0.796689 0.833997
1 0.783597 0.80676
0.388769 0.97496 0.841093
0.441566 0.975082 0.838941
0.521309 0.974762 0.834943
0.630564 0.973388 0.828077
0.761501 0.970489 0.817914
0.908507 0.965682 0.804379
1 0.958755 0.787457
1 0.949538 0.767285
1 0.937774 0.744076
0.549661 1 0.763317
0.592142 1 0.761318
0.658701 1 0.757748
0.752483 1 0.751827
0.869551 1 0.743221
1 1 0.731731
1 1 0.717205
1 1 0.699825
1 1 0.679408
0 0.181186 1
0 0.159838 1
0 0.10811 1
0.137667 0 1
0.315557 0 1
0.560616 0 1
0.75288 0 1
0.931258 0 1
1 0 1
0 0.233707 1
0 0.219013 1
0.00201419 0.180072 1
0.154543 0.054963 1
0.327901 0 1
0.577005 0 1
0.7776 0.0100862 1
0.962386 0.0542 1
1 0.0353857 1
0 0.302358 1
0 0.295216 1
0 0.269352 1
0.160159 0.19823 1
0.318791 0 1
0.572808 0 1
0.78909 0.132616 1
0.982025 0.178042 1
1 0.17789 1
0 0.402213 1
0 0.401816 1
0 0.38764 1
0.162951 0.344839 1
0.30016 0.148394 1
0.562051 0.0934615 1
0.805356 0.252979 1
1 0.30663 1
1 0.332021 1
0 0.52491 1
0 0.526787 1
0 0.519036 1
0.187198 0.48806 1
0.337926 0.386404 1
0.552407 0.224765 1
0.835813 0.386297 1
1 0.456779 1
1 0.483238 1
0 0.664622 1
0 0.664759 1
0.0648203 0.657664 1
0.258824 0.634531 1
0.409445 0.572305 1
0.528252 0.374319 1
0.883345 0.542229 1
1 0.639368 1
1 0.632303 1
0 0.811551 1
0.1243 0.809796 1
0.260807 0.804517 1
0.397818 0.791165 1
0.521935 0.755673 1
0.817899 0.780728 1
0.998672 0.798764 1
1 0.796094 0.990875
1 0.783185 0.964614
0.392309 0.971695 1
0.446143 0.971466 1
0.528008 0.970672 1
0.646296 0.971038 0.992798
0.781109 0.970336 0.973968
0.923476 0.965743 0.962463
1 0.958846 0.946349
1 0.949798 0.927214
1 0.938323 0.905364
0.571679 1 0.923506
0.613108 1 0.921614
0.677806 1 0.918257
0.770367 1 0.912688
0.885634 1 0.904707
1 1 0.894041
1 1 0.880659
1 1 0.864652
1 1 0.846113
