DJI夜景青橙色调2LUT（不加还原LUT使用）_2.DJI_20260420195141_0027_D.cube
TITLE "Generated by Resolve"
LUT_3D_SIZE 33
0.0233616 0.0404669 0.0841535
0.0238193 0.0404669 0.0841535
0.0348669 0.0402991 0.0840162
0.0875715 0.0400092 0.0839246
0.138277 0.041413 0.0857557
0.177188 0.0435645 0.0881361
0.217563 0.0459144 0.0903944
0.261677 0.048249 0.092256
0.309972 0.0501564 0.0932937
0.362387 0.0508736 0.0928359
0.42031 0.0500038 0.0906539
0.4822 0.0476234 0.0872663
0.548089 0.0440833 0.0832074
0.617014 0.0392615 0.0783856
0.689891 0.0339971 0.0731975
0.765652 0.0268101 0.0652628
0.844144 0.017731 0.0540169
0.923659 0.0059968 0.0382696
0.998535 0.000106813 0.0170748
1 0 0.0078584
1 0 0.00563058
1 0 0.0055848
1 0 0.0055848
1 0 0.0055848
1 0 0.0055848
1 0 0.0055848
1 0 0.0055848
1 0 0.0055848
1 0 0.0055848
1 0 0.0055848
1 0 0.0055848
1 0 0.0055848
1 0 0.0055848
0.0233616 0.0404822 0.0841535
0.0233616 0.0404822 0.0841535
0.0244907 0.0404669 0.0841535
0.0676585 0.0398718 0.0836347
0.121538 0.0407111 0.0848859
0.165148 0.0428168 0.0873579
0.207645 0.0453193 0.0898451
0.253361 0.047776 0.0919051
0.302953 0.049897 0.0931868
0.356405 0.0508278 0.0929427
0.415 0.0500954 0.0908827
0.477913 0.0478065 0.0874952
0.544305 0.0442512 0.0834211
0.613748 0.0395209 0.078584
0.686748 0.0341955 0.0735027
0.762966 0.0272068 0.0655833
0.841428 0.0180972 0.0544289
0.921553 0.00631724 0.0388647
0.998489 0.000122072 0.0176699
1 0 0.00790417
1 0 0.00564584
1 0 0.0055848
1 0 0.0055848
1 0 0.0055848
1 0 0.0055848
1 0 0.0055848
1 0 0.0055848
1 0 0.0055848
1 0 0.0055848
1 0 0.0055848
1 0 0.0055848
1 0 0.0055848
1 0 0.0055848
0.0229648 0.041886 0.084062
0.0230106 0.0417334 0.084062
0.023621 0.0415808 0.0840467
0.0488441 0.0408789 0.0835126
0.103456 0.0409705 0.0840162
0.152087 0.0429999 0.0865949
0.197055 0.0453651 0.0892195
0.244526 0.0476387 0.0914321
0.29543 0.0496986 0.0930495
0.350454 0.0507668 0.0930037
0.409628 0.0502327 0.0910811
0.473243 0.0480201 0.0877241
0.54023 0.0445106 0.0836805
0.610285 0.0397345 0.0788128
0.684016 0.0344244 0.0736858
0.760266 0.0273594 0.0658732
0.83917 0.0183566 0.0547799
0.919188 0.00675975 0.0393835
0.99794 0.00015259 0.0184024
1 0 0.00799573
1 0 0.00564584
1 0 0.0055848
1 0 0.0055848
1 0 0.0055848
1 0 0.0055848
1 0 0.0055848
1 0 0.0055848
1 0 0.0055848
1 0 0.0055848
1 0 0.0055848
1 0 0.0055848
1 0 0.0055848
1 0 0.0055848
0.0144808 0.0726177 0.0818952
0.0152743 0.0693217 0.0820172
0.016083 0.0663615 0.0820172
0.0262608 0.0631876 0.0820325
0.0789197 0.0603037 0.0818952
0.133272 0.0584268 0.0832074
0.183032 0.0572213 0.0860761
0.233692 0.0550698 0.0893416
0.287343 0.0514992 0.0922255
0.34345 0.0521859 0.0925612
0.403677 0.0513008 0.0909285
0.468376 0.0486763 0.0879072
0.536309 0.0448005 0.0839094
0.607019 0.0399329 0.0790112
0.68072 0.0346838 0.0739452
0.757549 0.0276951 0.0662089
0.836332 0.0188449 0.0552377
0.916854 0.00714122 0.0399023
0.995483 0.000183108 0.0191043
0.999939 0 0.00819409
1 0 0.0056611
1 0 0.0055848
1 0 0.0055848
1 0 0.0055848
1 0 0.0055848
1 0 0.0055848
1 0 0.0055848
1 0 0.0055848
1 0 0.0055848
1 0 0.0055848
1 0 0.0055848
1 0 0.0055848
1 0 0.0055848
0.00390631 0.113497 0.0795453
0.00434882 0.110765 0.0794842
0.00512703 0.108049 0.079881
0.00677501 0.104967 0.0800031
0.0479286 0.100267 0.0781872
0.105882 0.0968185 0.0769055
0.162478 0.0943313 0.0784314
0.215076 0.0910506 0.0797436
0.270024 0.0861982 0.0813001
0.328237 0.0797131 0.0825208
0.39173 0.0702373 0.0836652
0.460533 0.0568856 0.084596
0.531609 0.0465858 0.0833448
0.603159 0.0408637 0.0790417
0.677699 0.0349889 0.0741894
0.75462 0.0278477 0.0665293
0.833906 0.0189822 0.0556191
0.914168 0.00762951 0.0404669
0.993362 0.000198367 0.0197757
0.999863 0 0.00842298
1 0 0.0056611
1 0 0.0055848
1 0 0.0055848
1 0 0.0055848
1 0 0.0055848
1 0 0.0055848
1 0 0.0055848
1 0 0.0055848
1 0 0.0055848
1 0 0.0055848
1 0 0.0055848
1 0 0.0055848
1 0 0.0055848
0 0.15201 0.0766613
0 0.149737 0.0768902
0 0.147295 0.0771191
0 0.144717 0.0775311
0.0223087 0.140566 0.0754559
0.0781415 0.135027 0.0720378
0.14136 0.130434 0.0706951
0.197269 0.126177 0.070161
0.253162 0.120546 0.0698253
0.311528 0.113313 0.0692912
0.373587 0.103609 0.0686961
0.441199 0.0905013 0.0689403
0.514519 0.0738384 0.0703593
0.593591 0.0531472 0.0732586
0.673167 0.0372168 0.0734112
0.751507 0.0288396 0.0665141
0.830945 0.0194095 0.0560464
0.911757 0.00798047 0.0410163
0.990906 0.000244144 0.0204318
0.999802 0 0.00859083
1 0 0.0056611
1 0 0.0055848
1 0 0.0055848
1 0 0.0055848
1 0 0.0055848
1 0 0.0055848
1 0 0.0055848
1 0 0.0055848
1 0 0.0055848
1 0 0.0055848
1 0 0.0055848
1 0 0.0055848
1 0 0.0055848
0 0.188312 0.0728923
0 0.186679 0.0731365
0 0.184894 0.0734264
0 0.183047 0.0736858
0 0.180911 0.0737163
0.0471199 0.174533 0.0686351
0.117388 0.168261 0.0640269
0.178317 0.163333 0.0614633
0.236255 0.15787 0.0590524
0.295552 0.151049 0.0568704
0.35729 0.142473 0.0546883
0.422827 0.131121 0.0530404
0.49366 0.11577 0.0527962
0.56968 0.0959945 0.0537118
0.651987 0.0716411 0.0571145
0.740703 0.0420691 0.0606546
0.826169 0.022446 0.055314
0.908095 0.00918593 0.0413519
0.987686 0.000289921 0.0213931
0.999664 0 0.00877394
1 0 0.00567636
1 0 0.0055848
1 0 0.0055848
1 0 0.0055848
1 0 0.0055848
1 0 0.0055848
1 0 0.0055848
1 0 0.0055848
1 0 0.0055848
1 0 0.0055848
1 0 0.0055848
1 0 0.0055848
1 0 0.0055848
0 0.223667 0.0650034
0 0.222492 0.0654002
0 0.221195 0.065568
0 0.219776 0.0658885
0 0.21828 0.0661936
0.0169375 0.214267 0.0638895
0.0851606 0.206638 0.0577554
0.156527 0.200595 0.053254
0.219394 0.195163 0.0501411
0.280751 0.188983 0.0471809
0.343343 0.181521 0.044419
0.408804 0.17232 0.0417182
0.477745 0.161013 0.0395361
0.550561 0.146029 0.0375067
0.627558 0.126635 0.0363775
0.711223 0.0995346 0.0365148
0.80116 0.064622 0.0368658
0.895979 0.0250858 0.0354467
0.98175 0.00263981 0.021088
0.999512 0.000213626 0.00833143
1 0 0.00564584
1 0 0.00555428
1 0 0.00556954
1 0 0.0055848
1 0 0.0055848
1 0 0.0055848
1 0 0.0055848
1 0 0.0055848
1 0 0.0055848
1 0 0.0055848
1 0 0.0055848
1 0 0.0055848
1 0 0.0055848
0 0.261204 0.0551766
0 0.260166 0.0554208
0 0.259007 0.0557107
0 0.257969 0.0560769
0 0.256855 0.0564889
0 0.25565 0.0566415
0.0441596 0.248631 0.0514229
0.127245 0.240497 0.0449836
0.197711 0.234531 0.0411994
0.262821 0.228595 0.0379644
0.327642 0.221912 0.0347601
0.394003 0.214145 0.0316777
0.46302 0.204685 0.0288243
0.535454 0.192828 0.026154
0.611704 0.177646 0.0230411
0.691402 0.15877 0.0188907
0.773968 0.134829 0.013489
0.859632 0.102052 0.00723278
0.949935 0.0559701 0.000442512
0.998215 0.0109102 0
1 0.0024567 0.00419623
1 0.00134279 0.004654
1 0.000457771 0.00492866
1 0 0.00526436
1 0 0.00552377
1 0 0.00553903
1 0 0.00553903
1 0 0.00553903
1 0 0.00553903
1 0 0.00555428
1 0 0.00555428
1 0 0.00555428
1 0 0.00555428
0 0.301823 0.0452277
0 0.300984 0.0453346
0 0.299992 0.0455634
0 0.299001 0.0457923
0 0.297795 0.0460975
0 0.296895 0.0463264
0 0.295201 0.0462959
0.0825208 0.284916 0.0381323
0.167407 0.277623 0.0324254
0.239521 0.271427 0.0285344
0.307683 0.264958 0.0248417
0.376226 0.25774 0.0216678
0.446662 0.249348 0.0183871
0.520058 0.239216 0.0146792
0.596155 0.227085 0.0102541
0.675395 0.211902 0.00480659
0.756619 0.193591 0.000198367
0.839307 0.170794 0
0.922179 0.142016 0
0.996185 0.104921 0
1 0.0686351 0
1 0.0392767 0
1 0.0157626 0
1 0.00486763 0.000411994
1 0.00335698 0.00407416
1 0.00303655 0.00434882
1 0.00268559 0.00442512
1 0.00236515 0.00450141
1 0.00210575 0.00460822
1 0.00161746 0.00468452
1 0.00148013 0.00468452
1 0.00135805 0.00479133
1 0.0011902 0.00482185
7.62951e-05 0.345632 0.0346838
6.10361e-05 0.3449 0.0348516
6.10361e-05 0.34406 0.03505
6.10361e-05 0.343206 0.0352636
6.10361e-05 0.342336 0.035462
7.62951e-05 0.341848 0.035462
6.10361e-05 0.340475 0.0356603
0.0244907 0.336049 0.0332036
0.123629 0.32491 0.0245365
0.207553 0.317601 0.019379
0.282582 0.310979 0.0152743
0.354665 0.303944 0.0113069
0.427665 0.296178 0.00717174
0.502235 0.287572 0.002533
0.57911 0.276967 0.000122072
0.658625 0.263951 0
0.739681 0.248646 0
0.821683 0.23064 0
0.903792 0.208576 0
0.983017 0.182956 0
0.999374 0.156161 0
1 0.139132 0
1 0.12224 0
1 0.106218 0
1 0.090898 0
1 0.0754406 0
1 0.0627604 0
1 0.0522621 0
1 0.0436255 0
1 0.0377508 0
1 0.0336309 0
1 0.0296788 0
1 0.0266575 0
0.0033875 0.392767 0.0221561
0.00321965 0.392248 0.0224002
0.00309758 0.391562 0.0226139
0.00303655 0.390814 0.0228428
0.00273136 0.390112 0.0229496
0.00267033 0.389548 0.0230564
0.00254826 0.388586 0.023331
0.00358587 0.386984 0.023621
0.0588235 0.37882 0.0180819
0.163333 0.368185 0.00991836
0.249454 0.360845 0.00430304
0.327993 0.353735 0.000259403
0.404349 0.346273 0
0.481926 0.33785 0
0.56022 0.328161 0
0.640665 0.317052 0
0.722454 0.3037 0
0.804837 0.2878 0
0.886183 0.270115 0
0.965301 0.249317 0
0.998367 0.22649 0
1 0.213581 0
1 0.202823 0
1 0.192599 0
1 0.183795 0
1 0.176318 0
1 0.169589 0
1 0.16434 0
1 0.15967 0
1 0.156237 0
1 0.153109 0
1 0.150866 0
1 0.149218 0
0.0205997 0.443275 0.00561532
0.0204013 0.442756 0.00579843
0.0202335 0.442145 0.00602731
0.019852 0.441505 0.00627146
0.0197757 0.441062 0.00646983
0.0196689 0.440375 0.00672923
0.0192569 0.439765 0.00698863
0.0189364 0.438727 0.00737011
0.0203098 0.437064 0.00764477
0.102174 0.424918 0.000640879
0.205539 0.414618 0
0.294621 0.406622 0
0.377295 0.398962 0
0.457679 0.391211 0
0.539284 0.382132 0
0.621302 0.37145 0
0.704402 0.359365 0
0.78677 0.34583 0
0.868421 0.330053 0
0.947219 0.31281 0
0.997238 0.293858 0
1 0.280446 0
1 0.272251 0
1 0.265095 0
1 0.258137 0
1 0.253147 0
1 0.248722 0
1 0.244709 0
1 0.24155 0
1 0.239033 0
1 0.237293 0
1 0.23592 0
1 0.234775 0
0.0470893 0.496468 0
0.0466773 0.495811 0
0.0463569 0.495277 0
0.0459602 0.494728 0
0.0460975 0.494606 0
0.0457465 0.494057 0
0.0451514 0.493431 0
0.0448157 0.492607 0
0.0439765 0.491218 0
0.0457008 0.489342 0
0.147875 0.473701 0
0.252445 0.463661 0
0.344228 0.455238 0
0.43064 0.446891 0
0.515389 0.43798 0
0.599908 0.428412 0
0.684398 0.417121 0
0.768643 0.404211 0
0.850797 0.390112 0
0.929732 0.374853 0
0.995422 0.358709 0
1 0.345861 0
1 0.338628 0
1 0.333089 0
1 0.328099 0
1 0.323323 0
1 0.320073 0
1 0.316991 0
1 0.314549 0
1 0.31284 0
1 0.311666 0
1 0.31017 0
1 0.309499 0
0.0893721 0.551766 0
0.0891737 0.551385 0
0.0889448 0.551156 0
0.088365 0.550439 0
0.088426 0.550164 0
0.0878157 0.549706 0
0.0872511 0.549172 0
0.0865797 0.548486 0
0.085832 0.547448 0
0.0846876 0.546044 0
0.084184 0.54165 0
0.200641 0.524514 0
0.306294 0.513787 0
0.400153 0.504921 0
0.489174 0.4963 0
0.577127 0.486549 0
0.663798 0.475914 0
0.748837 0.464454 0
0.832273 0.45124 0
0.911894 0.43714 0
0.985687 0.422782 0
0.99939 0.409705 0
1 0.403967 0
1 0.398611 0
1 0.394598 0
1 0.39086 0
1 0.387869 0
1 0.385931 0
1 0.383764 0
1 0.382162 0
1 0.381125 0
1 0.380118 0
1 0.379339 0
0.139864 0.608591 0
0.13962 0.608286 0
0.139223 0.607874 0
0.138872 0.607446 0
0.138476 0.606989 0
0.138293 0.606775 0
0.137789 0.60621 0
0.136828 0.605264 0
0.135836 0.604166 0
0.134874 0.603113 0
0.134234 0.601465 0
0.158007 0.5906 0
0.263478 0.576013 0
0.366079 0.565454 0
0.461067 0.556313 0
0.552636 0.546654 0
0.64181 0.536156 0
0.728847 0.524987 0
0.81323 0.513115 0
0.892989 0.500298 0
0.967132 0.486854 0
0.997848 0.474083 0
1 0.467704 0
1 0.463203 0
1 0.459922 0
1 0.456764 0
1 0.454047 0
1 0.451926 0
1 0.450614 0
1 0.449592 0
1 0.448249 0
1 0.447364 0
1 0.446937 0
0.194385 0.665461 0
0.193912 0.664988 0
0.19382 0.66482 0
0.193362 0.664454 0
0.192996 0.664042 0
0.192889 0.663844 0
0.192401 0.663355 0
0.191501 0.662501 0
0.190646 0.661677 0
0.189578 0.660594 0
0.188327 0.659236 0
0.187823 0.657374 0
0.23154 0.641016 0
0.331914 0.627298 0
0.43238 0.617136 0
0.528206 0.607233 0
0.619486 0.597345 0
0.707942 0.586313 0
0.793286 0.574929 0
0.873686 0.562905 0
0.948089 0.55108 0
0.996216 0.539193 0
1 0.531151 0
1 0.527123 0
1 0.524102 0
1 0.521324 0
1 0.519234 0
1 0.517052 0
1 0.515923 0
1 0.514778 0
1 0.513848 0
1 0.512886 0
1 0.513039 0
0.248707 0.721523 0
0.24831 0.721096 0
0.248402 0.721202 0
0.247883 0.720653 0
0.247578 0.720302 0
0.24715 0.719951 0
0.246998 0.719722 0
0.246235 0.718914 0
0.245518 0.718151 0
0.244572 0.717189 0
0.243366 0.715953 0
0.24213 0.714595 0
0.24155 0.712123 0
0.305089 0.691066 0
0.40531 0.677607 0
0.503807 0.667048 0
0.597421 0.65713 0
0.687343 0.646998 0
0.773434 0.636057 0
0.853758 0.624949 0
0.928252 0.613764 0
0.993622 0.603113 0
0.999939 0.593774 0
1 0.589609 0
1 0.586542 0
1 0.584298 0
1 0.582467 0
1 0.580591 0
1 0.579217 0
1 0.57792 0
1 0.57731 0
1 0.577096 0
1 0.576349 0
0.298009 0.776104 0
0.297871 0.775921 0
0.297642 0.775616 0
0.297398 0.775296 0
0.297246 0.775158 0
0.296574 0.774411 0
0.296239 0.773983 0
0.29572 0.773434 0
0.295125 0.772747 0
0.294499 0.772045 0
0.293492 0.770886 0
0.292226 0.769436 0
0.291112 0.76759 0
0.293233 0.755154 0
0.380011 0.738201 0
0.47921 0.726207 0
0.575158 0.715892 0
0.666026 0.705806 0
0.752621 0.695445 0
0.833829 0.685115 0
0.908125 0.674601 0
0.975616 0.664424 0
0.99823 0.655451 0
1 0.649821 0
1 0.647013 0
1 0.644862 0
1 0.64268 0
1 0.641291 0
1 0.640055 0
1 0.639094 0
1 0.638544 0
1 0.637736 0
1 0.637507 0
0.341817 0.827832 0
0.341711 0.827649 0
0.341482 0.827359 0
0.34136 0.827237 0
0.340932 0.826719 0
0.340658 0.826383 0
0.340337 0.825986 0
0.339879 0.825483 0
0.339406 0.824857 0
0.338735 0.824094 0
0.337774 0.82295 0
0.336904 0.82182 0
0.335485 0.820127 0
0.334493 0.817685 0
0.367269 0.797498 0
0.457008 0.78291 0
0.552987 0.771832 0
0.645212 0.761837 0
0.73254 0.751812 0
0.813962 0.742 0
0.888518 0.732341 0
0.955932 0.722866 0
0.996231 0.713756 0
1 0.706889 0
1 0.703944 0
1 0.701701 0
1 0.699641 0
1 0.698573 0
1 0.697459 0
1 0.696529 0
1 0.695766 0
1 0.69546 0
1 0.695048 0
0.380301 0.875776 0
0.380087 0.875456 0
0.379858 0.875166 0
0.379614 0.874876 0
0.379492 0.874739 0
0.379263 0.874418 0
0.378988 0.874037 0
0.378576 0.873564 0
0.378103 0.872984 0
0.377447 0.872038 0
0.376608 0.871 0
0.37557 0.869734 0
0.374426 0.868254 0
0.372869 0.866346 0
0.366033 0.855665 0
0.439506 0.836332 0
0.53341 0.823865 0
0.626078 0.813733 0
0.713466 0.803906 0
0.794888 0.794553 0
0.869902 0.785077 0
0.937301 0.776318 0
0.993576 0.767834 0
0.999939 0.760479 0
1 0.756176 0
1 0.754131 0
1 0.752529 0
1 0.751186 0
1 0.750042 0
1 0.749325 0
1 0.748608 0
1 0.748058 0
1 0.747677 0
0.413367 0.918837 0
0.413275 0.918715 0
0.413001 0.918303 0
0.412787 0.918029 0
0.412634 0.917876 0
0.412299 0.917418 0
0.412024 0.917052 0
0.411872 0.916884 0
0.411444 0.916289 0
0.410834 0.915465 0
0.410147 0.914595 0
0.409308 0.913405 0
0.408118 0.911864 0
0.406714 0.909957 0
0.405524 0.907118 0
0.433433 0.886 0
0.516701 0.871031 0
0.608392 0.860471 0
0.695598 0.850843 0
0.777661 0.841718 0
0.85272 0.832746 0
0.920195 0.824079 0
0.978592 0.816403 0
0.998306 0.809445 0
1 0.803723 0
1 0.801297 0
1 0.799741 0
1 0.798428 0
1 0.797528 0
1 0.796643 0
1 0.795987 0
1 0.795453 0
1 0.795209 0
0.440009 0.954879 0
0.439994 0.954864 0
0.439963 0.954833 0
0.439857 0.954742 0
0.439628 0.954528 0
0.439414 0.954284 0
0.439231 0.953948 0
0.438941 0.953475 0
0.438544 0.95288 0
0.437995 0.952148 0
0.437354 0.951232 0
0.436576 0.950134 0
0.435492 0.94876 0
0.434241 0.947036 0
0.432975 0.944686 0
0.433234 0.928985 0
0.50338 0.912322 0
0.592691 0.900862 0
0.68014 0.891402 0
0.7617 0.88278 0
0.836866 0.874128 0
0.904112 0.866224 0
0.962768 0.858778 0
0.996262 0.851926 0
1 0.846021 0
1 0.84268 0
1 0.84094 0
1 0.839612 0
1 0.838453 0
1 0.837873 0
1 0.837446 0
1 0.836927 0
1 0.836515 0
0.440009 0.954894 0
0.440009 0.954894 0
0.440009 0.954894 0
0.440009 0.954894 0
0.440009 0.954894 0
0.440009 0.954894 0
0.440009 0.954894 0
0.440009 0.954894 0
0.440009 0.954894 0
0.440009 0.954894 0
0.440009 0.954894 0
0.440009 0.954894 0
0.440009 0.954894 0
0.440009 0.954894 0
0.439994 0.954879 0
0.440391 0.953735 0
0.488396 0.932387 0
0.573861 0.921157 0
0.663066 0.914733 0
0.746166 0.909178 0
0.821912 0.904204 0
0.889754 0.899641 0
0.948501 0.893523 0
0.993957 0.887068 0
0.999969 0.881605 0
1 0.877134 0
1 0.875242 0
1 0.874022 0
1 0.873121 0
1 0.872404 0
1 0.871855 0
1 0.871351 0
1 0.871 0
0.440009 0.954894 0
0.440009 0.954894 0
0.440009 0.954894 0
0.440009 0.954894 0
0.440009 0.954894 0
0.440009 0.954894 0
0.440009 0.954894 0
0.440009 0.954894 0
0.440009 0.954894 0
0.440009 0.954894 0
0.440009 0.954894 0
0.440009 0.954894 0
0.440009 0.954894 0
0.440009 0.954894 0
0.440009 0.954894 0
0.44062 0.954498 0
0.470451 0.935103 0
0.552605 0.923095 0
0.643137 0.91606 0
0.728069 0.91046 0
0.80502 0.90547 0
0.873625 0.90074 0
0.933227 0.896574 0
0.983917 0.892592 0
0.998749 0.889097 0
1 0.886275 0
1 0.885328 0
1 0.885237 0
1 0.885237 0
1 0.885237 0
1 0.885237 0
1 0.885237 0
1 0.885237 0
0.440009 0.954894 0
0.440009 0.954894 0
0.440009 0.954894 0
0.440009 0.954894 0
0.440009 0.954894 0
0.440009 0.954894 0
0.440009 0.954894 0
0.440009 0.954894 0
0.440009 0.954894 0
0.440009 0.954894 0
0.440009 0.954894 0
0.440009 0.954894 0
0.440009 0.954894 0
0.440009 0.954894 0
0.440009 0.954894 0
0.440436 0.954543 0
0.456184 0.937743 0
0.534432 0.924956 0
0.625986 0.917388 0
0.712398 0.911421 0
0.790417 0.90634 0
0.860075 0.901549 0
0.920485 0.897398 0
0.971695 0.893675 0
0.996933 0.890303 0
1 0.887312 0
1 0.885481 0
1 0.885237 0
1 0.885237 0
1 0.885237 0
1 0.885237 0
1 0.885237 0
1 0.885237 0
0.440009 0.954894 0
0.440009 0.954894 0
0.440009 0.954894 0
0.440009 0.954894 0
0.440009 0.954894 0
0.440009 0.954894 0
0.440009 0.954894 0
0.440009 0.954894 0
0.440009 0.954894 0
0.440009 0.954894 0
0.440009 0.954894 0
0.440009 0.954894 0
0.440009 0.954894 0
0.440009 0.954894 0
0.440009 0.954894 0
0.440223 0.954604 0
0.445396 0.940505 0
0.519036 0.926604 0
0.611978 0.918318 0
0.699229 0.91223 0
0.778302 0.907057 0
0.848798 0.902403 0
0.909529 0.898161 0
0.961242 0.894392 0
0.995239 0.89102 0
1 0.888151 0
1 0.885664 0
1 0.885252 0
1 0.885237 0
1 0.885237 0
1 0.885237 0
1 0.885237 0
1 0.885237 0
0.440009 0.954894 0
0.440009 0.954894 0
0.440009 0.954894 0
0.440009 0.954894 0
0.440009 0.954894 0
0.440009 0.954894 0
0.440009 0.954894 0
0.440009 0.954894 0
0.440009 0.954894 0
