DJI夜景还原LUT_1.DJI_20260420195141_0027_D.cube
TITLE "Generated by Resolve"
LUT_3D_SIZE 9
0.059617 0.059617 0.0908522
0.185245 0.0552071 0.0864424
0.355398 0.0567178 0.087953
0.574594 0.0539864 0.0852216
0.842725 0.0431067 0.074342
1 0.0287327 0.059968
1 0.0287327 0.059968
1 0.0287327 0.059968
1 0.0287327 0.059968
0.045655 0.13312 0.0768902
0.0981155 0.118441 0.075639
0.315465 0.0957504 0.0755016
0.560998 0.0543221 0.0855573
0.834211 0.0434577 0.0746929
1 0.0287327 0.059968
1 0.0287327 0.059968
1 0.0287327 0.059968
1 0.0287327 0.059968
0.0230564 0.278737 0.0542763
0.0241093 0.274388 0.0553292
0.228748 0.250477 0.0400397
0.484092 0.217838 0.0320592
0.776669 0.151186 0.031342
1 0.0287327 0.059968
1 0.0287327 0.059968
1 0.0287327 0.059968
1 0.0287327 0.059968
0 0.45211 0.0218357
0 0.449775 0.0222782
0 0.446281 0.0229648
0.379171 0.407904 0
0.690364 0.369451 0
0.976593 0.317876 0
1 0.286625 0
1 0.270726 0
1 0.264042 0
0 0.661341 0
0 0.659937 0
0 0.657694 0
0.112276 0.635828 0
0.556954 0.597757 0
0.863432 0.560983 0
0.950439 0.539635 0
0.951873 0.531792 0
0.952636 0.528908 0
0 0.859632 0
0 0.858579 0
0 0.856931 0
0 0.852689 0
0.359518 0.811215 0
0.724041 0.779767 0
0.90515 0.757595 0
0.906416 0.752194 0
0.906889 0.749981 0
0 0.933974 0
0 0.933974 0
0 0.933974 0
0 0.933974 0
0.151568 0.912169 0
0.615259 0.891234 0
0.837354 0.879637 0
0.877333 0.877333 0
0.877333 0.877333 0
0 0.933974 0
0 0.933974 0
0 0.933974 0
0 0.933974 0
0 0.924514 0
0.570932 0.893202 0
0.801816 0.881743 0
0.877333 0.877333 0
0.877333 0.877333 0
0 0.933974 0
0 0.933974 0
0 0.933974 0
0 0.933974 0
0 0.933974 0
0.553033 0.893874 0
0.788067 0.882643 0
0.877333 0.877333 0
0.877333 0.877333 0
0.0586557 0.0586557 0.164492
0.17348 0.0541848 0.154742
0.349615 0.055375 0.14786
0.571038 0.052781 0.122103
0.841306 0.0431678 0.074403
1 0.0287327 0.059968
1 0.0287327 0.059968
1 0.0287327 0.059968
1 0.0287327 0.059968
0.0498207 0.104005 0.123949
0.0897383 0.0897383 0.1187
0.318441 0.0683604 0.111635
0.558541 0.0542763 0.0886549
0.832776 0.043534 0.0747692
1 0.0287327 0.059968
1 0.0287327 0.059968
1 0.0287327 0.059968
1 0.0287327 0.059968
0.0251316 0.267842 0.0563668
0.0262455 0.263233 0.0574807
0.225498 0.239261 0.042649
0.484764 0.205158 0.0350042
0.779843 0.133059 0.035996
1 0.0287327 0.059968
1 0.0287327 0.059968
1 0.0287327 0.059968
1 0.0287327 0.059968
0 0.446616 0.022858
0 0.444373 0.0233768
0 0.440574 0.024094
0.377325 0.402274 0
0.690181 0.363561 0
0.976806 0.311055 0
1 0.279057 0
1 0.262501 0
1 0.255726 0
0 0.657954 0
0 0.656535 0
0 0.654292 0
0.106279 0.63299 0
0.555978 0.594308 0
0.863233 0.557473 0
0.951019 0.535897 0
0.952651 0.528191 0
0.953277 0.525078 0
0 0.857099 0
0 0.856138 0
0 0.854459 0
0 0.850187 0
0.357565 0.80882 0
0.723445 0.777249 0
0.905547 0.754925 0
0.906935 0.749447 0
0.907286 0.74728 0
0 0.933974 0
0 0.933974 0
0 0.933974 0
0 0.933974 0
0.147539 0.912337 0
0.613794 0.891295 0
0.836164 0.879713 0
0.877333 0.877333 0
0.877333 0.877333 0
0 0.933974 0
0 0.933974 0
0 0.933974 0
0 0.933974 0
0 0.925673 0
0.56939 0.893263 0
0.800732 0.881773 0
0.877333 0.877333 0
0.877333 0.877333 0
0 0.933974 0
0 0.933974 0
0 0.933974 0
0 0.933974 0
0 0.933974 0
0.551522 0.893919 0
0.786862 0.882734 0
0.877333 0.877333 0
0.877333 0.877333 0
0.0588388 0.0588388 0.324224
0.154269 0.0544594 0.31783
0.341024 0.0536965 0.31342
0.563363 0.0485542 0.298558
0.833799 0.0379187 0.265583
1 0.0237736 0.215579
1 0.0246891 0.18201
1 0.0251621 0.161517
1 0.0253758 0.152972
0.058732 0.058732 0.310857
0.0748302 0.0578622 0.307576
0.312474 0.0540017 0.300145
0.549966 0.0494392 0.285191
0.825559 0.0385901 0.250156
1 0.0243687 0.196521
1 0.0252689 0.157275
1 0.0259251 0.133745
1 0.026215 0.124193
0.0235752 0.244053 0.252491
0.0244602 0.238865 0.25098
0.214862 0.214862 0.232837
0.480705 0.177966 0.214252
0.785763 0.0941634 0.196017
1 0.0251926 0.159899
1 0.0266117 0.111543
1 0.0276188 0.0839704
1 0.0280919 0.0731365
0 0.43389 0.138872
0 0.431556 0.135195
0 0.427878 0.129183
0.371725 0.390188 0.0838483
0.688426 0.352285 0.026215
0.977493 0.300267 0
1 0.266453 0
1 0.248951 0
1 0.241856 0
0 0.652811 0
0 0.651392 0
0 0.649104 0
0.0957198 0.628534 0
0.55462 0.589014 0
0.862516 0.551812 0
0.952468 0.529992 0
0.953902 0.521981 0
0.954543 0.519127 0
0 0.853223 0
0 0.852308 0
0 0.850629 0
0 0.846204 0
0.3552 0.805005 0
0.722225 0.773281 0
0.906722 0.750759 0
0.907759 0.745083 0
0.9084 0.743023 0
0 0.933974 0
0 0.933974 0
0 0.933974 0
0 0.933974 0
0.140658 0.912718 0
0.611582 0.891371 0
0.834333 0.879881 0
0.877333 0.877333 0
0.877333 0.877333 0
0 0.933974 0
0 0.933974 0
0 0.933974 0
0 0.933974 0
0 0.927657 0
0.567147 0.893309 0
0.798795 0.88188 0
0.877333 0.877333 0
0.877333 0.877333 0
0 0.933974 0
0 0.933974 0
0 0.933974 0
0 0.933974 0
0 0.933974 0
0.549142 0.893996 0
0.784924 0.882841 0
0.877333 0.877333 0
0.877333 0.877333 0
0.0602426 0.0602426 0.524742
0.101549 0.0576181 0.520943
0.320256 0.0525521 0.514031
0.550515 0.0455329 0.502037
0.823651 0.0339666 0.48014
1 0.0190585 0.449897
1 0.0192569 0.43772
1 0.0193942 0.43122
1 0.0194247 0.428931
0.0601968 0.0601968 0.517739
0.0601968 0.0601968 0.516548
0.289479 0.0529946 0.507744
0.536538 0.046067 0.495735
0.815351 0.034638 0.473518
1 0.0191806 0.442679
1 0.0194095 0.430121
1 0.0195315 0.42356
1 0.0195621 0.421225
0.0318303 0.17818 0.478477
0.0334783 0.170535 0.479072
0.198764 0.143709 0.467155
0.49218 0.0913252 0.464469
0.801816 0.0354162 0.462989
1 0.0194095 0.430747
1 0.0196231 0.417807
1 0.0197299 0.41117
1 0.019791 0.408469
0 0.403052 0.404196
0 0.400443 0.403403
0 0.396536 0.402152
0.358068 0.358068 0.371618
0.679927 0.316197 0.348074
0.97055 0.258747 0.321218
1 0.220066 0.313039
1 0.199283 0.310552
1 0.190677 0.309712
0 0.629877 0.282811
0 0.628443 0.281483
0 0.626169 0.279316
0.0536202 0.608423 0.26183
0.542275 0.5664 0.219867
0.853346 0.529274 0.181933
0.94873 0.507088 0.157549
0.950454 0.499016 0.148302
0.951431 0.496071 0.144686
0 0.838361 0.06598
0 0.837446 0.0624094
0 0.835904 0.0569924
0 0.83183 0.0413825
0.345403 0.792386 0
0.719493 0.762295 0
0.909056 0.739376 0
0.910307 0.733547 0
0.910689 0.731487 0
0 0.933974 0
0 0.933974 0
0 0.933974 0
0 0.933974 0
0.122118 0.913848 0
0.605493 0.891615 0
0.829526 0.880339 0
0.877333 0.877333 0
0.87776 0.875944 0
0 0.933974 0
0 0.933974 0
0 0.933974 0
0 0.933974 0
0 0.933974 0
0.56054 0.893599 0
0.793622 0.88217 0
0.877333 0.877333 0
0.877333 0.877333 0
0 0.933974 0
0 0.933974 0
0 0.933974 0
0 0.933974 0
0 0.933974 0
0.542412 0.894331 0
0.77995 0.88307 0
0.877333 0.877333 0
0.877333 0.877333 0
0.0615854 0.0615854 0.768658
0.0615854 0.0615854 0.767941
0.271611 0.0520027 0.757214
0.525399 0.0422675 0.744717
0.806775 0.0302892 0.726207
1 0.0140078 0.70103
1 0.0142061 0.69398
1 0.014313 0.690623
1 0.0143587 0.689235
0.0615549 0.0615549 0.76463
0.0615549 0.0615549 0.763912
0.232883 0.0528115 0.754025
0.510887 0.0430304 0.741176
0.798138 0.0307317 0.72256
1 0.0140993 0.69691
1 0.0143282 0.689937
1 0.0144503 0.686305
1 0.0145113 0.684901
0.0615396 0.0615396 0.757794
0.0615244 0.0615244 0.757183
0.14284 0.0561074 0.750759
0.486473 0.0441901 0.735744
0.784039 0.0314794 0.71664
1 0.0151675 0.691218
1 0.0145418 0.683116
1 0.0146029 0.679561
1 0.0146334 0.678126
0 0.336446 0.673747
0 0.333288 0.673701
0 0.328008 0.673594
0.33846 0.288548 0.648051
0.677028 0.23827 0.631693
0.976379 0.163546 0.618463
1 0.0955673 0.625971
1 0.0496986 0.642329
1 0.0311589 0.65037
0 0.591379 0.583124
0 0.589975 0.582834
0 0.58764 0.581964
0 0.581018 0.580194
0.526864 0.526864 0.536065
0.842939 0.487831 0.511849
0.948684 0.463111 0.499413
0.950561 0.454353 0.497337
0.95137 0.450889 0.496498
0 0.806302 0.473823
0 0.805356 0.473213
0 0.803784 0.472282
0 0.799146 0.469963
0.318181 0.759548 0.434272
0.701335 0.726757 0.407858
0.902892 0.702876 0.388632
0.904204 0.697215 0.385122
0.904692 0.694881 0.383886
0 0.922103 0.387823
0 0.922118 0.386831
0 0.922148 0.38526
0 0.92221 0.381277
0.064744 0.905119 0.355123
0.58468 0.875914 0.321218
0.814374 0.855238 0.302342
0.873869 0.846647 0.294865
0.874357 0.844648 0.293187
0 0.92285 0.358526
0 0.922866 0.357458
0 0.922881 0.356023
0 0.922972 0.351476
0 0.92314 0.341848
0.537224 0.884672 0.289509
0.77435 0.87425 0.267475
0.868727 0.868727 0.256168
0.868803 0.868803 0.25388
0 0.923033 0.346761
0 0.923064 0.345678
0 0.923095 0.343938
0 0.923171 0.339513
0 0.923339 0.329564
0.519066 0.885756 0.277317
0.760372 0.875044 0.254856
0.863706 0.86952 0.24303
0.869139 0.869139 0.240482
0.0606088 0.0606241 1
0.0606241 0.0606241 1
0.177615 0.0522469 0.995529
0.489921 0.0389105 0.979812
0.783719 0.0260777 0.962219
1 0.00947585 0.938552
1 0.00910964 0.932845
1 0.00918593 0.930098
1 0.00920119 0.92903
0.0606546 0.0606546 1
0.0606546 0.0606546 1
0.104646 0.0569009 0.996857
0.474144 0.039765 0.977447
0.774838 0.026566 0.959365
1 0.0100404 0.936065
1 0.00920119 0.929564
1 0.00924697 0.926925
1 0.00926223 0.926009
0.0606851 0.0606851 0.997116
0.0606851 0.0606851 0.996551
0.0607004 0.0607004 0.995682
0.44715 0.0408942 0.973495
0.760632 0.0275731 0.955077
1 0.0109407 0.93164
1 0.00929274 0.92462
1 0.00936904 0.921843
1 0.0093843 0.920775
0.016022 0.206149 0.938613
0.0173495 0.200366 0.939391
0.0194553 0.19057 0.940597
0.322515 0.1393 0.923781
0.716289 0.0387427 0.938643
1 0.0133822 0.920378
1 0.00961318 0.910857
1 0.00965896 0.908293
1 0.00968948 0.907225
0 0.537346 0.841993
0 0.535622 0.841779
0 0.53286 0.841459
0 0.525689 0.840681
0.50898 0.471046 0.800351
0.832853 0.428748 0.779095
0.954574 0.400595 0.768734
0.956619 0.390448 0.768109
0.957473 0.386358 0.767819
0 0.767422 0.749264
0 0.766278 0.748959
0 0.764675 0.748699
0 0.759899 0.747189
0.286641 0.721218 0.716228
0.686748 0.686748 0.692164
0.902678 0.661479 0.675486
0.906279 0.655222 0.673747
0.906538 0.652842 0.673091
0 0.908751 0.677119
0 0.907774 0.676799
0 0.906188 0.676539
0 0.902022 0.675196
0 0.882033 0.660716
0.568719 0.841337 0.628168
0.80174 0.820081 0.613519
0.875975 0.81062 0.60708
0.876417 0.80853 0.60647
0 0.916838 0.65655
0 0.916838 0.656031
0 0.916854 0.655192
0 0.916915 0.652537
0 0.917006 0.647013
0.512276 0.88043 0.60235
0.754376 0.870176 0.585824
0.857969 0.864897 0.577279
0.864469 0.864469 0.575738
0 0.916976 0.649653
0 0.916976 0.649027
0 0.917006 0.64802
0 0.917037 0.645594
0 0.917159 0.639841
0.493278 0.881285 0.596033
0.740398 0.871092 0.579522
0.844541 0.865675 0.570794
0.864561 0.864561 0.568399
0.0590524 0.0590677 1
0.0590524 0.0590677 1
0.0590524 0.0590677 1
0.460578 0.0372778 1
0.765911 0.0238193 1
1 0.00695811 1
1 0.00563058 1
1 0.00563058 1
1 0.00563058 1
0.0590524 0.0590677 1
0.0590524 0.0590677 1
0.0590524 0.0590677 1
0.443381 0.0381018 1
0.756878 0.0243076 1
1 0.00741588 1
1 0.00563058 1
1 0.00563058 1
1 0.00563058 1
0.0590524 0.0590677 1
0.0590524 0.0590677 1
0.0590524 0.0590677 1
0.413947 0.0392157 1
0.742229 0.0249332 1
1 0.00816358 1
1 0.00563058 1
1 0.00563058 1
1 0.00563058 1
0.0590524 0.0590677 1
0.0590524 0.0590677 1
0.0590524 0.0590677 1
0.317815 0.0436255 1
0.70161 0.0268559 1
0.997742 0.0103151 1
1 0.00563058 1
1 0.00563058 1
1 0.00563058 1
0 0.490089 1
0 0.488212 1
0 0.485222 1
0 0.477073 1
0.494942 0.421759 0.973968
0.826566 0.375982 0.953826
0.960876 0.343816 0.94374
0.963516 0.332113 0.94374
0.964477 0.327321 0.943908
0 0.735744 0.922789
0 0.734615 0.922423
0 0.732754 0.921981
0 0.727718 0.920974
0.259495 0.690196 0.892088
0.675395 0.654032 0.867948
0.89308 0.628214 0.852354
0.90811 0.62063 0.849836
0.908614 0.618372 0.849317
0 0.881102 0.855253
0 0.880171 0.85507
0 0.878721 0.854826
0 0.874449 0.853864
0 0.865644 0.851667
0.555825 0.813458 0.809094
0.791852 0.791852 0.79501
0.877989 0.781582 0.788373
0.878416 0.779461 0.787854
0 0.912917 0.830884
0 0.912932 0.83035
0 0.912947 0.829496
0 0.913008 0.827237
0 0.913115 0.822492
0.492592 0.877607 0.780301
0.739773 0.864912 0.765942
0.845396 0.854536 0.759411
0.863966 0.851499 0.75761
0 0.913069 0.824796
0 0.913085 0.824262
0 0.9131 0.823407
0 0.91313 0.821439
0 0.913252 0.816587
0.473014 0.878401 0.775097
0.724788 0.868513 0.759655
0.83006 0.863371 0.752041
0.861601 0.861601 0.749203
0.0590524 0.0590677 1
0.0590524 0.0590677 1
0.0590524 0.0590677 1
0.446586 0.0378119 1
0.758602 0.0242313 1
1 0.00730907 1
1 0.00563058 1
1 0.00563058 1
1 0.00563058 1
0.0590524 0.0590677 1
0.0590524 0.0590677 1
0.0590524 0.0590677 1
0.428641 0.0386664 1
0.749371 0.0246281 1
1 0.00776684 1
1 0.00563058 1
1 0.00563058 1
1 0.00563058 1
0.0590524 0.0590677 1
0.0590524 0.0590677 1
0.0590524 0.0590677 1
0.397772 0.0400702 1
0.734539 0.0252537 1
1 0.00862135 1
1 0.00563058 1
1 0.00563058 1
1 0.00563058 1
0.0590524 0.0590677 1
0.0590524 0.0590677 1
0.0590524 0.0590677 1
0.294179 0.0445563 1
0.693416 0.0271763 1
0.992004 0.0106508 1
1 0.00563058 1
1 0.00563058 1
1 0.00563058 1
0 0.46688 1
0 0.464805 1
0 0.461723 1
0 0.453071 1
0.490211 0.396689 0.986267
0.825818 0.348699 0.9729
0.966598 0.313771 0.968124
0.969406 0.300649 0.970932
0.970535 0.295491 0.972061
0 0.720546 0.962203
0 0.719326 0.962493
0 0.717449 0.962737
0 0.712245 0.963973
0.24564 0.675074 0.940154
0.670176 0.637766 0.922011
0.888808 0.611475 0.911147
0.909453 0.603281 0.910979
0.910033 0.6009 0.911559
0 0.86743 0.924956
0 0.866407 0.925231
0 0.864775 0.925673
0 0.860716 0.926848
0 0.851392 0.929183
0.549004 0.799298 0.892073
0.786801 0.777462 0.877699
0.878782 0.766827 0.870741
0.87924 0.764675 0.870146
0 0.910719 0.91043
0 0.910735 0.90988
0 0.910765 0.908995
0 0.910842 0.906691
0 0.910979 0.901823
0.484062 0.871382 0.862058
0.735256 0.851194 0.849622
0.840909 0.840909 0.842878
0.865202 0.837522 0.84097
0 0.910903 0.904219
0 0.910918 0.903685
0 0.910948 0.902831
0 0.911009 0.90071
0 0.911116 0.896147
0.46273 0.876936 0.855619
0.71693 0.867079 0.840467
0.822751 0.862333 0.833082
0.860471 0.860471 0.83032
0.0590524 0.0590677 1
0.0590524 0.0590677 1
0.0590524 0.0590677 1
0.441032 0.0382391 1
0.75581 0.0243381 1
1 0.00747692 1
1 0.00563058 1
1 0.00563058 1
1 0.00563058 1
0.0590524 0.0590677 1
0.0590524 0.0590677 1
0.0590524 0.0590677 1
0.422644 0.0388952 1
0.746593 0.0247196 1
1 0.00793469 1
1 0.00563058 1
1 0.00563058 1
1 0.00563058 1
0.0590524 0.0590677 1
0.0590524 0.0590677 1
0.0590524 0.0590677 1
0.391302 0.0403143 1
0.731487 0.0254063 1
1 0.00886549 1
1 0.00563058 1
1 0.00563058 1
1 0.00563058 1
0.0590524 0.0590677 1
0.0590524 0.0590677 1
0.0590524 0.0590677 1
0.284398 0.0449531 1
0.69015 0.0273442 1
0.989685 0.0108034 1
1 0.00563058 1
1 0.00563058 1
1 0.00563058 1
0 0.457542 1
0 0.455421 1
0 0.452277 1
0 0.443427 1
0.488762 0.386603 0.988647
0.82591 0.337621 0.975509
0.969116 0.301625 0.970642
0.972244 0.28806 0.97377
0.973342 0.28249 0.974853
0 0.714946 0.963317
0 0.71371 0.963607
0 0.711849 0.964157
0 0.706783 0.965301
0.240635 0.669779 0.941772
0.66894 0.632029 0.923339
0.887999 0.605524 0.912718
0.910735 0.597177 0.912261
0.91107 0.594568 0.912581
0 0.862776 0.926024
0 0.861875 0.926452
0 0.860319 0.926955
0 0.855985 0.928008
0 0.846876 0.93048
0.547112 0.794339 0.894423
0.785336 0.772549 0.885527
0.879561 0.761334 0.881086
0.879774 0.759228 0.8813
0 0.910674 0.912184
0 0.910674 0.912184
0 0.910674 0.912184
0 0.910674 0.912184
0 0.910674 0.912184
0.481514 0.866331 0.879942
0.73315 0.846021 0.872267
0.838895 0.835645 0.868009
0.865446 0.832105 0.866972
0 0.910674 0.912184
0 0.910674 0.912184
0 0.910674 0.912184
0 0.910674 0.912184
0 0.910674 0.912184
0.458869 0.876478 0.878004
0.713832 0.866575 0.868101
0.819852 0.86154 0.863066
0.859968 0.859968 0.861494
