DJI夜景风格LUT（不加还原LUT使用）_2.DJI_20260420195141_0027_D.cube
TITLE "Generated by Resolve"
LUT_3D_SIZE 33
0.0215305 0.0278325 0.0513313
0.0218814 0.0278325 0.0513161
0.0307927 0.0274357 0.0508888
0.073518 0.0265812 0.0498054
0.116991 0.0257115 0.0486458
0.154391 0.0247044 0.0473945
0.194263 0.0236362 0.0464179
0.237934 0.022446 0.0454871
0.285618 0.0211948 0.0446326
0.33756 0.0194553 0.0440223
0.3953 0.0168154 0.0427253
0.458259 0.0137331 0.04094
0.526619 0.0100252 0.0385138
0.59852 0.00503548 0.0347295
0.675319 0 0.0300145
0.754147 0 0.021622
0.834745 0 0.0110933
0.909941 0 0
0.975174 0 0
0.976287 0 0
0.976257 0 0
0.976257 0 0
0.976257 0 0
0.976257 0 0
0.976257 0 0
0.976257 0 0
0.976257 0 0
0.976257 0 0
0.976257 0 0
0.976257 0 0
0.976257 0 0
0.976257 0 0
0.976257 0 0
0.0215152 0.0278477 0.0513313
0.0215152 0.0278477 0.0513313
0.0223545 0.0278477 0.0513466
0.0576638 0.0267338 0.0500191
0.101656 0.0260471 0.0490883
0.142748 0.0250706 0.0478218
0.184451 0.0239567 0.0466621
0.229648 0.0225834 0.0455482
0.278767 0.0213626 0.0446937
0.331456 0.0196689 0.0440833
0.389944 0.0171817 0.0429999
0.453925 0.0138857 0.041001
0.52282 0.0102541 0.0386969
0.59498 0.0053254 0.0349126
0.671901 0 0.0302739
0.751492 0 0.0219272
0.832013 0 0.0114748
0.908034 0 0
0.975143 0 0
0.976303 0 0
0.976257 0 0
0.976257 0 0
0.976257 0 0
0.976257 0 0
0.976257 0 0
0.976257 0 0
0.976257 0 0
0.976257 0 0
0.976257 0 0
0.976257 0 0
0.976257 0 0
0.976257 0 0
0.976257 0 0
0.0212863 0.0288396 0.0511482
0.0213169 0.028748 0.0511635
0.0217746 0.0286412 0.051133
0.0422827 0.0278172 0.050309
0.0863661 0.0268101 0.0491798
0.129946 0.0260624 0.0481727
0.174228 0.0247349 0.0469215
0.220874 0.0230411 0.0456092
0.271275 0.0215763 0.0447242
0.325597 0.0197757 0.0440681
0.384619 0.01738 0.0430304
0.448981 0.0141299 0.0411078
0.518486 0.0105135 0.0388647
0.591272 0.00555428 0.035111
0.668956 0.000137331 0.0304723
0.748577 0 0.0222019
0.829664 0 0.0118105
0.905898 0 0
0.974655 0 0
0.976287 0 0
0.976257 0 0
0.976257 0 0
0.976257 0 0
0.976257 0 0
0.976257 0 0
0.976257 0 0
0.976257 0 0
0.976257 0 0
0.976257 0 0
0.976257 0 0
0.976257 0 0
0.976257 0 0
0.976257 0 0
0.0168002 0.052018 0.0479286
0.0172122 0.0494545 0.0482032
0.0176852 0.0472114 0.0484016
0.0258335 0.0447089 0.0483101
0.0686809 0.0417945 0.0473487
0.11342 0.0387579 0.0463111
0.160723 0.0347753 0.0453803
0.210391 0.029633 0.0448615
0.263264 0.0234836 0.0444648
0.318654 0.0212558 0.0438239
0.378698 0.0184634 0.0429084
0.444114 0.0147402 0.0411994
0.514504 0.0107576 0.0389868
0.587915 0.00569162 0.0352178
0.665583 0.000381476 0.0307164
0.745678 0 0.0225528
0.826703 0 0.0122683
0.903777 0 0
0.97261 0 0
0.976242 0 0
0.976257 0 0
0.976257 0 0
0.976257 0 0
0.976257 0 0
0.976257 0 0
0.976257 0 0
0.976257 0 0
0.976257 0 0
0.976257 0 0
0.976257 0 0
0.976257 0 0
0.976257 0 0
0.976257 0 0
0.0108949 0.0838331 0.0444343
0.0111696 0.0815747 0.0445869
0.0117342 0.0793622 0.0450446
0.0128634 0.0768902 0.0451514
0.0465095 0.0729381 0.044007
0.0919203 0.0694133 0.0424659
0.142351 0.0652323 0.0417792
0.193042 0.0598611 0.0405737
0.246921 0.0527962 0.0396735
0.304433 0.0451362 0.0394141
0.367834 0.0354925 0.0400702
0.437018 0.0224155 0.0398566
0.509667 0.0124666 0.0387427
0.583841 0.00663767 0.0353704
0.662303 0.000732433 0.0310063
0.74284 0 0.0229191
0.824338 0 0.0125429
0.901503 0 0
0.970672 0 0
0.976181 0 0
0.976257 0 0
0.976257 0 0
0.976257 0 0
0.976257 0 0
0.976257 0 0
0.976257 0 0
0.976257 0 0
0.976257 0 0
0.976257 0 0
0.976257 0 0
0.976257 0 0
0.976257 0 0
0.976257 0 0
0.00698863 0.11603 0.0399481
0.00720226 0.113985 0.0402991
0.00746166 0.112001 0.0407263
0.00755322 0.109682 0.0411231
0.0263676 0.106142 0.0403296
0.071397 0.101823 0.0392004
0.123186 0.0971847 0.0381933
0.176654 0.0916304 0.0368658
0.231556 0.085069 0.0359808
0.28983 0.0771649 0.0351873
0.352193 0.0670481 0.0343633
0.420554 0.0538643 0.0335851
0.495262 0.0379492 0.0332952
0.576013 0.0183413 0.0332341
0.657908 0.00289921 0.0307927
0.739605 0 0.0230869
0.821241 0 0.0129702
0.89929 0 0
0.968444 0 0
0.97612 0 0
0.976257 0 0
0.976257 0 0
0.976257 0 0
0.976257 0 0
0.976257 0 0
0.976257 0 0
0.976257 0 0
0.976257 0 0
0.976257 0 0
0.976257 0 0
0.976257 0 0
0.976257 0 0
0.976257 0 0
0.00329595 0.149767 0.0359503
0.00334173 0.14815 0.0359808
0.00350958 0.146365 0.0361334
0.00389105 0.144671 0.0364843
0.00419623 0.142611 0.0366064
0.0432898 0.137758 0.03505
0.0999466 0.133577 0.0344396
0.156832 0.128405 0.0333715
0.214313 0.122316 0.0319371
0.274388 0.115007 0.030808
0.338094 0.105913 0.0296788
0.405936 0.0941787 0.0284886
0.47924 0.0789654 0.0273289
0.557321 0.0593729 0.0257267
0.641032 0.0357519 0.0243687
0.730526 0.00679026 0.021149
0.816831 0 0.0128786
0.896315 0 0.000320439
0.965682 0 0
0.976013 0 0
0.976257 0 0
0.976257 0 0
0.976257 0 0
0.976257 0 0
0.976257 0 0
0.976257 0 0
0.976257 0 0
0.976257 0 0
0.976257 0 0
0.976257 0 0
0.976257 0 0
0.976257 0 0
0.976257 0 0
0 0.185397 0.0314183
0 0.184161 0.0316625
0 0.182788 0.0317235
0 0.181292 0.0318914
0 0.179782 0.0318914
0.0137484 0.176364 0.03093
0.0697795 0.171695 0.0301366
0.132372 0.167163 0.0290837
0.195132 0.161501 0.0276951
0.257939 0.15491 0.026276
0.322942 0.146944 0.0248569
0.391897 0.137102 0.0233921
0.464927 0.125093 0.0218357
0.54255 0.109529 0.0201572
0.623377 0.0893873 0.0173342
0.709453 0.0620127 0.0129549
0.798321 0.0276799 0.00633249
0.887526 0 0
0.960723 0 0
0.975906 0 0
0.976257 0 0
0.976257 0 0
0.976257 0 0
0.976242 0 0
0.976257 0 0
0.976257 0 0
0.976257 0 0
0.976257 0 0
0.976257 0 0
0.976257 0 0
0.976257 0 0
0.976257 0 0
0.976257 0 0
0 0.224552 0.0261692
0 0.223438 0.0262913
0 0.222187 0.0264286
0 0.221103 0.026566
0 0.219959 0.0267338
0 0.218647 0.0267948
0.0320287 0.213687 0.02533
0.101305 0.208774 0.0244602
0.170321 0.203189 0.0227665
0.237308 0.196948 0.0209506
0.305119 0.189792 0.0191043
0.375204 0.181491 0.0171511
0.449104 0.171221 0.0151522
0.526894 0.158404 0.0130617
0.60911 0.141741 0.00984207
0.694438 0.12163 0.00529488
0.780804 0.0966506 0
0.86595 0.0639811 0
0.942199 0.02121 0
0.976745 0 0
0.976715 0 0
0.976516 0 0
0.976333 0 0
0.976242 0 0
0.976257 0 0
0.976257 0 0
0.976257 0 0
0.976257 0 0
0.976257 0 0
0.976257 0 0
0.976257 0 0
0.976257 0 0
0.976257 0 0
0 0.267079 0.0199741
0 0.266163 0.0200504
0 0.265095 0.0202029
0 0.264088 0.0204166
0 0.263081 0.0206607
0 0.262135 0.0208438
0 0.260304 0.0207523
0.0598001 0.253925 0.0191196
0.136477 0.248783 0.0175784
0.210971 0.242481 0.0150759
0.282353 0.23566 0.0126955
0.355474 0.227665 0.0104372
0.430762 0.218463 0.00775158
0.510307 0.207187 0.00425727
0.592721 0.193759 9.15541e-05
0.678248 0.177417 0
0.764782 0.15761 0
0.851667 0.133791 0
0.931838 0.105715 0
0.993194 0.071458 0
0.989609 0.0358587 0
0.983688 0.00737011 0
0.979263 0 0
0.977386 0 0
0.976898 0 0
0.976852 0 0
0.976776 0 0
0.97705 0 0
0.976669 0 0
0.976898 0 0
0.976547 0 0
0.976516 0 0
0.976486 0 0
0 0.313313 0.0124514
0 0.312673 0.0126345
0 0.311879 0.0129091
0 0.310948 0.013077
0 0.310002 0.0132296
0 0.309453 0.0132448
0 0.307958 0.0133822
0.00743114 0.304753 0.0128328
0.0914931 0.298085 0.01149
0.175708 0.291585 0.0087129
0.254093 0.284535 0.00590524
0.331228 0.276921 0.00254826
0.410071 0.268345 0
0.491096 0.258732 0
0.574517 0.246921 0
0.660853 0.232792 0
0.7476 0.216403 0
0.834363 0.197314 0
0.91725 0.175189 0
0.988602 0.151385 0
1 0.123842 0
1 0.106249 0
0.999374 0.0888838 0
0.996979 0.0729534 0
0.994079 0.0576791 0
0.99089 0.0424048 0
0.988266 0.0300298 0
0.986145 0.0197604 0
0.984466 0.0114137 0
0.983383 0.00582895 0
0.982559 0.00167849 0
0.981765 0 0
0.981338 0 0
0 0.363561 0.0021973
0 0.362982 0.00239567
0 0.362219 0.00257877
0 0.36144 0.00282292
0 0.360815 0.00303655
0 0.360265 0.00321965
0 0.359197 0.00344854
0 0.357504 0.00378424
0.0343633 0.351965 0.00254826
0.128359 0.345037 0.000442512
0.21857 0.337713 0
0.302296 0.329854 0
0.384726 0.321828 0
0.469078 0.312657 0
0.554177 0.301823 0
0.641657 0.289631 0
0.729839 0.275288 0
0.817578 0.258717 0
0.901457 0.240589 0
0.974456 0.221622 0
1 0.198703 0
1 0.184939 0
1 0.173404 0
1 0.162554 0
1 0.153262 0
1 0.145113 0
1 0.138064 0
1 0.132525 0
1 0.127565 0
1 0.123949 0
1 0.120607 0
1 0.118502 0
1 0.116732 0
0.00106813 0.418463 0
0.00102235 0.41799 0
0.000915541 0.417456 0
0.000518807 0.416785 0
0.000457771 0.416297 0
0.000366217 0.415534 0
3.0518e-05 0.414847 0
0 0.413672 0
0.0010071 0.411917 0
0.0700236 0.403754 0
0.171756 0.395117 0
0.266285 0.386938 0
0.355306 0.378714 0
0.442741 0.370352 0
0.53138 0.360204 0
0.62092 0.348547 0
0.710887 0.335546 0
0.799115 0.321187 0
0.884504 0.304875 0
0.959304 0.289296 0
1 0.271244 0
1 0.25687 0
1 0.248081 0
1 0.240345 0
1 0.232746 0
1 0.227543 0
1 0.222721 0
1 0.218265 0
1 0.215015 0
1 0.212329 0
1 0.210391 0
1 0.208865 0
1 0.207599 0
0.022797 0.477577 0
0.022446 0.476829 0
0.0221714 0.476204 0
0.0218357 0.475563 0
0.0219577 0.475441 0
0.0216526 0.4748 0
0.0212253 0.474128 0
0.0211337 0.473365 0
0.0204166 0.471778 0
0.0217441 0.469871 0
0.111772 0.458335 0
0.221027 0.448661 0
0.319387 0.439765 0
0.412909 0.43064 0
0.505394 0.420981 0
0.597864 0.410544 0
0.689219 0.398215 0
0.779995 0.384451 0
0.866835 0.369818 0
0.944015 0.355856 0
1 0.341421 0
1 0.327672 0
1 0.319905 0
1 0.31368 0
1 0.308537 0
1 0.303181 0
1 0.299901 0
1 0.296452 0
1 0.293721 0
1 0.29189 0
1 0.290578 0
1 0.289021 0
1 0.288396 0
0.0579385 0.540459 0
0.0577707 0.540032 0
0.0576028 0.539727 0
0.0571908 0.538872 0
0.0572366 0.538582 0
0.0567483 0.538018 0
0.0562448 0.537377 0
0.0556649 0.536553 0
0.0552071 0.535531 0
0.0541543 0.53402 0
0.0536812 0.529076 0
0.166064 0.514275 0
0.278218 0.503502 0
0.379721 0.493935 0
0.476722 0.484489 0
0.572915 0.473884 0
0.667384 0.462425 0
0.758679 0.45008 0
0.847608 0.43624 0
0.927626 0.422812 0
0.994766 0.410895 0
1 0.397406 0.000427253
1 0.391012 0.000381476
1 0.385336 0.000442512
1 0.38085 0.000350958
1 0.376699 0.000198367
1 0.373602 0.000457771
1 0.371435 0.000396735
1 0.36907 0.000228885
1 0.367269 0.000213626
1 0.366094 0.000213626
1 0.364981 0.000198367
1 0.364096 0.000198367
0.103517 0.605066 0
0.103258 0.604715 0
0.102876 0.604242 0
0.10251 0.603738 0
0.102113 0.60322 0
0.10193 0.602975 0
0.101427 0.602319 0
0.100649 0.601175 0
0.0996567 0.599908 0
0.0986648 0.598703 0
0.0979934 0.597009 0
0.12163 0.58584 0
0.232319 0.570932 0
0.342672 0.559884 0
0.446097 0.550118 0
0.546136 0.539437 0
0.643412 0.528176 0
0.737621 0.516243 0
0.827329 0.503746 0
0.909529 0.491051 0
0.978195 0.479957 0
1 0.467536 0.000427253
1 0.460502 0.00047303
1 0.455787 0.000549325
1 0.452079 0.000549325
1 0.448615 0.000350958
1 0.445823 0.00062562
1 0.443427 0.000610361
1 0.441962 0.000610361
1 0.440864 0.000457771
1 0.439384 0.000411994
1 0.438361 0.000411994
1 0.437888 0.000411994
0.15938 0.667994 0
0.158877 0.667445 0
0.15877 0.667262 0
0.158282 0.666835 0
0.157961 0.666362 0
0.157855 0.666133 0
0.157427 0.665537 0
0.156481 0.664607 0
0.155779 0.66389 0
0.15462 0.662684 0
0.15317 0.661173 0
0.152514 0.659129 0
0.198505 0.641611 0
0.305898 0.627405 0
0.414801 0.61648 0
0.519402 0.605631 0
0.619089 0.594949 0
0.714885 0.583276 0
0.806302 0.571038 0
0.890623 0.558862 0
0.960845 0.548882 0
1 0.53843 0.000320439
1 0.529961 0.00062562
1 0.525414 0.000366217
1 0.522164 0.000518807
1 0.519326 0.000534066
1 0.516976 0.000549325
1 0.514534 0.000549325
1 0.513237 0.000549325
1 0.511955 0.000549325
1 0.510979 0.000396735
1 0.509911 0.000366217
1 0.510094 0.000350958
0.2177 0.729595 0
0.217273 0.729107 0
0.217365 0.729229 0
0.216785 0.728603 0
0.216449 0.728222 0
0.215976 0.72781 0
0.215808 0.72755 0
0.214954 0.72665 0
0.214176 0.725795 0
0.213123 0.724697 0
0.211734 0.723323 0
0.210422 0.722072 0
0.209918 0.719326 0
0.277516 0.696773 0
0.385672 0.682368 0
0.493156 0.670985 0
0.595056 0.66009 0
0.692897 0.649241 0
0.78529 0.637613 0
0.869917 0.626169 0
0.942657 0.616205 0
1 0.607965 4.57771e-05
1 0.598123 0.000198367
1 0.593713 0.000488289
1 0.590372 0.00030518
1 0.587854 0.00030518
1 0.585794 0.000320439
1 0.583673 0.000320439
1 0.582361 0.000534066
1 0.581048 0.000411994
1 0.580362 0.000411994
1 0.580118 0.000411994
1 0.579171 0.000320439
0.271275 0.78909 0
0.271153 0.788876 0
0.270939 0.78851 0
0.270695 0.788159 0
0.270527 0.788006 0
0.269749 0.787167 0
0.269383 0.786694 0
0.268803 0.786084 0
0.268132 0.785306 0
0.267414 0.784527 0
0.266133 0.783291 0
0.264668 0.781674 0
0.263447 0.77966 0
0.265629 0.7664 0
0.358877 0.748302 0
0.466743 0.735134 0
0.571496 0.724025 0
0.670039 0.712947 0
0.763302 0.702007 0
0.849363 0.691142 0
0.923919 0.681285 0
0.985489 0.67364 0
1 0.665003 0.000122072
1 0.6589 3.0518e-05
1 0.655772 4.57771e-05
1 0.653651 0.000320439
1 0.651164 0.000137331
1 0.649744 0.000137331
1 0.648371 0.000137331
1 0.647288 0.000137331
1 0.646662 0.000137331
1 0.645762 0.00015259
1 0.645502 0.00015259
0.319539 0.844785 0
0.319387 0.844602 0
0.319066 0.844297 0
0.318914 0.844175 0
0.31841 0.843595 0
0.318105 0.843229 0
0.317739 0.842802 0
0.31722 0.842237 0
0.31667 0.841535 0
0.315892 0.840696 0
0.314946 0.839399 0
0.314107 0.838209 0
0.312612 0.83653 0
0.311315 0.83389 0
0.346349 0.812222 0
0.443519 0.796506 0
0.547936 0.784237 0
0.64802 0.773541 0
0.741909 0.7626 0
0.828611 0.752422 0
0.905379 0.742962 0
0.967681 0.735531 0
1 0.727749 0
1 0.720394 0
1 0.71722 0
1 0.714961 0.000183108
1 0.712688 0.000198367
1 0.711482 0
1 0.710338 0
1 0.709316 0
1 0.708461 1.5259e-05
1 0.708125 1.5259e-05
1 0.707668 1.5259e-05
0.362692 0.895674 0
0.362509 0.895415 0
0.362295 0.895186 0
0.362066 0.894926 0
0.361913 0.894759 0
0.361639 0.894423 0
0.361303 0.894011 0
0.3608 0.893507 0
0.360296 0.892866 0
0.35964 0.891798 0
0.358663 0.890684 0
0.357412 0.889296 0
0.356054 0.887694 0
0.354269 0.885893 0
0.346578 0.874556 0
0.425544 0.853666 0
0.527398 0.840146 0
0.628275 0.829099 0
0.722301 0.818311 0
0.808942 0.808576 0
0.887175 0.799008 0
0.951141 0.791791 0
1 0.78526 0
1 0.77763 0
1 0.773175 0.000137331
1 0.771008 0
1 0.769162 0
1 0.767773 0
1 0.766522 0
1 0.765728 0
1 0.764935 0
1 0.764553 9.15541e-05
1 0.764233 9.15541e-05
0.403204 0.940002 0.00233463
0.403082 0.939879 0.00231937
0.402731 0.939437 0.00225834
0.402457 0.939162 0.00222782
0.402258 0.93901 0.0021973
0.401831 0.938521 0.00213626
0.40148 0.93814 0.00209049
0.401282 0.937972 0.00207523
0.400641 0.937377 0.00192264
0.399771 0.936553 0.00172427
0.398962 0.935622 0.00158694
0.398001 0.93434 0.00138857
0.396643 0.932906 0.00135805
0.394934 0.930999 0.00122072
0.393072 0.928084 0.000701915
0.421393 0.906096 0
0.510582 0.890166 0
0.610071 0.878691 0
0.703655 0.868116 0
0.791226 0.858488 0
0.869856 0.849317 0
0.935714 0.841657 0
0.98822 0.835966 0
1 0.829526 0
1 0.823621 0.000228885
1 0.821088 0.000106813
1 0.819394 9.15541e-05
1 0.81796 9.15541e-05
1 0.816983 9.15541e-05
1 0.816007 9.15541e-05
1 0.815305 9.15541e-05
1 0.814664 0
1 0.814511 0
0.43714 0.97615 0.007187
0.437125 0.976135 0.00717174
0.437079 0.976104 0.00717174
0.436957 0.976013 0.00715648
0.436667 0.975799 0.00712596
0.436393 0.97554 0.00709545
0.436118 0.975189 0.00703441
0.435737 0.974716 0.00697337
0.435203 0.974105 0.00688182
0.434485 0.973342 0.00677501
0.433616 0.972412 0.00663767
0.432578 0.971283 0.00646983
0.431281 0.970031 0.00639353
0.429725 0.968383 0.00608835
0.428031 0.965942 0.00570687
0.425986 0.950011 0.00335698
0.500008 0.93286 0.000900282
0.595926 0.920699 0
0.689235 0.91043 0
0.775845 0.901411 0
0.854337 0.892561 0
0.921431 0.885344 0
0.974578 0.879805 0
1 0.873899 0.000122072
1 0.86804 0.000427253
1 0.864515 0.000198367
1 0.862654 0.000183108
1 0.861204 0.000167849
1 0.860044 0.000244144
1 0.859449 0.000274662
1 0.859144 0.000427253
1 0.858579 0.000411994
1 0.858122 0.000411994
0.43714 0.976165 0.007187
0.43714 0.976165 0.007187
0.43714 0.976165 0.007187
0.43714 0.976165 0.007187
0.43714 0.976165 0.007187
0.43714 0.976165 0.007187
0.43714 0.976165 0.007187
0.43714 0.976165 0.007187
0.43714 0.976165 0.007187
0.43714 0.976165 0.007187
0.43714 0.976165 0.007187
0.43714 0.976165 0.007187
0.43714 0.976165 0.007187
0.43714 0.976165 0.007187
0.437125 0.97615 0.007187
0.4374 0.97496 0.00700389
0.486564 0.953307 0.00378424
0.577523 0.941253 0.00146487
0.67332 0.934356 0.000198367
0.761791 0.928267 0
0.840909 0.923064 0
0.909789 0.91902 0
0.963531 0.914717 6.10361e-05
1 0.909895 0.00131228
1 0.904845 0.00134279
1 0.900175 0.00109865
1 0.898177 0.000732433
1 0.896971 0.000762951
1 0.896025 0.000717174
1 0.895262 0.000686656
1 0.894682 0.000671397
1 0.894194 0.000686656
1 0.893889 0.000747692
0.43714 0.976165 0.007187
0.43714 0.976165 0.007187
0.43714 0.976165 0.007187
0.43714 0.976165 0.007187
0.43714 0.976165 0.007187
0.43714 0.976165 0.007187
0.43714 0.976165 0.007187
0.43714 0.976165 0.007187
0.43714 0.976165 0.007187
0.43714 0.976165 0.007187
0.43714 0.976165 0.007187
0.43714 0.976165 0.007187
0.43714 0.976165 0.007187
0.43714 0.976165 0.007187
0.43714 0.976165 0.007187
0.437766 0.975753 0.0071107
0.467292 0.95613 0.00418097
0.55491 0.943511 0.00196841
0.651865 0.93576 0.000457771
0.742473 0.929564 0
0.823468 0.924544 0
0.894163 0.919722 0
0.949889 0.91722 0
0.994888 0.915114 0.00137331
1 0.912261 0.00167849
1 0.909377 0.00155642
1 0.9084 0.00149538
1 0.908293 0.00148013
1 0.908293 0.00148013
1 0.908293 0.00148013
1 0.908293 0.00148013
1 0.908293 0.00148013
1 0.908293 0.00148013
0.43714 0.976165 0.007187
0.43714 0.976165 0.007187
0.43714 0.976165 0.007187
0.43714 0.976165 0.007187
0.43714 0.976165 0.007187
0.43714 0.976165 0.007187
0.43714 0.976165 0.007187
0.43714 0.976165 0.007187
0.43714 0.976165 0.007187
0.43714 0.976165 0.007187
0.43714 0.976165 0.007187
0.43714 0.976165 0.007187
0.43714 0.976165 0.007187
0.43714 0.976165 0.007187
0.43714 0.976165 0.007187
0.437568 0.975799 0.00712596
0.45214 0.958831 0.00453193
0.535393 0.945403 0.00238041
0.633677 0.937041 0.000686656
0.725887 0.930648 0
0.808103 0.925338 0
0.88043 0.920516 0
0.938308 0.91754 0
0.984131 0.915663 0.000869764
1 0.91342 0.00167849
1 0.91046 0.00161746
1 0.908553 0.00149538
1 0.908293 0.00148013
1 0.908293 0.00148013
1 0.908293 0.00148013
1 0.908293 0.00148013
1 0.908293 0.00148013
1 0.908293 0.00148013
0.43714 0.976165 0.007187
0.43714 0.976165 0.007187
0.43714 0.976165 0.007187
0.43714 0.976165 0.007187
0.43714 0.976165 0.007187
0.43714 0.976165 0.007187
0.43714 0.976165 0.007187
0.43714 0.976165 0.007187
0.43714 0.976165 0.007187
0.43714 0.976165 0.007187
0.43714 0.976165 0.007187
0.43714 0.976165 0.007187
0.43714 0.976165 0.007187
0.43714 0.976165 0.007187
0.43714 0.976165 0.007187
0.437354 0.97586 0.00714122
0.440757 0.961685 0.00500496
0.518791 0.947112 0.00259403
0.618662 0.938308 0.00109865
0.711879 0.931594 0
0.795422 0.926009 0
0.869017 0.921386 0
0.928222 0.917967 0
0.97496 0.916121 0.00062562
1 0.914061 0.00161746
1 0.91133 0.00166323
1 0.908736 0.00151064
1 0.908309 0.00148013
1 0.908293 0.00148013
1 0.908293 0.00148013
1 0.908293 0.00148013
1 0.908293 0.00148013
1 0.908293 0.00148013
0.43714 0.976165 0.007187
0.43714 0.976165 0.007187
0.43714 0.976165 0.007187
0.43714 0.976165 0.007187
0.43714 0.976165 0.007187
0.43714 0.976165 0.007187
0.43714 0.976165 0.007187
0.43714 0.976165 0.007187
0.43714 0.976165 0.007187
