DJI夜景还原LUT_2.DJI_20260420195141_0027_D.cube
TITLE "Generated by Resolve"
LUT_3D_SIZE 33
0.059617 0.059617 0.0908522
0.0599222 0.0596017 0.090837
0.073991 0.0589303 0.0901656
0.133486 0.05626 0.0874952
0.185779 0.0552224 0.0864576
0.225696 0.0554208 0.086656
0.266224 0.055848 0.0870832
0.309834 0.0563363 0.0875715
0.356405 0.0567178 0.087953
0.405982 0.0566567 0.087892
0.459327 0.0562448 0.08748
0.515938 0.0554055 0.0866407
0.575998 0.0539406 0.0851759
0.639109 0.051606 0.0828412
0.705516 0.0492561 0.0804913
0.774151 0.0462959 0.0775311
0.844327 0.0430304 0.0742657
0.914763 0.0394141 0.0706493
0.982879 0.0354925 0.0667277
1 0.0312047 0.0624399
1 0.0287327 0.059968
1 0.0287327 0.059968
1 0.0287327 0.059968
1 0.0287327 0.059968
1 0.0287327 0.059968
1 0.0287327 0.059968
1 0.0287327 0.059968
1 0.0287327 0.059968
1 0.0287327 0.059968
1 0.0287327 0.059968
1 0.0287327 0.059968
1 0.0287327 0.059968
1 0.0287327 0.059968
0.059617 0.059617 0.0908522
0.059617 0.059617 0.0908522
0.0608682 0.059556 0.0907912
0.113725 0.0569467 0.0881666
0.168841 0.0553292 0.0865644
0.213611 0.0552682 0.0865034
0.256489 0.0556954 0.0869306
0.301915 0.0561685 0.0874037
0.349905 0.0566415 0.0878767
0.40061 0.0566415 0.0878767
0.454658 0.0562753 0.0875105
0.512047 0.0554513 0.0866865
0.572778 0.0540017 0.0852369
0.636149 0.0517128 0.082948
0.702892 0.0493629 0.0805982
0.771817 0.0464027 0.0776379
0.842206 0.043122 0.0743572
0.912871 0.0395972 0.0708324
0.98117 0.0355688 0.066804
1 0.0312657 0.062501
1 0.0287327 0.059968
1 0.0287327 0.059968
1 0.0287327 0.059968
1 0.0287327 0.059968
1 0.0287327 0.059968
1 0.0287327 0.059968
1 0.0287327 0.059968
1 0.0287327 0.059968
1 0.0287327 0.059968
1 0.0287327 0.059968
1 0.0287327 0.059968
1 0.0287327 0.059968
1 0.0287327 0.059968
0.0594644 0.0603799 0.0906996
0.0594797 0.0603189 0.0907149
0.0602579 0.0601968 0.0906844
0.0932021 0.0583047 0.0888838
0.15079 0.0560311 0.0866865
0.20058 0.0557412 0.0864881
0.246311 0.0559701 0.0868238
0.293477 0.056199 0.0872206
0.342931 0.0565957 0.0878309
0.395071 0.0566262 0.0878614
0.450019 0.05626 0.0874952
0.508064 0.0554818 0.086717
0.569329 0.0541085 0.0853437
0.633265 0.0517739 0.0830091
0.70045 0.0494087 0.0806439
0.769635 0.0464485 0.0776837
0.840253 0.0431678 0.074403
0.911116 0.039704 0.0709392
0.979324 0.0356909 0.0669261
1 0.0314031 0.0626383
1 0.0287327 0.059968
1 0.0287327 0.059968
1 0.0287327 0.059968
1 0.0287327 0.059968
1 0.0287327 0.059968
1 0.0287327 0.059968
1 0.0287327 0.059968
1 0.0287327 0.059968
1 0.0287327 0.059968
1 0.0287327 0.059968
1 0.0287327 0.059968
1 0.0287327 0.059968
1 0.0287327 0.059968
0.0529335 0.0933242 0.0841688
0.0534981 0.0902113 0.0847181
0.0541238 0.0871443 0.0850843
0.0671397 0.083299 0.0850843
0.127413 0.0774243 0.0830854
0.182208 0.072755 0.0823377
0.232258 0.068864 0.0833906
0.282841 0.0639353 0.0852827
0.335515 0.0577554 0.0873274
0.388876 0.0573587 0.0876326
0.444907 0.0567636 0.0873579
0.503914 0.0558175 0.0868086
0.565789 0.0542 0.0854353
0.630274 0.0518654 0.0831006
0.697734 0.0495155 0.0807507
0.767208 0.0465553 0.0777905
0.838041 0.0432746 0.0745098
0.909102 0.0398108 0.071046
0.977447 0.0358129 0.0670481
1 0.0316014 0.0628367
1 0.0287327 0.059968
1 0.0287327 0.059968
1 0.0287327 0.059968
1 0.0287327 0.059968
1 0.0287327 0.059968
1 0.0287327 0.059968
1 0.0287327 0.059968
1 0.0287327 0.059968
1 0.0287327 0.059968
1 0.0287327 0.059968
1 0.0287327 0.059968
1 0.0287327 0.059968
1 0.0287327 0.059968
0.0455329 0.133944 0.0767681
0.0457313 0.131182 0.0769665
0.0464179 0.128466 0.0776532
0.0480812 0.125368 0.0780499
0.0988174 0.119265 0.0754711
0.15584 0.113756 0.0733654
0.210971 0.109102 0.0735943
0.262669 0.103563 0.0740826
0.316335 0.0964065 0.0752728
0.372427 0.0877394 0.0769818
0.432593 0.0770581 0.0798505
0.496773 0.0635386 0.083711
0.562112 0.0549325 0.0851911
0.627146 0.0523232 0.0831769
0.695018 0.0496223 0.0808576
0.764782 0.0466621 0.0778973
0.835828 0.0433814 0.0746166
0.907057 0.0399176 0.0711528
0.975601 0.0359197 0.067155
1 0.0317845 0.0630198
1 0.0287327 0.059968
1 0.0287327 0.059968
1 0.0287327 0.059968
1 0.0287327 0.059968
1 0.0287327 0.059968
1 0.0287327 0.059968
1 0.0287327 0.059968
1 0.0287327 0.059968
1 0.0287327 0.059968
1 0.0287327 0.059968
1 0.0287327 0.059968
1 0.0287327 0.059968
1 0.0287327 0.059968
0.0403296 0.172 0.0715496
0.04065 0.16968 0.0718853
0.0409857 0.167254 0.072221
0.0420233 0.164675 0.0725261
0.0713512 0.159884 0.0704356
0.129961 0.152926 0.0666361
0.189425 0.146731 0.0649424
0.243214 0.140795 0.06421
0.297368 0.133379 0.0639963
0.35346 0.124575 0.06421
0.412573 0.113481 0.0652171
0.476341 0.099733 0.0677653
0.544976 0.0832685 0.0719005
0.618692 0.063508 0.0778058
0.691981 0.0504921 0.0805066
0.762264 0.0469673 0.0778363
0.833539 0.0434882 0.0747234
0.904936 0.0400397 0.0712749
0.973831 0.0359808 0.067216
1 0.0319524 0.0631876
1 0.0287327 0.059968
1 0.0287327 0.059968
1 0.0287327 0.059968
1 0.0287327 0.059968
1 0.0287327 0.059968
1 0.0287327 0.059968
1 0.0287327 0.059968
1 0.0287327 0.059968
1 0.0287327 0.059968
1 0.0287327 0.059968
1 0.0287327 0.059968
1 0.0287327 0.059968
1 0.0287327 0.059968
0.0362249 0.207858 0.0674601
0.0364538 0.206149 0.067689
0.0367132 0.204349 0.0679484
0.0369879 0.202533 0.0681773
0.0400092 0.200381 0.0681621
0.0995193 0.192828 0.0626993
0.16466 0.185489 0.0581064
0.221775 0.179431 0.055848
0.277119 0.172763 0.0539712
0.333684 0.164843 0.052781
0.392691 0.155306 0.0520333
0.455192 0.142977 0.0521859
0.522423 0.127199 0.054078
0.593881 0.108064 0.0572976
0.671427 0.0849317 0.0637522
0.753307 0.0581826 0.0722057
0.83032 0.0445411 0.074342
0.902296 0.0403906 0.0712139
0.971374 0.0361334 0.0673686
1 0.0320897 0.0633249
1 0.0287327 0.059968
1 0.0287327 0.059968
1 0.0287327 0.059968
1 0.0287327 0.059968
1 0.0287327 0.059968
1 0.0287327 0.059968
1 0.0287327 0.059968
1 0.0287327 0.059968
1 0.0287327 0.059968
1 0.0287327 0.059968
1 0.0287327 0.059968
1 0.0287327 0.059968
1 0.0287327 0.059968
0.0299535 0.242771 0.0611887
0.0303044 0.241535 0.0615396
0.0303655 0.240223 0.0616007
0.0306249 0.238804 0.0618601
0.0315251 0.237308 0.0620432
0.059617 0.232914 0.0594034
0.130709 0.224277 0.0530556
0.196612 0.217533 0.0491035
0.255818 0.211307 0.0467536
0.314733 0.204227 0.04477
0.374853 0.196002 0.0431983
0.437446 0.18613 0.0419318
0.503258 0.174243 0.041474
0.572427 0.159136 0.0412451
0.64538 0.140139 0.0424659
0.723552 0.115023 0.0468757
0.806302 0.0855726 0.0543526
0.892164 0.0530709 0.0648356
0.967483 0.0375982 0.0669261
1 0.0327916 0.0632029
1 0.0287327 0.059968
1 0.0287327 0.059968
1 0.0287327 0.059968
1 0.0287327 0.059968
1 0.0287327 0.059968
1 0.0287327 0.059968
1 0.0287327 0.059968
1 0.0287327 0.059968
1 0.0287327 0.059968
1 0.0287327 0.059968
1 0.0287327 0.059968
1 0.0287327 0.059968
1 0.0287327 0.059968
0.0228885 0.279637 0.0541085
0.0230564 0.278523 0.0542916
0.02327 0.277378 0.0545052
0.0236057 0.276356 0.0548409
0.0239414 0.275288 0.0551614
0.0255131 0.27393 0.0552377
0.0830701 0.266178 0.0492561
0.163226 0.257588 0.0429084
0.229404 0.251316 0.039826
0.292149 0.244709 0.0373693
0.354665 0.237339 0.0351568
0.41883 0.228763 0.0332799
0.485252 0.218601 0.0318151
0.554559 0.206348 0.0307774
0.626734 0.191501 0.0302281
0.701442 0.173678 0.0302586
0.778027 0.151888 0.0310979
0.856245 0.124804 0.0337377
0.937072 0.0918898 0.0404669
0.999527 0.0570687 0.0509499
1 0.0307164 0.0590524
1 0.0300908 0.0592813
1 0.0294957 0.0595712
1 0.0289616 0.0598459
1 0.0287327 0.059968
1 0.0287327 0.059968
1 0.0287327 0.059968
1 0.0287327 0.059968
1 0.0287327 0.059968
1 0.0287327 0.059968
1 0.0287327 0.059968
1 0.0287327 0.059968
1 0.0287327 0.059968
0.0157473 0.31902 0.0469673
0.0157778 0.318135 0.047013
0.0159609 0.317189 0.0471962
0.016144 0.316243 0.0473793
0.0163272 0.315267 0.0475624
0.0165408 0.314244 0.0477455
0.0204776 0.312566 0.0475776
0.113329 0.301381 0.0382849
0.194873 0.293797 0.0331579
0.264256 0.287175 0.0299382
0.330343 0.280095 0.0269932
0.397101 0.272267 0.0248112
0.465324 0.263279 0.0227207
0.535546 0.252781 0.0209964
0.607935 0.240436 0.0196078
0.682429 0.225834 0.0184634
0.757977 0.209079 0.0177615
0.833692 0.189425 0.0171664
0.9084 0.167269 0.0171664
0.980011 0.142412 0.0180819
1 0.114748 0.0204623
1 0.0883497 0.0304265
1 0.0632181 0.0422522
1 0.0408789 0.0536507
1 0.0311589 0.0589151
1 0.030869 0.0589914
1 0.0306096 0.0590829
1 0.0303807 0.0591745
1 0.0301823 0.0592355
1 0.030045 0.0592966
1 0.0299229 0.0593576
1 0.0298466 0.0593881
1 0.0297704 0.0594339
0.0078584 0.360998 0.0390784
0.00801099 0.36022 0.0392157
0.00813306 0.359426 0.0393683
0.00828565 0.358618 0.0395209
0.00843824 0.357809 0.0396735
0.00848402 0.357015 0.039704
0.00927749 0.355886 0.0397803
0.0391241 0.351186 0.036759
0.146319 0.339529 0.0272831
0.227878 0.332189 0.0227817
0.300526 0.325399 0.0193637
0.371069 0.317784 0.0164034
0.441779 0.30959 0.0138094
0.513771 0.300237 0.0115053
0.587167 0.289494 0.00949111
0.662165 0.277028 0.00766003
0.737713 0.262852 0.00605783
0.812985 0.246967 0.00434882
0.886992 0.229603 0.00320439
0.957107 0.210834 0.00175479
1 0.19147 0.000717174
1 0.176394 0.00422675
1 0.161517 0.00781262
1 0.147326 0.011368
1 0.134081 0.0148318
1 0.121828 0.0182498
1 0.110765 0.0217441
1 0.100938 0.0254826
1 0.0931411 0.0282902
1 0.087129 0.0307774
1 0.0822003 0.0329595
1 0.0786297 0.0346838
1 0.0756847 0.0361028
0 0.405707 0.0306401
0 0.405142 0.030869
0 0.404486 0.0310063
0.000122072 0.4038 0.0311437
0.000106813 0.403159 0.0311284
0.000183108 0.402472 0.0312047
0.000366217 0.401556 0.0313726
0.00205997 0.400183 0.0314336
0.0657664 0.391501 0.0245975
0.177981 0.380819 0.0162966
0.262348 0.373297 0.0115816
0.339254 0.365866 0.00805676
0.413779 0.358083 0.00497444
0.48867 0.349355 0.00242618
0.563684 0.339513 0
0.639612 0.328557 0
0.715801 0.316258 0
0.791409 0.302617 0
0.864836 0.287968 0
0.935164 0.272709 0
0.99942 0.257084 0
0.999969 0.245441 0
1 0.235264 0
1 0.226001 0
1 0.217731 0
1 0.210636 0
1 0.20444 0
1 0.199542 0
1 0.195453 1.5259e-05
1 0.192126 0.000381476
1 0.189776 0.00103761
1 0.187716 0.00149538
1 0.18616 0.00187686
0 0.453269 0.0216068
0 0.452689 0.0217136
0 0.45211 0.0218204
0 0.451514 0.0219425
0 0.450935 0.0220493
0 0.450309 0.0221714
0 0.449531 0.0223239
0 0.448508 0.0225071
0.00234989 0.44715 0.0224765
0.100633 0.434195 0.0115663
0.211093 0.424475 0.00448615
0.299229 0.416739 0.000183108
0.380026 0.408957 0
0.458503 0.400595 0
0.536568 0.391592 0
0.614145 0.38146 0
0.691508 0.370474 0
0.767651 0.35848 0
0.84155 0.345617 0
0.911772 0.332296 0
0.976516 0.319066 0
0.998291 0.30901 0
0.999695 0.301305 0
0.99971 0.294301 0
0.999741 0.288045 0
0.999756 0.282948 0
0.999786 0.278569 0
0.999786 0.274922 0
0.999802 0.272297 0
0.999817 0.269978 0
0.999817 0.268177 0
0.999817 0.266773 0
0.999832 0.265705 0
0 0.503182 0.0120089
0 0.502693 0.0121004
0 0.50219 0.012192
0 0.501671 0.0122988
0 0.501167 0.0123903
0 0.500648 0.0124666
0 0.500053 0.0124971
0 0.499321 0.0127871
0 0.498222 0.0130465
0.00320439 0.496391 0.0130007
0.13611 0.47985 3.0518e-05
0.246723 0.470634 0
0.338216 0.462409 0
0.422797 0.4542 0
0.504463 0.445533 0
0.585 0.436286 0
0.664134 0.426001 0
0.741573 0.415122 0
0.816251 0.403601 0
0.886839 0.39176 0
0.951629 0.37995 0
0.985077 0.37052 0
0.986465 0.364309 0
0.987518 0.358602 0
0.988769 0.35378 0
0.989517 0.34963 0
0.990356 0.346334 0
0.99089 0.343572 0
0.991363 0.341299 0
0.991745 0.339529 0
0.991852 0.338216 0
0.992142 0.337194 0
0.992447 0.336507 0
0 0.555215 0.00192264
0 0.554772 0.00201419
0 0.554345 0.00209049
0 0.553903 0.00218204
0 0.55346 0.00227359
0 0.553002 0.00234989
0 0.552499 0.00244144
0 0.551904 0.00262455
0 0.550912 0.00283818
0 0.549569 0.00303655
0.00407416 0.54519 0.000976577
0.173693 0.52755 0
0.284947 0.51812 0
0.379431 0.509728 0
0.466957 0.501457 0
0.551385 0.492393 0
0.632868 0.482872 0
0.712032 0.472908 0
0.787854 0.462409 0
0.859495 0.45156 0
0.924926 0.440909 0
0.972198 0.431373 0
0.973449 0.4262 0
0.974441 0.421378 0
0.975326 0.417472 0
0.976043 0.413977 0
0.97644 0.411185 0
0.977081 0.408988 0
0.977523 0.407202 0
0.977829 0.405753 0
0.977859 0.404685 0
0.978058 0.403815 0
0.978195 0.403143 0
0 0.608652 0
0 0.60827 0
0 0.607874 0
0 0.607477 0
0 0.607095 0
0 0.606683 0
0 0.606149 0
0 0.605463 0
0 0.604608 0
0 0.603616 0
0.00115969 0.602029 0
0.0522316 0.590219 0
0.214908 0.57641 0
0.326192 0.56701 0
0.422644 0.55845 0
0.512291 0.549767 0
0.597681 0.540673 0
0.679149 0.531365 0
0.756786 0.521599 0
0.829252 0.511437 0
0.89572 0.501671 0
0.955016 0.492393 0
0.961028 0.487266 0
0.961685 0.483192 0
0.962585 0.479805 0
0.963043 0.476921 0
0.963531 0.474464 0
0.963943 0.47248 0
0.964172 0.470954 0
0.964492 0.469917 0
0.964736 0.469001 0
0.964889 0.468254 0
0.965011 0.467704 0
0 0.662577 0
0 0.662242 0
0 0.661891 0
0 0.661524 0
0 0.661189 0
0 0.660807 0
0 0.660334 0
0 0.659724 0
0 0.65893 0
0 0.657908 0
0 0.656596 0
0.00262455 0.654688 0
0.113085 0.637201 0
0.259541 0.62536 0
0.370245 0.616312 0
0.467903 0.607599 0
0.557916 0.598886 0
0.642756 0.589807 0
0.722408 0.580636 0
0.796567 0.571221 0
0.864073 0.562158 0
0.924056 0.55346 0
0.948775 0.547463 0
0.94934 0.543893 0
0.950164 0.540963 0
0.950668 0.538354 0
0.950942 0.536263 0
0.951293 0.534524 0
0.951598 0.533181 0
0.95198 0.53228 0
0.952163 0.531456 0
0.9523 0.5308 0
0.952346 0.530327 0
0 0.715831 0
0 0.715511 0
0 0.71519 0
0 0.714885 0
0 0.714595 0
0 0.714275 0
0 0.713863 0
0 0.713298 0
0 0.712566 0
0 0.711635 0
0 0.71046 0
0 0.708949 0
0.00401312 0.706661 0
0.171313 0.684489 0
0.308095 0.673762 0
0.416846 0.664698 0
0.513909 0.656031 0
0.602762 0.64741 0
0.685588 0.638712 0
0.761349 0.629908 0
0.830594 0.621302 0
0.891737 0.613199 0
0.936522 0.606073 0
0.937514 0.603037 0
0.938094 0.600229 0
0.938537 0.597879 0
0.938781 0.596033 0
0.939193 0.594568 0
0.939544 0.593454 0
0.939742 0.592493 0
0.939895 0.59173 0
0.940017 0.591165 0
0.940108 0.590723 0
0 0.767315 0
0 0.767056 0
0 0.766781 0
0 0.766506 0
0 0.766201 0
0 0.765896 0
0 0.765499 0
0 0.764981 0
0 0.764324 0
0 0.763455 0
0 0.762356 0
0 0.760983 0
0.000747692 0.759121 0
0.0357671 0.745663 0
0.232746 0.729976 0
0.359869 0.72015 0
0.465797 0.711482 0
0.560418 0.703014 0
0.646326 0.694606 0
0.72488 0.686381 0
0.795254 0.678172 0
0.858198 0.670405 0
0.911803 0.663386 0
0.925902 0.659327 0
0.926452 0.657023 0
0.926894 0.654871 0
0.927245 0.653117 0
0.92755 0.651698 0
0.927779 0.650568 0
0.927901 0.649729 0
0.927901 0.649104 0
0.928008 0.648569 0
0.9281 0.648173 0
0 0.815854 0
0 0.815579 0
0 0.815305 0
0 0.81503 0
0 0.814755 0
0 0.81445 0
0 0.814084 0
0 0.813611 0
0 0.812985 0
0 0.812238 0
0 0.811353 0
0 0.810147 0
0 0.80853 0
0.00320439 0.806104 0
0.137179 0.784634 0
0.296086 0.772915 0
0.414511 0.763745 0
0.515755 0.755474 0
0.606088 0.747295 0
0.687114 0.739361 0
0.759823 0.731655 0
0.823728 0.724437 0
0.87892 0.717708 0
0.914595 0.712276 0
0.915358 0.710124 0
0.91577 0.70811 0
0.916106 0.706477 0
0.916396 0.705165 0
0.916609 0.704112 0
0.916701 0.703349 0
0.916716 0.702754 0
0.916808 0.702251 0
0.916884 0.701885 0
0 0.860563 0
0 0.860304 0
0 0.860044 0
0 0.85977 0
0 0.85951 0
0 0.859236 0
0 0.858885 0
0 0.858427 0
0 0.857862 0
0 0.85716 0
0 0.856184 0
0 0.854963 0
0 0.85359 0
0 0.85156 0
0.00523384 0.839887 0
0.224598 0.821881 0
0.360784 0.812039 0
0.470497 0.803693 0
0.565713 0.795575 0
0.650141 0.788113 0
0.724788 0.780636 0
0.790372 0.773678 0
0.846693 0.767376 0
0.893935 0.761624 0
0.904921 0.758572 0
0.90515 0.756771 0
0.905547 0.755276 0
0.905974 0.754192 0
0.906188 0.753201 0
0.906355 0.752422 0
0.906477 0.751827 0
0.906584 0.751354 0
0.906661 0.751019 0
0 0.900511 0
0 0.900267 0
0 0.900023 0
0 0.899763 0
0 0.899519 0
0 0.89926 0
0 0.898924 0
0 0.898482 0
0 0.897902 0
0 0.897231 0
0 0.896422 0
0 0.895369 0
0 0.893919 0
0 0.892119 0
0.00331121 0.889509 0
0.143008 0.866758 0
0.305531 0.855436 0
0.425895 0.846891 0
0.526436 0.838972 0
0.614511 0.831632 0
0.691279 0.824567 0
0.758419 0.817929 0
0.815991 0.81181 0
0.864179 0.806409 0
0.894987 0.802075 0
0.895628 0.800244 0
0.896101 0.798917 0
0.896422 0.797772 0
0.896452 0.796902 0
0.89659 0.796185 0
0.896712 0.795605 0
0.896819 0.795163 0
0.896895 0.794827 0
0 0.933974 0
0 0.933974 0
0 0.933974 0
0 0.933974 0
0 0.933974 0
0 0.933837 0
0 0.933501 0
0 0.933089 0
0 0.932525 0
0 0.931807 0
0 0.930907 0
0 0.929808 0
0 0.928557 0
0 0.926863 0
0.000976577 0.924544 0
0.0454414 0.907393 0
0.250553 0.893126 0
0.382834 0.884245 0
0.490043 0.876554 0
0.581231 0.869444 0
0.660487 0.862562 0
0.729061 0.856306 0
0.787549 0.850538 0
0.836912 0.845258 0
0.87715 0.840696 0
0.887083 0.838239 0
0.887251 0.836866 0
0.887465 0.835737 0
0.887678 0.834821 0
0.887846 0.834104 0
0.888029 0.8336 0
0.888197 0.833249 0
0.888304 0.832959 0
0 0.933974 0
0 0.933974 0
0 0.933974 0
0 0.933974 0
0 0.933974 0
0 0.933974 0
0 0.933974 0
0 0.933974 0
0 0.933974 0
0 0.933974 0
0 0.933974 0
0 0.933974 0
0 0.933974 0
0 0.933974 0
0 0.933944 0
0.00463874 0.932143 0
0.200046 0.909667 0
0.346227 0.902724 0
0.458732 0.898009 0
0.552834 0.893858 0
0.633494 0.890257 0
0.702846 0.887068 0
0.76202 0.882933 0
0.812238 0.877821 0
0.853498 0.873594 0
0.879271 0.87013 0
0.879561 0.868833 0
0.879835 0.86772 0
0.880064 0.86685 0
0.880339 0.866239 0
0.880537 0.865797 0
0.880705 0.865446 0
0.880781 0.865125 0
0 0.933974 0
0 0.933974 0
0 0.933974 0
0 0.933974 0
0 0.933974 0
0 0.933974 0
0 0.933974 0
0 0.933974 0
0 0.933974 0
0 0.933974 0
0 0.933974 0
0 0.933974 0
0 0.933974 0
0 0.933974 0
0 0.933974 0
0.00355535 0.933455 0
0.15433 0.912047 0
0.317494 0.904082 0
0.436332 0.898909 0
0.533974 0.894774 0
0.616571 0.891173 0
0.687007 0.88777 0
0.746822 0.884855 0
0.796613 0.882017 0
0.837873 0.879606 0
0.871168 0.87776 0
0.877333 0.877333 0
0.877333 0.877333 0
0.877333 0.877333 0
0.877333 0.877333 0
0.877333 0.877333 0
0.877333 0.877333 0
0.877333 0.877333 0
0 0.933974 0
0 0.933974 0
0 0.933974 0
0 0.933974 0
0 0.933974 0
0 0.933974 0
0 0.933974 0
0 0.933974 0
0 0.933974 0
0 0.933974 0
0 0.933974 0
0 0.933974 0
0 0.933974 0
0 0.933974 0
0 0.933974 0
0.00248722 0.933516 0
0.109041 0.914534 0
0.291966 0.905333 0
0.417014 0.899855 0
0.517617 0.895384 0
0.602121 0.891722 0
0.673732 0.888304 0
0.734249 0.885451 0
0.784649 0.882856 0
0.826246 0.880476 0
0.859586 0.878477 0
0.877333 0.877333 0
0.877333 0.877333 0
0.877333 0.877333 0
0.877333 0.877333 0
0.877333 0.877333 0
0.877333 0.877333 0
0.877333 0.877333 0
0 0.933974 0
0 0.933974 0
0 0.933974 0
0 0.933974 0
0 0.933974 0
0 0.933974 0
0 0.933974 0
0 0.933974 0
0 0.933974 0
0 0.933974 0
0 0.933974 0
0 0.933974 0
0 0.933974 0
0 0.933974 0
0 0.933974 0
0.00140383 0.933577 0
0.0639048 0.917159 0
0.269673 0.906233 0
0.400534 0.900465 0
0.503853 0.895933 0
0.589975 0.892226 0
0.662699 0.888869 0
0.723796 0.885939 0
0.774701 0.88333 0
0.816556 0.88098 0
0.850294 0.878981 0
0.877165 0.877348 0
0.877333 0.877333 0
0.877333 0.877333 0
0.877333 0.877333 0
0.877333 0.877333 0
0.877333 0.877333 0
0.877333 0.877333 0
0 0.933974 0
0 0.933974 0
0 0.933974 0
0 0.933974 0
0 0.933974 0
0 0.933974 0
0 0.933974 0
0 0.933974 0
0 0.933974 0
