DJI夜景还原LUT_2.DJI_20260420195141_0027_D.cube
TITLE "Generated by Resolve"
LUT_3D_SIZE 5
0.059617 0.059617 0.0908522
0.356405 0.0567178 0.087953
0.844327 0.0430304 0.0742657
1 0.0287327 0.059968
1 0.0287327 0.059968
0.0228885 0.279637 0.0541085
0.229404 0.251316 0.039826
0.778027 0.151888 0.0310979
1 0.0287327 0.059968
1 0.0287327 0.059968
0 0.662577 0
0 0.65893 0
0.557916 0.598886 0
0.950164 0.540963 0
0.952346 0.530327 0
0 0.933974 0
0 0.933974 0
0.15433 0.912047 0
0.837873 0.879606 0
0.877333 0.877333 0
0 0.933974 0
0 0.933974 0
0.00453193 0.93341 0
0.788876 0.882597 0
0.877333 0.877333 0
0.0588388 0.0588388 0.315099
0.342306 0.0537423 0.304036
0.835248 0.0380865 0.254337
1 0.0251926 0.164111
1 0.0260929 0.133028
0.0233616 0.246372 0.241001
0.215991 0.217258 0.220768
0.786175 0.0978866 0.179187
1 0.0270848 0.100084
1 0.0282444 0.0701457
0 0.654002 0
0 0.650355 0
0.555337 0.590158 0
0.952148 0.531319 0
0.954223 0.520516 0
0 0.933974 0
0 0.933974 0
0.143069 0.912596 0
0.834821 0.87985 0
0.877333 0.877333 0
0 0.933974 0
0 0.933974 0
0.00288396 0.933608 0
0.785611 0.882795 0
0.877333 0.877333 0
0.0615244 0.0615244 0.759472
0.274571 0.0519875 0.748074
0.808286 0.0303807 0.717006
1 0.0143893 0.684611
1 0.0145418 0.679744
0.0614786 0.0614786 0.74844
0.148089 0.0558938 0.741192
0.785611 0.0316014 0.70721
1 0.0147097 0.673487
1 0.0148013 0.668421
0 0.593744 0.572381
0 0.589975 0.57116
0.527993 0.529213 0.524987
0.948455 0.465766 0.487984
0.951095 0.453651 0.484871
0 0.922377 0.374319
0 0.922423 0.371649
0.0687724 0.905226 0.340734
0.815015 0.85658 0.286671
0.874296 0.846174 0.27718
0 0.923323 0.331472
0 0.9234 0.328496
0.00141909 0.92343 0.313039
0.761563 0.875288 0.236774
0.869429 0.869429 0.221805
0.0590524 0.0590677 1
0.0609445 0.0589151 1
0.7664 0.0237888 1
1 0.00563058 1
1 0.00564584 1
0.0590524 0.0590677 1
0.0590524 0.0590677 1
0.742718 0.0249027 1
1 0.00564584 1
1 0.0056611 1
0 0.491051 0.998535
0 0.486198 0.99852
0.495323 0.422736 0.971481
0.960708 0.344991 0.941253
0.964294 0.328557 0.941405
0 0.881575 0.852827
0 0.879179 0.852399
0.00077821 0.865934 0.849042
0.792065 0.79234 0.792554
0.87837 0.77998 0.785412
0 0.913115 0.822477
0 0.913146 0.821088
0 0.913252 0.814206
0.725155 0.868544 0.757275
0.861646 0.861646 0.746822
0.0590524 0.0590677 1
0.0590524 0.0590677 1
0.75581 0.0243381 1
1 0.00563058 1
1 0.00563058 1
0.0590524 0.0590677 1
0.0590524 0.0590677 1
0.731487 0.0254063 1
1 0.00563058 1
1 0.00563058 1
0 0.457542 1
0 0.452277 1
0.488762 0.386603 0.988647
0.969116 0.301625 0.970642
0.973342 0.28249 0.974853
0 0.862776 0.926024
0 0.860319 0.926955
0 0.846876 0.93048
0.785336 0.772549 0.885527
0.879774 0.759228 0.8813
0 0.910674 0.912184
0 0.910674 0.912184
0 0.910674 0.912184
0.713832 0.866575 0.868101
0.859968 0.859968 0.861494
