DJI夜景还原LUT_2.DJI_20260420195141_0027_D.cube
TITLE "Generated by Resolve"
LUT_3D_SIZE 9
0.059617 0.059617 0.0908522
0.185779 0.0552224 0.0864576
0.356405 0.0567178 0.087953
0.575998 0.0539406 0.0851759
0.844327 0.0430304 0.0742657
1 0.0287327 0.059968
1 0.0287327 0.059968
1 0.0287327 0.059968
1 0.0287327 0.059968
0.0455329 0.133944 0.0767681
0.0988174 0.119265 0.0754711
0.316335 0.0964065 0.0752728
0.562112 0.0549325 0.0851911
0.835828 0.0433814 0.0746166
1 0.0287327 0.059968
1 0.0287327 0.059968
1 0.0287327 0.059968
1 0.0287327 0.059968
0.0228885 0.279637 0.0541085
0.0239414 0.275288 0.0551614
0.229404 0.251316 0.039826
0.485252 0.218601 0.0318151
0.778027 0.151888 0.0310979
1 0.0307164 0.0590524
1 0.0287327 0.059968
1 0.0287327 0.059968
1 0.0287327 0.059968
0 0.453269 0.0216068
0 0.450935 0.0220493
0.00234989 0.44715 0.0224765
0.380026 0.408957 0
0.691508 0.370474 0
0.976516 0.319066 0
0.999741 0.288045 0
0.999802 0.272297 0
0.999832 0.265705 0
0 0.662577 0
0 0.661189 0
0 0.65893 0
0.113085 0.637201 0
0.557916 0.598886 0
0.864073 0.562158 0
0.950164 0.540963 0
0.951598 0.533181 0
0.952346 0.530327 0
0 0.860563 0
0 0.85951 0
0 0.857862 0
0 0.85359 0
0.360784 0.812039 0
0.724788 0.780636 0
0.904921 0.758572 0
0.906188 0.753201 0
0.906661 0.751019 0
0 0.933974 0
0 0.933974 0
0 0.933974 0
0 0.933974 0
0.15433 0.912047 0
0.616571 0.891173 0
0.837873 0.879606 0
0.877333 0.877333 0
0.877333 0.877333 0
0 0.933974 0
0 0.933974 0
0 0.933974 0
0 0.933974 0
0.00543221 0.924254 0
0.572534 0.893126 0
0.802502 0.881697 0
0.877333 0.877333 0
0.877333 0.877333 0
0 0.933974 0
0 0.933974 0
0 0.933974 0
0 0.933974 0
0.00453193 0.93341 0
0.554818 0.893797 0
0.788876 0.882597 0
0.877333 0.877333 0
0.877333 0.877333 0
0.0587778 0.0587778 0.153674
0.174746 0.0543526 0.143877
0.350988 0.0556039 0.13669
0.572686 0.0530556 0.112566
0.842741 0.0430915 0.0743267
1 0.0287327 0.059968
1 0.0287327 0.059968
1 0.0287327 0.059968
1 0.0287327 0.059968
0.0496071 0.106783 0.112856
0.0910353 0.0924544 0.108827
0.319127 0.0708476 0.103807
0.559869 0.0543679 0.0877089
0.834211 0.0434577 0.0746929
1 0.0287327 0.059968
1 0.0287327 0.059968
1 0.0287327 0.059968
1 0.0287327 0.059968
0.0248569 0.269337 0.0560922
0.0259098 0.264714 0.057145
0.226276 0.240726 0.042298
0.485679 0.206668 0.0346075
0.780804 0.134905 0.0355077
1 0.029984 0.0593423
1 0.0287327 0.059968
1 0.0287327 0.059968
1 0.0287327 0.059968
0 0.447913 0.0226139
0 0.445716 0.0231174
0.00177005 0.441703 0.023621
0.378149 0.403525 0
0.691173 0.364813 0
0.97673 0.312505 0
0.999802 0.280766 0
0.999863 0.264332 0
0.999878 0.257694 0
0 0.659205 0
0 0.657786 0
0 0.655543 0
0.107485 0.634333 0
0.556832 0.595468 0
0.863767 0.558648 0
0.950774 0.53724 0
0.952407 0.52958 0
0.952987 0.526513 0
0 0.858045 0
0 0.857069 0
0 0.85539 0
0 0.851102 0
0.358755 0.809659 0
0.724086 0.778103 0
0.905333 0.755917 0
0.906722 0.750454 0
0.907057 0.748318 0
0 0.933974 0
0 0.933974 0
0 0.933974 0
0 0.933974 0
0.150118 0.912215 0
0.614984 0.891234 0
0.836667 0.879683 0
0.877333 0.877333 0
0.877333 0.877333 0
0 0.933974 0
0 0.933974 0
0 0.933974 0
0 0.933974 0
0.00447089 0.925368 0
0.570825 0.893202 0
0.801373 0.881743 0
0.877333 0.877333 0
0.877333 0.877333 0
0 0.933974 0
0 0.933974 0
0 0.933974 0
0 0.933974 0
0.00370794 0.933501 0
0.553094 0.893858 0
0.787625 0.882689 0
0.877333 0.877333 0
0.877333 0.877333 0
0.0588388 0.0588388 0.315099
0.156146 0.0543832 0.308461
0.342306 0.0537423 0.304036
0.564797 0.0487373 0.288777
0.835248 0.0380865 0.254337
1 0.0241398 0.201221
1 0.0251926 0.164111
1 0.0258183 0.142
1 0.0260929 0.133028
0.0578775 0.0625162 0.300191
0.0768597 0.0586709 0.297261
0.313832 0.0542611 0.289921
0.551385 0.0495918 0.274479
0.8271 0.0388342 0.23772
1 0.0247959 0.180011
1 0.0259556 0.137423
1 0.0265354 0.117769
1 0.0267643 0.110307
0.0233616 0.246372 0.241001
0.0242924 0.241291 0.239277
0.215991 0.217258 0.220768
0.481666 0.180606 0.201114
0.786175 0.0978866 0.179187
1 0.0263371 0.139727
1 0.0270848 0.100084
1 0.0278782 0.0784924
1 0.0282444 0.0701457
0 0.435966 0.119493
0 0.433692 0.11545
0.00114443 0.429938 0.108858
0.37319 0.392309 0.0649577
0.689525 0.354086 0.0200504
0.977386 0.3019 0
0.999878 0.268452 0
0.999924 0.251102 0
0.999939 0.244114 0
0 0.654002 0
0 0.652644 0
0 0.650355 0
0.0973983 0.62977 0
0.555337 0.590158 0
0.862989 0.553048 0
0.952148 0.531319 0
0.953613 0.5234 0
0.954223 0.520516 0
0 0.854139 0
0 0.853193 0
0 0.85156 0
0 0.84712 0
0.356222 0.805859 0
0.72282 0.774182 0
0.906508 0.751751 0
0.907546 0.74609 0
0.908141 0.744015 0
0 0.933974 0
0 0.933974 0
0 0.933974 0
0 0.933974 0
0.143069 0.912596 0
0.612619 0.891325 0
0.834821 0.87985 0
0.877333 0.877333 0
0.877333 0.877333 0
0 0.933974 0
0 0.933974 0
0 0.933974 0
0 0.933974 0
0.00350958 0.927306 0
0.568399 0.893248 0
0.799405 0.881849 0
0.877333 0.877333 0
0.877333 0.877333 0
0 0.933974 0
0 0.933974 0
0 0.933974 0
0 0.933974 0
0.00288396 0.933608 0
0.55053 0.893935 0
0.785611 0.882795 0
0.877333 0.877333 0
0.877333 0.877333 0
0.0601511 0.0601511 0.514824
0.105226 0.0573739 0.510826
0.322042 0.0525978 0.504158
0.551949 0.0456245 0.492088
0.825025 0.0341192 0.469841
1 0.0192416 0.439139
1 0.0194553 0.426505
1 0.0195926 0.419791
1 0.0196384 0.41738
0.0601053 0.0601053 0.507652
0.0604257 0.06009 0.506416
0.291539 0.0530556 0.497673
0.538048 0.0462043 0.485618
0.816724 0.0347601 0.463004
1 0.019379 0.431647
1 0.0196231 0.418616
1 0.0197452 0.411826
1 0.0197757 0.409339
0.0310369 0.183291 0.467277
0.032578 0.17586 0.467704
0.199847 0.149325 0.45536
0.491218 0.0979477 0.451423
0.802777 0.0362707 0.451637
1 0.0196078 0.419242
1 0.0198367 0.405692
1 0.0199588 0.398749
1 0.0200198 0.395972
0 0.405493 0.39237
0 0.402914 0.391531
0.000274662 0.398932 0.390097
0.359182 0.360494 0.359304
0.680797 0.318807 0.33521
0.970672 0.261799 0.307362
0.999878 0.223621 0.298314
0.999924 0.203235 0.295262
0.999939 0.194797 0.294148
0 0.631754 0.266712
0 0.630335 0.265248
0 0.628077 0.262882
0.0576638 0.610147 0.244602
0.543481 0.568338 0.201251
0.854246 0.531334 0.160525
0.949004 0.509361 0.132921
0.950851 0.501488 0.121447
0.951812 0.498558 0.118227
0 0.840284 0.0536049
0 0.839338 0.0507057
0 0.837766 0.0462806
0 0.833661 0.0335699
0.346944 0.793881 0
0.720043 0.763424 0
0.908812 0.740551 0
0.910033 0.734783 0
0.910445 0.732708 0
0 0.933974 0
0 0.933974 0
0 0.933974 0
0 0.933974 0
0.124544 0.913725 0
0.606485 0.891569 0
0.830167 0.880293 0
0.877333 0.877333 0
0.877684 0.876204 0
0 0.933974 0
0 0.933974 0
0 0.933974 0
0 0.933974 0
0.00248722 0.933318 0
0.56173 0.893553 0
0.794415 0.882124 0
0.877333 0.877333 0
0.877333 0.877333 0
0 0.933974 0
0 0.933974 0
0 0.933974 0
0 0.933974 0
0.00199893 0.933715 0
0.543725 0.89427 0
0.780804 0.883024 0
0.877333 0.877333 0
0.877333 0.877333 0
0.0615244 0.0615244 0.759472
0.0615244 0.0615244 0.75874
0.274571 0.0519875 0.748074
0.527291 0.0423743 0.735592
0.808286 0.0303807 0.717006
1 0.0142061 0.691768
1 0.0143893 0.684611
1 0.0144961 0.681147
1 0.0145418 0.679744
0.0614939 0.0614939 0.755367
0.0614939 0.0614939 0.754635
0.236347 0.0528115 0.744793
0.512764 0.0431067 0.73196
0.799664 0.0308232 0.713237
1 0.0142977 0.687541
1 0.0145113 0.680446
1 0.0146181 0.676783
1 0.0146792 0.675349
0.0614786 0.0614786 0.74844
0.0614633 0.0614633 0.747799
0.148089 0.0558938 0.741192
0.48838 0.0442664 0.72639
0.785611 0.0316014 0.70721
1 0.0152895 0.681636
1 0.0147097 0.673487
1 0.0147707 0.669871
1 0.0148013 0.668421
0 0.340322 0.663508
0 0.337194 0.663432
0 0.332021 0.663294
0.339696 0.292561 0.637568
0.677562 0.242756 0.62092
0.975708 0.169268 0.607126
1 0.103761 0.613718
1 0.0601511 0.628183
1 0.0422522 0.635462
0 0.593744 0.572381
0 0.592325 0.572045
0 0.589975 0.57116
0.00225834 0.582574 0.568521
0.527993 0.529213 0.524987
0.84358 0.490272 0.500481
0.948455 0.465766 0.487984
0.950332 0.457069 0.485771
0.951095 0.453651 0.484871
0 0.808057 0.461631
0 0.807126 0.46099
0 0.805539 0.460029
0 0.8009 0.457588
0.319875 0.761212 0.421576
0.702251 0.728511 0.394842
0.902678 0.704753 0.375387
0.904097 0.699107 0.37171
0.904585 0.696788 0.370413
0 0.922377 0.374319
0 0.922393 0.373281
0 0.922423 0.371649
0 0.922484 0.367468
0.0687724 0.905226 0.340734
0.585855 0.877073 0.30605
0.815015 0.85658 0.286671
0.873823 0.848096 0.27895
0.874296 0.846174 0.27718
0 0.92311 0.343786
0 0.923125 0.342657
0 0.923156 0.3411
0 0.923247 0.336355
0.00196841 0.923186 0.325994
0.538964 0.884901 0.273014
0.775433 0.874449 0.250248
0.869001 0.869001 0.238621
0.869078 0.869078 0.23621
0 0.923323 0.331472
0 0.923369 0.330327
0 0.9234 0.328496
0 0.923491 0.323812
0.00141909 0.92343 0.313039
0.520928 0.885969 0.26006
0.761563 0.875288 0.236774
0.864546 0.869764 0.224537
0.869429 0.869429 0.221805
0.0606546 0.0606699 0.994842
0.0606699 0.0606699 0.994781
0.181216 0.0521859 0.9897
0.491432 0.0389868 0.974121
0.784863 0.026154 0.956466
1 0.00956741 0.932815
1 0.00923171 0.927123
1 0.009308 0.924361
1 0.00932326 0.923293
0.0606851 0.0607004 0.994507
0.0607004 0.0607004 0.994446
0.109682 0.0566262 0.990814
0.475685 0.039826 0.97171
0.776013 0.0266575 0.953643
1 0.010132 0.930297
1 0.00932326 0.923812
1 0.00936904 0.921157
1 0.0093843 0.920241
0.0607309 0.0607309 0.991333
0.0607309 0.0607309 0.990768
0.0613718 0.0606851 0.989837
0.448753 0.0409705 0.967742
0.761807 0.0276341 0.949294
1 0.0110323 0.925841
1 0.00941482 0.918837
1 0.00949111 0.916045
1 0.00950637 0.914977
0.0151522 0.211215 0.931807
0.0164187 0.205554 0.932525
0.0184634 0.196002 0.933684
0.322866 0.145418 0.916472
0.713542 0.0476234 0.928893
0.999634 0.0142977 0.914092
1 0.0099031 0.904875
1 0.00978103 0.902373
1 0.00981155 0.90132
0 0.539315 0.835676
0 0.537606 0.835462
0 0.534859 0.835142
0.00102235 0.52755 0.834211
0.509758 0.47306 0.793866
0.833295 0.430869 0.772564
0.954284 0.402884 0.762234
0.956313 0.392813 0.761547
0.957153 0.388754 0.761242
0 0.768811 0.742733
0 0.767666 0.742428
0 0.766033 0.742123
0 0.761273 0.740642
0.287984 0.72253 0.709545
0.687404 0.688136 0.685496
0.902647 0.662943 0.668833
0.906142 0.656703 0.667048
0.906432 0.654353 0.666392
0 0.909712 0.670344
0 0.908751 0.670054
0 0.907179 0.669764
0 0.903044 0.668437
0.00204471 0.882856 0.653651
0.569558 0.84239 0.621271
0.802228 0.821164 0.606577
0.875868 0.811749 0.600153
0.87631 0.809674 0.599542
0 0.916991 0.649973
0 0.916991 0.649439
0 0.917006 0.6486
0 0.917067 0.645914
0.000869764 0.917006 0.640192
0.513497 0.880491 0.595529
0.755154 0.870268 0.578943
0.858473 0.864958 0.570382
0.864561 0.864561 0.568841
0 0.917128 0.64303
0 0.917128 0.642405
0 0.917159 0.641382
0 0.917189 0.638926
0.000396735 0.917174 0.63299
0.494591 0.881361 0.589151
0.741161 0.871153 0.57258
0.845121 0.865766 0.563867
0.864652 0.864637 0.561456
0.0590524 0.0590677 1
0.0590524 0.0590677 1
0.0609445 0.0589151 1
0.46125 0.0372473 1
0.7664 0.0237888 1
1 0.00694286 1
1 0.00563058 1
1 0.00564584 1
1 0.00564584 1
0.0590524 0.0590677 1
0.0590524 0.0590677 1
0.0593576 0.0590372 1
0.444068 0.038056 1
0.757382 0.0242771 1
1 0.00740063 1
1 0.00564584 1
1 0.00564584 1
1 0.00564584 1
0.0590524 0.0590677 1
0.0590524 0.0590677 1
0.0590524 0.0590677 1
0.414679 0.0391852 1
0.742718 0.0249027 1
1 0.00814832 1
1 0.00564584 1
1 0.0056611 1
1 0.0056611 1
0.0588693 0.0596323 1
0.0588846 0.0596017 1
0.0588998 0.0595712 1
0.318517 0.043946 1
0.702098 0.0268864 1
0.997864 0.0103304 1
1 0.00567636 1
1 0.00567636 1
1 0.00567636 1
0 0.491051 0.998535
0 0.489189 0.998535
0 0.486198 0.99852
0.000213626 0.478035 0.998489
0.495323 0.422736 0.971481
0.826734 0.37705 0.951324
0.960708 0.344991 0.941253
0.963348 0.333318 0.941268
0.964294 0.328557 0.941405
0 0.73637 0.920348
0 0.735241 0.919997
0 0.733394 0.91957
0 0.728359 0.918563
0.260136 0.690791 0.889616
0.675685 0.654658 0.865507
0.893156 0.628885 0.849897
0.908049 0.621332 0.84741
0.908537 0.619058 0.846891
0 0.881575 0.852827
0 0.880644 0.852659
0 0.879179 0.852399
0 0.874937 0.851438
0.00077821 0.865934 0.849042
0.556207 0.813931 0.806622
0.792065 0.79234 0.792554
0.877958 0.782086 0.785946
0.87837 0.77998 0.785412
0 0.912963 0.82855
0 0.912978 0.828016
0 0.913008 0.827161
0 0.913054 0.824903
0.000228885 0.9131 0.820081
0.493172 0.877638 0.77792
0.740063 0.865141 0.763485
0.845548 0.854948 0.756939
0.86392 0.851926 0.755154
0 0.913115 0.822477
0 0.91313 0.821942
0 0.913146 0.821088
0 0.913176 0.819089
0 0.913252 0.814206
0.47364 0.878447 0.772717
0.725155 0.868544 0.757275
0.83032 0.863401 0.74963
0.861646 0.861646 0.746822
0.0590524 0.0590677 1
0.0590524 0.0590677 1
0.0594034 0.0590372 1
0.446967 0.0377966 1
0.758938 0.0242161 1
1 0.00729381 1
1 0.00563058 1
1 0.00563058 1
1 0.00563058 1
0.0590524 0.0590677 1
0.0590524 0.0590677 1
0.0591135 0.0590677 1
0.429038 0.0386511 1
0.749706 0.0246128 1
1 0.00775158 1
1 0.00563058 1
1 0.00563058 1
1 0.00563058 1
0.0590524 0.0590677 1
0.0590524 0.0590677 1
0.0590524 0.0590677 1
0.398169 0.0400549 1
0.734859 0.0252384 1
1 0.00860609 1
1 0.00563058 1
1 0.00563058 1
1 0.00563058 1
0.0589761 0.0592508 1
0.0589914 0.0592203 1
0.0590219 0.0591592 1
0.29456 0.0445411 1
0.693721 0.0271611 1
0.99202 0.0106355 1
1 0.00563058 1
1 0.00563058 1
1 0.00563058 1
0 0.467308 1
0 0.465248 1
0 0.46215 1
0 0.453483 1
0.49041 0.397116 0.98616
0.82591 0.349157 0.972778
0.966491 0.314305 0.968017
0.969299 0.301213 0.970825
0.970413 0.296056 0.971939
0 0.720806 0.962127
0 0.719585 0.962432
0 0.717708 0.962676
0 0.712505 0.963912
0.245975 0.675319 0.940078
0.670344 0.638025 0.92195
0.888777 0.611765 0.911101
0.909392 0.603586 0.910918
0.909972 0.60119 0.911498
0 0.867597 0.924895
0 0.866575 0.925155
0 0.864942 0.925566
0 0.860868 0.92665
0.000717174 0.851469 0.92874
0.549264 0.799451 0.891508
0.786908 0.77763 0.87715
0.878767 0.76701 0.870222
0.87921 0.764858 0.869612
0 0.910735 0.909926
0 0.91075 0.909377
0 0.91078 0.908492
0 0.910857 0.906188
9.15541e-05 0.910933 0.901274
0.484398 0.871458 0.861524
0.735393 0.851301 0.849104
0.84097 0.841031 0.842359
0.865187 0.837644 0.840452
0 0.910918 0.903746
0 0.910933 0.903212
0 0.910964 0.902358
0 0.911025 0.900236
0 0.911101 0.895628
0.463127 0.876936 0.855116
0.717113 0.867079 0.839979
0.822843 0.862333 0.832593
0.860471 0.860471 0.829831
0.0590524 0.0590677 1
0.0590524 0.0590677 1
0.0590524 0.0590677 1
0.441032 0.0382391 1
0.75581 0.0243381 1
1 0.00747692 1
1 0.00563058 1
1 0.00563058 1
1 0.00563058 1
0.0590524 0.0590677 1
0.0590524 0.0590677 1
0.0590524 0.0590677 1
0.422644 0.0388952 1
0.746593 0.0247196 1
1 0.00793469 1
1 0.00563058 1
1 0.00563058 1
1 0.00563058 1
0.0590524 0.0590677 1
0.0590524 0.0590677 1
0.0590524 0.0590677 1
0.391302 0.0403143 1
0.731487 0.0254063 1
1 0.00886549 1
1 0.00563058 1
1 0.00563058 1
1 0.00563058 1
0.0590524 0.0590677 1
0.0590524 0.0590677 1
0.0590524 0.0590677 1
0.284398 0.0449531 1
0.69015 0.0273442 1
0.989685 0.0108034 1
1 0.00563058 1
1 0.00563058 1
1 0.00563058 1
0 0.457542 1
0 0.455421 1
0 0.452277 1
0 0.443427 1
0.488762 0.386603 0.988647
0.82591 0.337621 0.975509
0.969116 0.301625 0.970642
0.972244 0.28806 0.97377
0.973342 0.28249 0.974853
0 0.714946 0.963317
0 0.71371 0.963607
0 0.711849 0.964157
0 0.706783 0.965301
0.240635 0.669779 0.941772
0.66894 0.632029 0.923339
0.887999 0.605524 0.912718
0.910735 0.597177 0.912261
0.91107 0.594568 0.912581
0 0.862776 0.926024
0 0.861875 0.926452
0 0.860319 0.926955
0 0.855985 0.928008
0 0.846876 0.93048
0.547112 0.794339 0.894423
0.785336 0.772549 0.885527
0.879561 0.761334 0.881086
0.879774 0.759228 0.8813
0 0.910674 0.912184
0 0.910674 0.912184
0 0.910674 0.912184
0 0.910674 0.912184
0 0.910674 0.912184
0.481514 0.866331 0.879942
0.73315 0.846021 0.872267
0.838895 0.835645 0.868009
0.865446 0.832105 0.866972
0 0.910674 0.912184
0 0.910674 0.912184
0 0.910674 0.912184
0 0.910674 0.912184
0 0.910674 0.912184
0.458869 0.876478 0.878004
0.713832 0.866575 0.868101
0.819852 0.86154 0.863066
0.859968 0.859968 0.861494
