DJI夜景风格LUT（不加还原LUT使用）_2.DJI_20260420195141_0027_D.cube
TITLE "Generated by Resolve"
LUT_3D_SIZE 5
0.0215305 0.0278325 0.0513313
0.285618 0.0211948 0.0446326
0.834745 0 0.0110933
0.976257 0 0
0.976257 0 0
0 0.224552 0.0261692
0.170321 0.203189 0.0227665
0.780804 0.0966506 0
0.976257 0 0
0.976257 0 0
0.15938 0.667994 0
0.155779 0.66389 0
0.619089 0.594949 0
1 0.522164 0.000518807
1 0.510094 0.000350958
0.43714 0.976165 0.007187
0.43714 0.976165 0.007187
0.467292 0.95613 0.00418097
1 0.912261 0.00167849
1 0.908293 0.00148013
0.43714 0.976165 0.007187
0.43714 0.976165 0.007187
0.437903 0.975769 0.0071107
0.985885 0.915648 0.000991836
1 0.908293 0.00148013
0.0170138 0.0265354 0.24921
0.269963 0.0179904 0.24538
0.825422 0 0.18967
0.978607 0 0.0839551
0.978408 0 0.0691691
0 0.189319 0.197131
0.153582 0.167315 0.185809
0.780468 0.0392004 0.134066
0.977569 0 0.0325475
0.977371 0 0.0232548
0.148913 0.656489 0
0.144976 0.652506 0
0.611368 0.583429 0
1 0.509117 0.000350958
1 0.496529 0.000595102
0.43714 0.976165 0.007187
0.43714 0.976165 0.007187
0.462943 0.956939 0.00428779
1 0.912627 0.00167849
1 0.908293 0.00148013
0.43714 0.976165 0.007187
0.43714 0.976165 0.007187
0.437705 0.97586 0.00714122
0.982483 0.915755 0.000808728
1 0.908293 0.00148013
0.00495918 0.0216983 0.735042
0.196979 0.0113222 0.728191
0.801297 0 0.69543
0.977844 0 0.653834
0.977844 0 0.656519
0.00479133 0.0217899 0.729778
0.0635538 0.0188754 0.726482
0.772702 0 0.691936
0.977829 0 0.646845
0.977844 0 0.648844
0.128405 0.587518 0.55433
0.124712 0.583017 0.555367
0.568627 0.514473 0.506981
1 0.433234 0.437995
1 0.417334 0.446815
0.443488 0.967468 0.173983
0.443259 0.967544 0.172793
0.444282 0.952453 0.140841
1 0.882734 0.0360113
1 0.867338 0.0153048
0.442344 0.967697 0.159808
0.442649 0.967636 0.160189
0.442267 0.967498 0.148898
0.958694 0.907103 0.00321965
1 0.899672 0.0113832
0.0109407 0.0159457 0.965713
0.0121767 0.0158694 0.965667
0.764462 0 0.95639
0.978851 0 0.942306
0.978851 0 0.942306
0.0109407 0.0159457 0.965713
0.0109407 0.0159457 0.965713
0.734997 0 0.958343
0.978851 0 0.942306
0.978851 0 0.942306
0.109911 0.472892 0.976654
0.106264 0.467231 0.97731
0.524407 0.396597 0.959411
1 0.294881 0.914717
1 0.275074 0.919921
0.445014 0.924254 0.758968
0.442664 0.921767 0.759182
0.430793 0.907012 0.75906
0.981613 0.817853 0.686
1 0.801358 0.676127
0.473823 0.961791 0.724956
0.473869 0.961791 0.724193
0.473381 0.961776 0.717403
0.941772 0.906065 0.6336
1 0.897414 0.613565
0.0109407 0.0159457 0.965713
0.0109407 0.0159457 0.965713
0.750103 0 0.957168
0.978851 0 0.942306
0.978851 0 0.942306
0.0109407 0.0159457 0.965713
0.0109407 0.0159457 0.965713
0.720851 0 0.958953
0.978851 0 0.942306
0.978851 0 0.942306
0.0854658 0.432151 0.980392
0.0822003 0.426184 0.980819
0.50724 0.356252 0.973388
1 0.243824 0.934249
1 0.219242 0.938918
0.437644 0.906691 0.820447
0.435599 0.90425 0.821683
0.424277 0.889448 0.827771
0.974853 0.798993 0.769574
1 0.782254 0.761227
0.480766 0.96051 0.796933
0.480766 0.96051 0.796933
0.480766 0.96051 0.796933
0.936538 0.905043 0.72961
1 0.896406 0.713832
