DJI夜景青橙色调LUT（不加还原LUT使用）_2.DJI_20260420195141_0027_D.cube
TITLE "Generated by Resolve"
LUT_3D_SIZE 9
0.0233616 0.0404669 0.0841535
0.138354 0.041413 0.0857557
0.310155 0.0501564 0.0932937
0.54873 0.0440528 0.0831617
0.845472 0.0175784 0.0538186
1 0 0.0055848
1 0 0.0055848
1 0 0.0055848
1 0 0.0055848
0.00399786 0.112596 0.0796063
0.0493629 0.0992294 0.0782177
0.271336 0.0851911 0.0816358
0.533578 0.0454566 0.083772
0.835904 0.0187533 0.0553445
1 0 0.0055848
1 0 0.0055848
1 0 0.0055848
1 0 0.0055848
0 0.260258 0.0554055
0 0.255818 0.0567636
0.201373 0.233356 0.0412299
0.466255 0.203159 0.0289769
0.777813 0.132494 0.0135653
1 0 0.00447089
1 0 0.0055848
1 0 0.0055848
1 0 0.0055848
0.0200504 0.442267 0.0056611
0.0191653 0.43978 0.0065919
0.0200504 0.435767 0.00773632
0.383688 0.397574 0
0.710018 0.357641 0
1 0.291249 0
1 0.256626 0
1 0.239948 0
1 0.233112 0
0.193301 0.664347 0
0.191882 0.662867 0
0.189548 0.660502 0
0.237659 0.637476 0
0.629252 0.594934 0
0.955169 0.548684 0
1 0.522393 0
1 0.514183 0
1 0.511177 0
0.379812 0.875212 0
0.378927 0.874067 0
0.377554 0.872267 0
0.373953 0.867674 0
0.547448 0.821622 0
0.879683 0.783368 0
1 0.755322 0
1 0.749493 0
1 0.747097 0
0.440009 0.954894 0
0.440009 0.954894 0
0.440009 0.954894 0
0.440009 0.954894 0
0.478325 0.930663 0
0.81796 0.904646 0
1 0.888502 0
1 0.885237 0
1 0.885237 0
0.440009 0.954894 0
0.440009 0.954894 0
0.440009 0.954894 0
0.440009 0.954894 0
0.434333 0.944244 0
0.777203 0.907332 0
0.997803 0.891524 0
1 0.885237 0
1 0.885237 0
0.440009 0.954894 0
0.440009 0.954894 0
0.440009 0.954894 0
0.440009 0.954894 0
0.441367 0.954223 0
0.761212 0.908232 0
0.984512 0.892668 0
1 0.885237 0
1 0.885237 0
0.0209659 0.0398871 0.144137
0.126848 0.0401312 0.139803
0.304692 0.0487373 0.138872
0.545312 0.043183 0.109392
0.843671 0.0178225 0.054139
1 0 0.0055848
1 0 0.0055848
1 0 0.0055848
1 0 0.0055848
0.00953689 0.0852674 0.110765
0.0441138 0.0721904 0.106584
0.27245 0.0617533 0.107805
0.53106 0.0450599 0.0862593
0.834104 0.0189822 0.0556344
1 0 0.0055848
1 0 0.0055848
1 0 0.0055848
1 0 0.0055848
0 0.249744 0.0581521
0 0.245045 0.059556
0.196109 0.222721 0.0444495
0.465263 0.191348 0.0322118
0.779583 0.114931 0.0188907
1 0 0.00482185
1 0 0.0055848
1 0 0.0055848
1 0 0.0055848
0.0179599 0.436561 0.00772107
0.0170443 0.434226 0.00865187
0.017258 0.429969 0.0099031
0.380758 0.391852 0
0.708629 0.351827 0
1 0.284504 0
1 0.24892 0
1 0.231601 0
1 0.224567 0
0.189853 0.660792 0
0.188312 0.659297 0
0.186053 0.656931 0
0.231739 0.634455 0
0.626719 0.591409 0
0.953735 0.545068 0
1 0.518486 0
1 0.510414 0
1 0.507179 0
0.377844 0.87245 0
0.376959 0.871412 0
0.375586 0.869596 0
0.371817 0.864988 0
0.544457 0.819074 0
0.878035 0.780652 0
1 0.752438 0
1 0.746517 0
1 0.744213 0
0.440009 0.954894 0
0.440009 0.954894 0
0.440009 0.954894 0
0.440009 0.954894 0
0.476646 0.930846 0
0.816495 0.904738 0
1 0.88864 0
1 0.885237 0
1 0.885237 0
0.440009 0.954894 0
0.440009 0.954894 0
0.440009 0.954894 0
0.440009 0.954894 0
0.435035 0.945449 0
0.77583 0.907378 0
0.996765 0.891554 0
1 0.885237 0
1 0.885237 0
0.440009 0.954894 0
0.440009 0.954894 0
0.440009 0.954894 0
0.440009 0.954894 0
0.441062 0.954345 0
0.759594 0.908324 0
0.983169 0.892821 0
1 0.885237 0
1 0.885237 0
0.012665 0.0406653 0.302724
0.104036 0.0395666 0.299641
0.297078 0.0455634 0.29955
0.538857 0.0382086 0.28014
0.836744 0.0132906 0.239109
1 0 0.162081
1 0 0.120287
1 0 0.0941634
1 0 0.0831769
0.0124514 0.0439307 0.28835
0.027985 0.04094 0.285679
0.266896 0.0453956 0.285847
0.523903 0.0396582 0.266453
0.82742 0.0147707 0.222919
1 0 0.138399
1 0 0.0885939
1 0 0.0642405
1 0 0.0556649
0 0.226719 0.236042
0 0.221561 0.234699
0.182498 0.199344 0.216251
0.459388 0.165606 0.194125
0.784192 0.0760967 0.164874
1 0 0.0914015
1 0 0.0443275
1 0 0.0230716
1 0 0.0152285
0.0149081 0.424063 0.105409
0.0136263 0.421653 0.101671
0.0134737 0.417639 0.0955062
0.374029 0.380194 0.0480964
0.704952 0.340932 0
1 0.273411 0
1 0.23592 0
1 0.217655 0
1 0.210285 0
0.184482 0.655299 0
0.183078 0.653864 0
0.180697 0.651453 0
0.221729 0.629648 0
0.623026 0.585901 0
0.951232 0.539239 0
1 0.512184 0
1 0.503883 0
1 0.500832 0
0.374441 0.868269 0
0.373648 0.867247 0
0.372061 0.865492 0
0.368383 0.8607 0
0.539971 0.81503 0
0.875181 0.776455 0
1 0.74789 0
1 0.741741 0
1 0.739513 0
0.440009 0.954894 0
0.440009 0.954894 0
0.440009 0.954894 0
0.440009 0.954894 0
0.473793 0.931289 0
0.814435 0.904814 0
1 0.888869 0
1 0.885237 0
1 0.885237 0
0.440009 0.954894 0
0.440009 0.954894 0
0.440009 0.954894 0
0.440009 0.954894 0
0.43595 0.947601 0
0.773663 0.907454 0
0.994812 0.891707 0
1 0.885237 0
1 0.885237 0
0.440009 0.954894 0
0.440009 0.954894 0
0.440009 0.954894 0
0.440009 0.954894 0
0.440833 0.954467 0
0.757397 0.908415 0
0.981369 0.892927 0
1 0.885237 0
1 0.885237 0
0.000411994 0.0425574 0.50251
0.0407111 0.0409552 0.499123
0.280079 0.0420081 0.493492
0.529641 0.0336004 0.479164
0.829282 0.00923171 0.454398
1 0 0.408759
1 0 0.396078
1 0 0.389303
1 0 0.386892
0.000793469 0.0424811 0.495384
0.00108339 0.0424811 0.494118
0.246769 0.0419318 0.487633
0.514351 0.0345922 0.472755
0.819776 0.0106661 0.447974
1 0 0.401221
1 0 0.388113
1 0 0.381277
1 0 0.378759
0 0.163806 0.457435
0 0.156313 0.458076
0.157397 0.132158 0.445716
0.466407 0.0845502 0.439292
0.803998 0.0132296 0.437232
1 0 0.388739
1 0 0.375097
1 0 0.368048
1 0 0.36527
0.0114443 0.392996 0.380194
0.0104982 0.390249 0.379461
0.00914015 0.386053 0.378225
0.357626 0.347845 0.346853
0.693248 0.305501 0.314336
1 0.232502 0.255238
1 0.188388 0.245762
1 0.166293 0.245731
1 0.157061 0.245762
0.171756 0.632715 0.19704
0.170382 0.631189 0.196155
0.167788 0.628809 0.194675
0.188647 0.609735 0.181674
0.60444 0.563989 0.103471
0.936294 0.517571 0
1 0.489921 0
1 0.48159 0
1 0.478462 0
0.363851 0.853437 0
0.362936 0.85243 0
0.361486 0.850721 0
0.3579 0.846235 0
0.525032 0.802289 0
0.867918 0.765026 0
1 0.735805 0
1 0.729534 0
1 0.727291 0
0.440009 0.954894 0
0.440009 0.954894 0
0.440009 0.954894 0
0.440009 0.954894 0
0.466835 0.93254 0
0.808515 0.905211 0
1 0.889464 0
1 0.885237 0
1 0.88397 0
0.440009 0.954894 0
0.440009 0.954894 0
0.440009 0.954894 0
0.440009 0.954894 0
0.440467 0.954147 0
0.767544 0.907866 0
0.989914 0.892073 0
1 0.885237 0
1 0.885237 0
0.440009 0.954894 0
0.440009 0.954894 0
0.440009 0.954894 0
0.440009 0.954894 0
0.440726 0.954559 0
0.751308 0.908858 0
0.976379 0.893309 0
1 0.885237 0
1 0.885237 0
0.00358587 0.0445106 0.742489
0.00332647 0.0445411 0.741817
0.240879 0.038407 0.730037
0.511513 0.0284733 0.7196
0.818357 0.00543221 0.699229
1 0 0.658839
1 0 0.651865
1 0 0.648463
1 0 0.647089
0.00299077 0.0444953 0.738567
0.00309758 0.0444343 0.737896
0.198688 0.0386969 0.727184
0.495827 0.0294652 0.715679
0.808576 0.00648508 0.695918
1 0 0.654765
1 0 0.647776
1 0 0.644175
1 0 0.642771
0.00251774 0.0444038 0.731899
0.0024567 0.0444038 0.731273
0.0968643 0.0403906 0.724453
0.469551 0.03093 0.709728
0.792554 0.00842298 0.690486
1 0 0.648905
1 0 0.640955
1 0 0.637415
1 0 0.635996
0.00523384 0.326574 0.649332
0.00418097 0.323308 0.649195
0.002533 0.317891 0.648997
0.334386 0.278904 0.623621
0.686717 0.228534 0.603586
1 0.132067 0.57026
1 0.0502022 0.577981
1 0.00622568 0.59443
1 0 0.602365
0.16289 0.594583 0.529442
0.161517 0.593072 0.529503
0.159045 0.59057 0.529305
0.153674 0.582681 0.528664
0.583902 0.525231 0.477821
0.920699 0.477317 0.425544
1 0.446403 0.401007
1 0.437247 0.400839
1 0.433616 0.400748
0.354284 0.821225 0.323262
0.353246 0.820249 0.323003
0.352041 0.818509 0.322698
0.347875 0.813504 0.322347
0.494972 0.769741 0.287861
0.842527 0.730129 0.224414
1 0.699336 0.16144
1 0.693263 0.158968
1 0.690715 0.158556
0.442649 0.944076 0.10103
0.442405 0.944121 0.0985122
0.442344 0.944137 0.0945144
0.44213 0.944183 0.0840772
0.449958 0.925032 0.0380102
0.787198 0.891035 0
1 0.864866 0
1 0.854307 0
1 0.852216 0
0.441291 0.944686 0.022385
0.441276 0.944686 0.0194705
0.441337 0.944686 0.0156558
0.44126 0.944747 0.00390631
0.441535 0.944564 0
0.746395 0.899886 0
0.971664 0.884932 0
1 0.876951 0
1 0.877073 0
0.441016 0.944808 0
0.441001 0.944823 0
0.440894 0.944869 0
0.441001 0.944884 0
0.440665 0.944778 0
0.730419 0.901122 0
0.957671 0.885985 0
1 0.877821 0
1 0.877333 0
0.0325933 0.0448005 0.972076
0.0323949 0.0448463 0.97203
0.159609 0.0372778 0.967559
0.484825 0.0241855 0.956634
0.803922 0.00209049 0.934874
1 0 0.892515
1 0 0.887098
1 0 0.884398
1 0 0.883436
0.0324865 0.044831 0.971786
0.0324102 0.0448768 0.971679
0.0823072 0.0412604 0.968231
0.467994 0.0250858 0.95407
0.793759 0.00335698 0.93257
1 0 0.890105
1 0 0.883925
1 0 0.881346
1 0 0.880476
0.0319524 0.044892 0.968597
0.0318151 0.044892 0.968063
0.0326085 0.0447547 0.967163
0.4392 0.0264591 0.949737
0.777539 0.00527962 0.929061
1 0 0.885756
1 0 0.879149
1 0 0.876432
1 0 0.875425
0.00888075 0.195941 0.912886
0.00903334 0.190127 0.913405
0.00895705 0.180407 0.914153
0.311543 0.130495 0.898344
0.723659 0.027863 0.910597
1 0 0.874357
1 0 0.865705
1 0 0.86331
1 0 0.862272
0.153948 0.539803 0.799817
0.152651 0.537957 0.799985
0.150317 0.535027 0.800244
0.144579 0.527245 0.800839
0.561044 0.4692 0.755947
0.905806 0.418509 0.71313
1 0.382498 0.692012
1 0.371832 0.693004
1 0.36759 0.693324
0.348699 0.782376 0.640833
0.347982 0.781125 0.640833
0.34641 0.779385 0.641093
0.342382 0.774258 0.641108
0.466133 0.731716 0.615549
0.823926 0.690455 0.575586
1 0.657694 0.542275
1 0.650843 0.541726
1 0.648325 0.54168
0.454353 0.933394 0.516945
0.453544 0.932342 0.516991
0.452201 0.930648 0.517266
0.448981 0.926116 0.517311
0.432578 0.904021 0.508431
0.768475 0.856672 0.464775
0.989899 0.82977 0.433173
1 0.8177 0.419989
1 0.815488 0.42005
0.458 0.941054 0.491539
0.457816 0.94107 0.490852
0.457786 0.94107 0.489937
0.45742 0.941131 0.486839
0.457389 0.940963 0.480385
0.734035 0.898283 0.424079
0.959213 0.883696 0.385199
1 0.875776 0.363272
1 0.875242 0.360616
0.457252 0.941161 0.483558
0.457099 0.941161 0.482856
0.457374 0.941131 0.481697
0.457099 0.941146 0.478874
0.456657 0.94107 0.472129
0.717433 0.899351 0.417517
0.945174 0.884855 0.378424
1 0.876905 0.356252
1 0.875242 0.350851
0.0311894 0.0433204 0.977234
0.0311894 0.0433204 0.977234
0.0330663 0.0432288 0.977188
0.454185 0.0226749 0.982055
0.785641 0.00122072 0.978302
1 0 0.956863
1 0 0.956924
1 0 0.956924
1 0 0.956939
0.0311894 0.0433204 0.977234
0.0311894 0.0433204 0.977234
0.031632 0.0432898 0.977203
0.436042 0.0235294 0.981872
0.775601 0.00215152 0.97879
1 0 0.956832
1 0 0.956939
1 0 0.956939
1 0 0.956954
0.0311894 0.0433204 0.977234
0.0311894 0.0433204 0.977234
0.0311894 0.0433204 0.977234
0.404974 0.0248112 0.981476
0.759121 0.00381476 0.979461
1 0 0.956786
1 0 0.956924
1 0 0.956893
1 0 0.956924
0.0314031 0.0438087 0.977203
0.0312352 0.0437934 0.977249
0.0313726 0.0437476 0.977218
0.304234 0.0296635 0.979782
0.713924 0.00790417 0.981003
1 0 0.956985
1 0 0.956909
1 0 0.956924
1 0 0.956909
0.146731 0.491081 0.965972
0.145418 0.489067 0.966323
0.142611 0.485939 0.966827
0.136599 0.477211 0.96817
0.544289 0.418997 0.936843
0.897139 0.364858 0.896422
1 0.32311 0.874601
1 0.310567 0.876127
1 0.305455 0.87689
0.347356 0.750317 0.826719
0.346349 0.749111 0.826658
0.344671 0.747143 0.826703
0.34023 0.741756 0.827131
0.444129 0.700648 0.804227
0.810452 0.657664 0.767086
1 0.624216 0.738186
1 0.615625 0.735866
1 0.613199 0.73579
0.452232 0.90547 0.719615
0.451575 0.904433 0.719707
0.450645 0.902815 0.719844
0.447074 0.898222 0.719997
0.440299 0.888426 0.720027
0.754528 0.828595 0.674388
0.978058 0.801251 0.649104
1 0.787991 0.637354
1 0.785702 0.637308
0.472816 0.939193 0.685771
0.472572 0.939239 0.68513
0.47248 0.939223 0.684306
0.47274 0.939193 0.681926
0.472068 0.939193 0.676844
0.726177 0.897765 0.629709
0.950881 0.880781 0.60235
1 0.867552 0.589456
1 0.863828 0.586694
0.472175 0.939284 0.679286
0.472007 0.9393 0.678737
0.472129 0.939269 0.677852
0.471839 0.9393 0.675761
0.471427 0.939284 0.670634
0.709697 0.898711 0.624842
0.937072 0.884642 0.595682
1 0.876951 0.580285
1 0.874403 0.574884
0.0311894 0.0433204 0.977234
0.0311894 0.0433204 0.977234
0.031632 0.0432898 0.977203
0.438972 0.0233921 0.981903
0.777249 0.00218204 0.978698
1 0 0.956863
1 0 0.956924
1 0 0.956924
1 0 0.956924
0.0311894 0.0433204 0.977234
0.0311894 0.0433204 0.977234
0.0313573 0.0433356 0.977172
0.420172 0.0241398 0.981704
0.766934 0.00314336 0.97908
1 0 0.956832
1 0 0.956924
1 0 0.956924
1 0 0.956924
0.0311894 0.0433204 0.977234
0.0311894 0.0433204 0.977234
0.0311894 0.0433204 0.977234
0.387625 0.0257115 0.981201
0.750347 0.00459297 0.979797
1 0 0.956786
1 0 0.956924
1 0 0.956924
1 0 0.956924
0.0313726 0.0434424 0.977218
0.0312505 0.0434272 0.977234
0.031342 0.0433814 0.977188
0.279271 0.0302434 0.979278
0.704646 0.00856031 0.981277
1 0 0.957794
1 0 0.956924
1 0 0.956924
1 0 0.956924
0.127993 0.465888 0.971298
0.12668 0.46363 0.971695
0.124041 0.460395 0.972091
0.117357 0.451164 0.973358
0.533043 0.392493 0.955062
0.891508 0.336278 0.921767
1 0.290501 0.904143
1 0.276387 0.908339
1 0.270756 0.909941
0.341543 0.734401 0.871672
0.340658 0.733089 0.872297
0.338888 0.731136 0.872984
0.334874 0.725597 0.875639
0.43032 0.685084 0.857984
0.803021 0.641032 0.827054
1 0.607141 0.803403
1 0.597589 0.802915
1 0.595117 0.803937
0.451102 0.891447 0.796811
0.450278 0.890364 0.797345
0.449104 0.888609 0.798123
0.446296 0.884215 0.800259
0.439689 0.874067 0.804776
0.747906 0.81442 0.765454
0.972473 0.786801 0.741192
1 0.772976 0.729366
1 0.770596 0.729183
0.481041 0.938018 0.770718
0.480537 0.938094 0.770123
0.480613 0.938094 0.769238
0.480598 0.938094 0.766827
0.480064 0.938109 0.761715
0.722087 0.892393 0.719722
0.945861 0.867109 0.698116
1 0.853819 0.685969
1 0.8495 0.682902
0.480415 0.938109 0.764294
0.480003 0.93817 0.76376
0.480018 0.93817 0.762905
0.479744 0.938216 0.760647
0.47921 0.938231 0.755947
0.706508 0.898405 0.712489
0.933394 0.884413 0.685802
1 0.877226 0.671839
1 0.874372 0.666468
0.0311894 0.0433204 0.977234
0.0311894 0.0433204 0.977234
0.0311894 0.0433204 0.977234
0.432792 0.0237583 0.981842
0.773709 0.00257877 0.978836
1 0 0.956847
1 0 0.956924
1 0 0.956924
1 0 0.956924
0.0311894 0.0433204 0.977234
0.0311894 0.0433204 0.977234
0.0311894 0.0433204 0.977234
0.413291 0.0245975 0.981567
0.76347 0.0033875 0.979248
1 0 0.956817
1 0 0.956924
1 0 0.956924
1 0 0.956924
0.0311894 0.0433204 0.977234
0.0311894 0.0433204 0.977234
0.0311894 0.0433204 0.977234
0.380377 0.0260471 0.981064
0.746548 0.0049897 0.97995
1 0 0.956756
1 0 0.956924
1 0 0.956924
1 0 0.956924
0.0311894 0.0433204 0.977234
0.0311894 0.0433204 0.977234
0.0311894 0.0433204 0.977234
0.268711 0.0305791 0.979095
0.700725 0.00885023 0.981384
1 0 0.958007
1 0 0.956924
1 0 0.956924
1 0 0.956924
0.1205 0.455482 0.972793
0.118715 0.453239 0.973114
0.11632 0.449897 0.973526
0.109422 0.440513 0.974701
0.528618 0.381598 0.958984
0.889281 0.324315 0.926238
1 0.276829 0.908141
1 0.262043 0.912566
1 0.256214 0.914183
0.336675 0.728191 0.874388
0.335729 0.726879 0.874968
0.334478 0.72488 0.876051
0.330434 0.719493 0.878508
0.423178 0.67924 0.86128
0.799374 0.63476 0.829908
1 0.600534 0.806317
1 0.59086 0.805386
1 0.588037 0.806256
0.447745 0.886244 0.799146
0.447105 0.885267 0.799832
0.446036 0.883604 0.800702
0.443046 0.878904 0.802884
0.436301 0.869139 0.80766
0.743908 0.808957 0.769772
0.969696 0.78143 0.751125
1 0.766995 0.741817
1 0.764706 0.742489
0.481086 0.938018 0.773037
0.481086 0.938018 0.773037
0.481086 0.938018 0.773037
0.481086 0.938018 0.773037
0.481086 0.938018 0.773037
0.718654 0.887129 0.740246
0.943084 0.861753 0.723903
1 0.848325 0.714611
1 0.8439 0.712413
0.481086 0.938018 0.773037
0.481086 0.938018 0.773037
0.481086 0.938018 0.773037
0.481086 0.938018 0.773037
0.481086 0.938018 0.773037
0.704555 0.898329 0.736568
0.931823 0.884337 0.715892
1 0.876875 0.704814
1 0.874342 0.700633
