DJI夜景通透风格LUT_6.DJI_20260420220703_0028_D.cube
TITLE "Generated by Resolve"
LUT_3D_SIZE 33
0 0 0
0.010132 0 0
0.0284581 0 0
0.0505379 0 0
0.0765087 0 0
0.104295 0 0
0.133822 0 0
0.165347 0 0
0.19855 0 0
0.233265 0 0
0.269108 0 0
0.305684 0 0
0.342473 0 0
0.37937 0 0
0.416342 0 0
0.45333 0 0
0.490333 0 0
0.527306 0 0
0.564508 0 0
0.60206 0 0
0.639948 0 0
0.678157 0 0
0.71667 0 0
0.755474 0 0
0.794553 0 0
0.833906 0 0
0.873533 0 0
0.913405 0 0
0.953521 0 0
0.993881 0 0
1 0 0
1 0 0
1 0 0
0 0.0128328 0
0.00337224 0.0140688 0
0.0235752 0.0148623 0
0.0469215 0.0151522 0
0.0756237 0.0150912 0
0.105974 0.0147707 0
0.137819 0.0141146 0
0.171145 0.0130007 0
0.205814 0.0113375 0
0.241413 0.00921645 0
0.277684 0.00671397 0
0.314214 0.00407416 0
0.350881 0.00141909 0
0.387671 0 0
0.424491 0 0
0.461402 0 0
0.498314 0 0
0.535363 0 0
0.572778 0 0
0.610529 0 0
0.6486 0 0
0.686976 0 0
0.725658 0 0
0.76463 0 0
0.803876 0 0
0.843381 0 0
0.883146 0 0
0.923171 0 0
0.963424 0 0
1 0 0
1 0 0
1 0 0
1 0 0
0 0.0379797 0
0 0.0395972 0
0.0197757 0.0410468 0
0.0447547 0.0415961 0
0.0755627 0.0416419 0
0.107729 0.0412757 0
0.1411 0.0404517 0
0.175494 0.0391852 0
0.210758 0.0374914 0
0.246555 0.0355077 0
0.282643 0.0333867 0
0.319005 0.0311437 0
0.35552 0.0289158 0
0.392172 0.0267491 0
0.428916 0.0247501 0
0.465736 0.0229496 0
0.502602 0.0214694 0
0.539834 0.0199435 0
0.577417 0.0183871 0
0.615335 0.0168002 0
0.653574 0.0151827 0
0.692119 0.01355 0
0.730953 0.0118868 0
0.770062 0.0102083 0
0.809445 0.00849927 0
0.849088 0.00677501 0
0.888991 0.00502022 0
0.929137 0.00325017 0
0.969528 0.00148013 0
1 0 0
1 0 0
1 0 0
1 0 0
0 0.0650187 0
0 0.0665751 0
0.0188602 0.0682231 0
0.0453346 0.0687724 0
0.0775616 0.0687877 0
0.110719 0.0683452 0
0.144732 0.0675059 0
0.179446 0.066331 0
0.214649 0.0649119 0
0.250233 0.0633097 0
0.286107 0.0616159 0
0.322271 0.0598306 0
0.358633 0.0580606 0
0.395132 0.0563516 0
0.431769 0.0547951 0
0.468421 0.0535134 0
0.505455 0.0521859 0
0.542855 0.0508278 0
0.580591 0.049424 0
0.618662 0.0479896 0
0.657038 0.0465248 0
0.69572 0.0450141 0
0.734691 0.0434882 0
0.773938 0.0419471 0
0.813443 0.0403601 0
0.853223 0.0387579 0
0.893248 0.0371405 0
0.933516 0.0354925 0
0.974014 0.0338293 0
1 0.0321355 0
1 0.0304265 0
1 0.0272831 0
1 0.0238041 0
0 0.0927138 0
0 0.0944686 0
0.0207523 0.0959793 0
0.0486152 0.0965286 0
0.0813916 0.0965744 0
0.114656 0.0962387 0
0.148531 0.0955978 0
0.182971 0.094728 0
0.217884 0.0936599 0
0.253162 0.0924697 0
0.288792 0.0911879 0
0.324697 0.0898604 0
0.3608 0.0885786 0
0.397131 0.0873274 0
0.433539 0.0862593 0
0.470344 0.0851301 0
0.50753 0.0839399 0
0.545068 0.0827192 0
0.58294 0.0814679 0
0.621149 0.0801556 0
0.659663 0.0788281 0
0.698466 0.0774548 0
0.73756 0.076051 0
0.776928 0.0746166 0
0.816556 0.073167 0
0.856443 0.0716716 0
0.896574 0.070161 0
0.93695 0.0686198 0
0.977569 0.0670634 0
1 0.0654765 0
1 0.0633249 0
1 0.0605936 0
1 0.0570535 0
0 0.121416 0
0 0.123552 0
0.0245823 0.124956 0
0.0534981 0.125612 0
0.0855421 0.125811 0
0.118318 0.125673 0
0.151812 0.125292 0
0.185855 0.124697 0
0.220401 0.123964 0
0.255344 0.12314 0
0.2907 0.12221 0
0.326452 0.121218 0
0.362127 0.120409 0
0.39826 0.119539 0
0.434821 0.118593 0
0.471763 0.117601 0
0.509087 0.116564 0
0.546746 0.115465 0
0.584756 0.114336 0
0.623072 0.113161 0
0.661707 0.11194 0
0.700633 0.110689 0
0.739834 0.109392 0
0.779309 0.10808 0
0.819059 0.106722 0
0.859052 0.105348 0
0.89929 0.103929 0
0.939773 0.102495 0
0.980468 0.101045 0
1 0.0995499 0
1 0.0970016 0
1 0.0943465 0
1 0.090959 0
0 0.151431 0
0.002121 0.153872 0
0.0283055 0.155306 0
0.057496 0.156069 0
0.0888685 0.156451 0
0.121172 0.156512 0
0.154208 0.156359 0
0.187869 0.156054 0
0.222019 0.155612 0
0.256794 0.155032 0
0.29163 0.154528 0
0.32697 0.153933 0
0.362799 0.153262 0
0.399069 0.152514 0
0.435752 0.151705 0
0.472816 0.150835 0
0.510262 0.14992 0
0.548043 0.148943 0
0.58616 0.147921 0
0.624598 0.146853 0
0.66334 0.145754 0
0.702373 0.14461 0
0.74168 0.14342 0
0.781262 0.142214 0
0.821103 0.140963 0
0.861189 0.139681 0
0.901534 0.138369 0
0.942107 0.137026 0
0.98291 0.135653 0
1 0.133684 0
1 0.131365 0
1 0.128542 0
1 0.125185 0
0 0.182712 0
0.00424201 0.185382 0
0.0309148 0.186877 0
0.06009 0.187793 0
0.0909285 0.188327 0
0.122759 0.188602 0
0.15552 0.188647 0
0.188632 0.188632 0
0.222416 0.188464 0
0.256825 0.188205 0
0.291798 0.187823 0
0.327276 0.18735 0
0.363226 0.186816 0
0.399603 0.186191 0
0.436408 0.185489 0
0.473594 0.184741 0
0.511147 0.183932 0
0.549035 0.183062 0
0.587259 0.182147 0
0.625803 0.181186 0
0.664637 0.180194 0
0.703777 0.179141 0
0.743191 0.178058 0
0.782864 0.176944 0
0.822797 0.175784 0
0.862989 0.174594 0
0.90341 0.173373 0
0.944076 0.172122 0
0.985336 0.170413 0
1 0.168414 0
1 0.165957 0
1 0.162997 0
1 0.159686 0
0 0.215091 0
0.0049897 0.217929 0
0.0316777 0.219547 0
0.0606088 0.22063 0
0.0910201 0.221347 0
0.12256 0.22182 0
0.155016 0.222095 0
0.188251 0.222202 0
0.222171 0.222171 0
0.256703 0.222019 0
0.291798 0.221775 0
0.327382 0.221424 0
0.363455 0.220981 0
0.399939 0.220478 0
0.436851 0.219898 0
0.474144 0.219242 0
0.511788 0.21854 0
0.549798 0.217777 0
0.588113 0.216953 0
0.626749 0.216098 0
0.66569 0.215183 0
0.704921 0.214237 0
0.744411 0.213245 0
0.784192 0.212207 0
0.824216 0.211139 0
0.864485 0.21004 0
0.904997 0.208911 0
0.946075 0.207416 0
0.987655 0.205585 0
1 0.203494 0
1 0.200946 0
1 0.198016 0
1 0.194598 0
0 0.248371 0
0.00375372 0.251362 0
0.0305638 0.253132 0
0.0596323 0.254337 0
0.0901808 0.255192 0
0.121843 0.255787 0
0.154421 0.256184 0
0.187778 0.256397 0
0.221805 0.256489 0
0.256458 0.256458 0
0.291646 0.256306 0
0.327352 0.256062 0
0.363516 0.255726 0
0.400107 0.255329 0
0.437125 0.254841 0
0.47451 0.254292 0
0.512261 0.253681 0
0.550347 0.25301 0
0.588769 0.252293 0
0.627497 0.251514 0
0.666529 0.250706 0
0.705837 0.249836 0
0.745418 0.248936 0
0.785275 0.24799 0
0.825391 0.246998 0
0.865736 0.245975 0
0.906706 0.244602 0
0.948089 0.243 0
0.989944 0.241108 0
1 0.238788 0
1 0.236225 0
1 0.233173 0
1 0.229816 0
0 0.282307 0
0.00247196 0.285435 0
0.0294194 0.287312 0
0.0586099 0.28864 0
0.0892653 0.289616 0
0.121035 0.290318 0
0.153735 0.290837 0
0.187198 0.291173 0
0.221332 0.291356 0
0.256077 0.291432 0
0.291386 0.291386 0
0.327184 0.291234 0
0.363439 0.291005 0
0.400137 0.2907 0
0.437247 0.290303 0
0.474723 0.289845 0
0.512566 0.289326 0
0.550744 0.288746 0
0.589242 0.288121 0
0.628061 0.287434 0
0.66717 0.286702 0
0.706569 0.285908 0
0.746242 0.285084 0
0.786175 0.28423 0
0.826368 0.283314 0
0.867262 0.282017 0
0.908553 0.280537 0
0.950301 0.278782 0
0.992493 0.276768 0
1 0.274479 0
1 0.271778 0
1 0.268711 0
1 0.265171 0
0 0.316838 0
0.00117494 0.320073 0
0.0282292 0.322072 0
0.0575265 0.323507 0
0.0882887 0.32459 0
0.12018 0.325399 0
0.152972 0.326009 0
0.186526 0.326452 0
0.220768 0.326741 0
0.255619 0.326909 0
0.291005 0.326955 0
0.326909 0.326909 0
0.363256 0.326772 0
0.400046 0.326543 0
0.437232 0.326238 0
0.4748 0.325872 0
0.512734 0.325444 0
0.550988 0.324941 0
0.589578 0.324392 0
0.628473 0.323781 0
0.667674 0.323125 0
0.707149 0.322423 0
0.746899 0.321675 0
0.787228 0.320684 0
0.827909 0.319554 0
0.869108 0.318181 0
0.910674 0.31664 0
0.952804 0.314748 0
0.995315 0.312627 0
1 0.31017 0
1 0.307347 0
1 0.30428 0
1 0.300725 0
0 0.351904 0
0 0.355245 0
0.0270085 0.357351 0
0.0564126 0.358877 0
0.0872816 0.360067 0
0.119249 0.360983 0
0.152148 0.361685 0
0.185794 0.362219 0
0.220142 0.3626 0
0.25507 0.36286 0
0.290562 0.362997 0
0.326543 0.363027 0
0.362982 0.362982 0
0.399847 0.362844 0
0.437125 0.362631 0
0.474769 0.362341 0
0.512779 0.36199 0
0.551125 0.361563 0
0.589792 0.361089 0
0.628763 0.360571 0
0.668025 0.359991 0
0.707576 0.359365 0
0.748043 0.358328 0
0.788693 0.357244 0
0.82974 0.356008 0
0.87126 0.354528 0
0.913222 0.352834 0
0.955596 0.350896 0
0.99852 0.348638 0
1 0.346059 0
1 0.343252 0
1 0.340063 0
1 0.336416 0
0 0.387457 0
0 0.390906 0
0.025742 0.393103 0
0.0552529 0.394736 0
0.0862135 0.396002 0
0.118288 0.397009 0
0.151263 0.397818 0
0.185016 0.398428 0
0.219425 0.398901 0
0.254459 0.399252 0
0.290028 0.399466 0
0.326085 0.399588 0
0.362615 0.399619 0
0.399558 0.399558 0
0.436912 0.39942 0
0.474632 0.399207 0
0.512718 0.398932 0
0.551141 0.398596 0
0.589883 0.398199 0
0.628931 0.397742 0
0.66891 0.396933 0
0.709056 0.396078 0
0.749584 0.395102 0
0.790555 0.393942 0
0.832074 0.392538 0
0.873945 0.390967 0
0.916289 0.389136 0
0.958999 0.387091 0
1 0.384756 0
1 0.382132 0
1 0.379202 0
1 0.375891 0
1 0.372229 0
0 0.423484 0
0 0.427008 0
0.0244755 0.429313 0
0.0540627 0.431037 0
0.0851148 0.432395 0
0.117266 0.433494 0
0.150332 0.434363 0
0.184161 0.43508 0
0.218662 0.43563 0
0.253773 0.436057 0
0.289418 0.436362 0
0.325567 0.436561 0
0.362158 0.436652 0
0.399191 0.436683 0
0.436622 0.436622 0
0.474418 0.436484 0
0.512566 0.436271 0
0.551583 0.435813 0
0.590753 0.435325 0
0.63035 0.434699 0
0.67042 0.433921 0
0.710964 0.432975 0
0.751873 0.431891 0
0.793286 0.430594 0
0.835035 0.429129 0
0.877302 0.42742 0
0.919921 0.425513 0
0.962997 0.423362 0
1 0.42089 0
1 0.418235 0
1 0.415213 0
1 0.411795 0
1 0.408133 0
0 0.459937 0
0 0.463554 0
0.0231632 0.46595 0
0.052842 0.46775 0
0.0839704 0.4692 0
0.116213 0.470375 0
0.149355 0.471336 0
0.183261 0.472114 0
0.217853 0.472755 0
0.253025 0.473243 0
0.288762 0.473625 0
0.324971 0.473899 0
0.361654 0.474083 0
0.398749 0.474174 0
0.43679 0.474022 0
0.47509 0.473808 0
0.51371 0.473503 0
0.552911 0.473045 0
0.592493 0.472465 0
0.632425 0.471778 0
0.672923 0.470878 0
0.713695 0.469886 0
0.754971 0.468696 0
0.796628 0.467338 0
0.838865 0.465721 0
0.881361 0.463951 0
0.924346 0.461936 0
0.967834 0.459617 0
1 0.45716 0
1 0.454337 0
1 0.451209 0
1 0.447868 0
1 0.444053 0
0 0.496803 0
0 0.500511 0
0.0218357 0.502968 0
0.0515908 0.50486 0
0.0828107 0.506386 0
0.115129 0.507637 0
0.148348 0.508675 0
0.18233 0.509529 0
0.216983 0.510246 0
0.252872 0.510704 0
0.288869 0.511101 0
0.325475 0.51136 0
0.3626 0.511482 0
0.400198 0.511498 0
0.438239 0.511391 0
0.476936 0.511116 0
0.515892 0.510765 0
0.555306 0.510277 0
0.595178 0.509636 0
0.635569 0.508827 0
0.676387 0.507851 0
0.71751 0.506752 0
0.75903 0.505501 0
0.801099 0.504005 0
0.843519 0.502342 0
0.886366 0.50045 0
0.92958 0.498375 0
0.973266 0.49604 0
1 0.4934 0
1 0.490532 0
1 0.487358 0
1 0.483818 0
1 0.480018 0
0 0.534096 0
0 0.537865 0
0.0224918 0.540352 0
0.0524605 0.542275 0
0.08365 0.543816 0
0.116411 0.545068 0
0.149737 0.54612 0
0.184054 0.54696 0
0.219028 0.547646 0
0.254582 0.54818 0
0.290913 0.548547 0
0.327764 0.548791 0
0.364996 0.548913 0
0.402914 0.548882 0
0.441291 0.548714 0
0.480186 0.548409 0
0.519387 0.547997 0
0.559106 0.547433 0
0.599313 0.5467 0
0.639841 0.545861 0
0.680827 0.544854 0
0.722316 0.543648 0
0.764172 0.542275 0
0.80647 0.540719 0
0.849241 0.538933 0
0.892287 0.536995 0
0.935866 0.534783 0
0.979858 0.532341 0
1 0.529671 0
1 0.526696 0
1 0.5234 0
1 0.519905 0
1 0.51606 0
0 0.572015 0
0 0.575662 0
0.0280156 0.578073 0
0.0578775 0.579904 0
0.0887465 0.581384 0
0.120943 0.582605 0
0.154025 0.583642 0
0.188251 0.584466 0
0.22327 0.585122 0
0.258778 0.585641 0
0.295186 0.585977 0
0.332113 0.586191 0
0.369482 0.586282 0
0.407507 0.586206 0
0.445914 0.586023 0
0.484932 0.585687 0
0.524407 0.585199 0
0.564309 0.584573 0
0.604746 0.58378 0
0.645502 0.582849 0
0.686748 0.58175 0
0.72845 0.580468 0
0.770642 0.578988 0
0.813031 0.577401 0
0.856001 0.57554 0
0.899458 0.573449 0
0.943191 0.571206 0
0.987472 0.568658 0
1 0.565927 0
1 0.562905 0
1 0.559564 0
1 0.555932 0
1 0.55201 0
0 0.610864 0
0.0087129 0.613886 0
0.0393988 0.616129 0
0.0681163 0.617731 0
0.0976425 0.619089 0
0.129198 0.620233 0
0.161776 0.621195 0
0.195468 0.621988 0
0.230091 0.622614 0
0.265675 0.623072 0
0.301808 0.623392 0
0.338567 0.623575 0
0.376104 0.62359 0
0.414038 0.623499 0
0.452598 0.62324 0
0.491691 0.622843 0
0.531212 0.622309 0
0.571221 0.621637 0
0.611765 0.620783 0
0.65275 0.61976 0
0.694148 0.618601 0
0.735958 0.617258 0
0.778317 0.615702 0
0.821057 0.613977 0
0.864088 0.6121 0
0.907774 0.609918 0
0.951736 0.607569 0
0.996201 0.604959 0
1 0.602152 0
1 0.599023 0
1 0.595636 0
1 0.591959 0
1 0.588006 0
0 0.649912 0
0.0254673 0.652461 0
0.0558785 0.654383 0
0.0827497 0.655726 0
0.111162 0.656901 0
0.141527 0.657908 0
0.173251 0.658793 0
0.20618 0.65951 0
0.240253 0.660075 0
0.275212 0.660502 0
0.311162 0.660761 0
0.347723 0.660899 0
0.384878 0.660899 0
0.422827 0.660731 0
0.461265 0.660426 0
0.500343 0.659968 0
0.539925 0.659373 0
0.579995 0.65861 0
0.620554 0.65771 0
0.661585 0.656641 0
0.703105 0.65539 0
0.745098 0.653956 0
0.787503 0.652354 0
0.830411 0.650538 0
0.87364 0.648569 0
0.917433 0.646326 0
0.961578 0.6439 0
1 0.641245 0
1 0.638285 0
1 0.635142 0
1 0.631678 0
1 0.627924 0
1 0.623865 0
0.0180514 0.689143 0
0.0493324 0.691249 0
0.0770581 0.692699 0
0.102113 0.693797 0
0.128725 0.694774 0
0.157504 0.695659 0
0.188128 0.696422 0
0.220188 0.697047 0
0.253559 0.697536 0
0.287938 0.697887 0
0.323308 0.698085 0
0.359365 0.698177 0
0.396246 0.698116 0
0.433936 0.697902 0
0.472221 0.697536 0
0.511101 0.697032 0
0.550668 0.696345 0
0.590677 0.695537 0
0.631174 0.694575 0
0.672282 0.693416 0
0.713756 0.692119 0
0.755795 0.690623 0
0.79826 0.688945 0
0.841154 0.687099 0
0.884535 0.685023 0
0.92845 0.682719 0
0.972717 0.680217 0
1 0.677455 0
1 0.674464 0
1 0.671199 0
1 0.667704 0
1 0.663905 0
1 0.659815 0
0.0494545 0.728466 0
0.077348 0.729931 0
0.102296 0.731029 0
0.125231 0.731884 0
0.150225 0.732677 0
0.177462 0.73341 0
0.206836 0.734035 0
0.237766 0.734554 0
0.270237 0.734951 0
0.30367 0.735241 0
0.338247 0.735393 0
0.3738 0.735409 0
0.410437 0.735241 0
0.447608 0.734981 0
0.485496 0.734585 0
0.524178 0.734005 0
0.563455 0.733288 0
0.603449 0.732372 0
0.643717 0.73138 0
0.684749 0.730144 0
0.726284 0.728756 0
0.768215 0.727214 0
0.810788 0.725444 0
0.853758 0.723507 0
0.897246 0.72134 0
0.941176 0.718975 0
0.98555 0.716396 0
1 0.713558 0
1 0.710521 0
1 0.707179 0
1 0.703624 0
1 0.699794 0
1 0.695674 0
0.0840009 0.767422 0
0.108507 0.76846 0
0.131167 0.769268 0
0.152056 0.76994 0
0.175387 0.77055 0
0.201068 0.771145 0
0.228901 0.771649 0
0.258656 0.772045 0
0.289738 0.772381 0
0.322362 0.772564 0
0.356222 0.772625 0
0.391196 0.772549 0
0.42707 0.772351 0
0.46392 0.771984 0
0.501274 0.771542 0
0.539712 0.770871 0
0.578637 0.770108 0
0.618219 0.769162 0
0.658442 0.768063 0
0.699382 0.766766 0
0.740826 0.765286 0
0.782696 0.763668 0
0.825147 0.761852 0
0.868086 0.759838 0
0.911406 0.757671 0
0.955489 0.755184 0
0.99971 0.75259 0
1 0.749676 0
1 0.746548 0
1 0.743145 0
1 0.73959 0
1 0.735653 0
1 0.731456 0
0.120623 0.806088 0
0.142596 0.806806 0
0.163027 0.807401 0
0.182406 0.807889 0
0.2038 0.808377 0
0.227985 0.80882 0
0.254398 0.809186 0
0.282658 0.809506 0
0.312871 0.809689 0
0.344427 0.809796 0
0.377111 0.809812 0
0.411322 0.809644 0
0.446586 0.809354 0
0.482765 0.808942 0
0.519738 0.808392 0
0.55758 0.807691 0
0.596139 0.806836 0
0.635386 0.805844 0
0.675319 0.804685 0
0.71603 0.803296 0
0.757153 0.801801 0
0.798917 0.800107 0
0.841276 0.798215 0
0.884138 0.796124 0
0.927565 0.79382 0
0.971359 0.791363 0
1 0.788602 0
1 0.785702 0
1 0.782483 0
1 0.779034 0
1 0.775433 0
1 0.771664 0
1 0.767636 0
0.159091 0.84448 0
0.17882 0.844984 0
0.197498 0.845396 0
0.215198 0.845762 0
0.235279 0.846098 0
0.258015 0.846403 0
0.282948 0.846677 0
0.309972 0.84686 0
0.338857 0.846967 0
0.369177 0.846983 0
0.401038 0.846891 0
0.434394 0.846647 0
0.468696 0.846311 0
0.504173 0.845808 0
0.54052 0.845197 0
0.577813 0.844434 0
0.616037 0.843488 0
0.654902 0.84242 0
0.694423 0.841199 0
0.734737 0.83978 0
0.775692 0.838193 0
0.817151 0.836454 0
0.859403 0.834455 0
0.902251 0.832273 0
0.945357 0.829969 0
0.989197 0.827375 0
1 0.824628 0
1 0.821698 0
1 0.818586 0
1 0.815229 0
1 0.811765 0
1 0.808087 0
1 0.80415 0
0.19942 0.882612 0
0.217594 0.882933 0
0.234409 0.883238 0
0.250858 0.883482 0
0.269429 0.883726 0
0.290867 0.883894 0
0.314382 0.884062 0
0.340093 0.884153 0
0.367819 0.884138 0
0.397086 0.884062 0
0.427802 0.883894 0
0.460166 0.883574 0
0.493736 0.883131 0
0.52842 0.882567 0
0.563943 0.88191 0
0.600717 0.881056 0
0.638163 0.880079 0
0.676692 0.878904 0
0.715892 0.877592 0
0.755764 0.876127 0
0.796414 0.874464 0
0.837583 0.872663 0
0.879545 0.870619 0
0.921874 0.868467 0
0.964904 0.866056 0
1 0.863615 0
1 0.860899 0
1 0.85803 0
1 0.855009 0
1 0.851789 0
1 0.848402 0
1 0.844907 0
1 0.841138 0
0.24155 0.920516 0
0.257908 0.920729 0
0.273671 0.920897 0
0.288823 0.921065 0
0.306523 0.921157 0
0.32639 0.921279 0
0.348837 0.921309 0
0.372992 0.92134 0
0.399542 0.921218 0
