DJI夜景还原LUT_1.DJI_20260420195141_0027_D.cube
TITLE "Generated by Resolve"
LUT_3D_SIZE 5
0.059617 0.059617 0.0908522
0.355398 0.0567178 0.087953
0.842725 0.0431067 0.074342
1 0.0287327 0.059968
1 0.0287327 0.059968
0.0230564 0.278737 0.0542763
0.228748 0.250477 0.0400397
0.776669 0.151186 0.031342
1 0.0287327 0.059968
1 0.0287327 0.059968
0 0.661341 0
0 0.657694 0
0.556954 0.597757 0
0.950439 0.539635 0
0.952636 0.528908 0
0 0.933974 0
0 0.933974 0
0.151568 0.912169 0
0.837354 0.879637 0
0.877333 0.877333 0
0 0.933974 0
0 0.933974 0
0 0.933974 0
0.788067 0.882643 0
0.877333 0.877333 0
0.0588388 0.0588388 0.324224
0.341024 0.0536965 0.31342
0.833799 0.0379187 0.265583
1 0.0246891 0.18201
1 0.0253758 0.152972
0.0235752 0.244053 0.252491
0.214862 0.214862 0.232837
0.785763 0.0941634 0.196017
1 0.0266117 0.111543
1 0.0280919 0.0731365
0 0.652811 0
0 0.649104 0
0.55462 0.589014 0
0.952468 0.529992 0
0.954543 0.519127 0
0 0.933974 0
0 0.933974 0
0.140658 0.912718 0
0.834333 0.879881 0
0.877333 0.877333 0
0 0.933974 0
0 0.933974 0
0 0.933974 0
0.784924 0.882841 0
0.877333 0.877333 0
0.0615854 0.0615854 0.768658
0.271611 0.0520027 0.757214
0.806775 0.0302892 0.726207
1 0.0142061 0.69398
1 0.0143587 0.689235
0.0615396 0.0615396 0.757794
0.14284 0.0561074 0.750759
0.784039 0.0314794 0.71664
1 0.0145418 0.683116
1 0.0146334 0.678126
0 0.591379 0.583124
0 0.58764 0.581964
0.526864 0.526864 0.536065
0.948684 0.463111 0.499413
0.95137 0.450889 0.496498
0 0.922103 0.387823
0 0.922148 0.38526
0.064744 0.905119 0.355123
0.814374 0.855238 0.302342
0.874357 0.844648 0.293187
0 0.923033 0.346761
0 0.923095 0.343938
0 0.923339 0.329564
0.760372 0.875044 0.254856
0.869139 0.869139 0.240482
0.0590524 0.0590677 1
0.0590524 0.0590677 1
0.765911 0.0238193 1
1 0.00563058 1
1 0.00563058 1
0.0590524 0.0590677 1
0.0590524 0.0590677 1
0.742229 0.0249332 1
1 0.00563058 1
1 0.00563058 1
0 0.490089 1
0 0.485222 1
0.494942 0.421759 0.973968
0.960876 0.343816 0.94374
0.964477 0.327321 0.943908
0 0.881102 0.855253
0 0.878721 0.854826
0 0.865644 0.851667
0.791852 0.791852 0.79501
0.878416 0.779461 0.787854
0 0.913069 0.824796
0 0.9131 0.823407
0 0.913252 0.816587
0.724788 0.868513 0.759655
0.861601 0.861601 0.749203
0.0590524 0.0590677 1
0.0590524 0.0590677 1
0.75581 0.0243381 1
1 0.00563058 1
1 0.00563058 1
0.0590524 0.0590677 1
0.0590524 0.0590677 1
0.731487 0.0254063 1
1 0.00563058 1
1 0.00563058 1
0 0.457542 1
0 0.452277 1
0.488762 0.386603 0.988647
0.969116 0.301625 0.970642
0.973342 0.28249 0.974853
0 0.862776 0.926024
0 0.860319 0.926955
0 0.846876 0.93048
0.785336 0.772549 0.885527
0.879774 0.759228 0.8813
0 0.910674 0.912184
0 0.910674 0.912184
0 0.910674 0.912184
0.713832 0.866575 0.868101
0.859968 0.859968 0.861494
