DJI夜景风格LUT（不加还原LUT使用）_2.DJI_20260420195141_0027_D.cube
TITLE "Generated by Resolve"
LUT_3D_SIZE 9
0.0215305 0.0278325 0.0513313
0.116991 0.0257115 0.0486458
0.285618 0.0211948 0.0446326
0.526619 0.0100252 0.0385138
0.834745 0 0.0110933
0.976257 0 0
0.976257 0 0
0.976257 0 0
0.976257 0 0
0.0108949 0.0838331 0.0444343
0.0465095 0.0729381 0.044007
0.246921 0.0527962 0.0396735
0.509667 0.0124666 0.0387427
0.824338 0 0.0125429
0.976257 0 0
0.976257 0 0
0.976257 0 0
0.976257 0 0
0 0.224552 0.0261692
0 0.219959 0.0267338
0.170321 0.203189 0.0227665
0.449104 0.171221 0.0151522
0.780804 0.0966506 0
0.976715 0 0
0.976257 0 0
0.976257 0 0
0.976257 0 0
0.00106813 0.418463 0
0.000457771 0.416297 0
0.0010071 0.411917 0
0.355306 0.378714 0
0.710887 0.335546 0
1 0.271244 0
1 0.232746 0
1 0.215015 0
1 0.207599 0
0.15938 0.667994 0
0.157961 0.666362 0
0.155779 0.66389 0
0.198505 0.641611 0
0.619089 0.594949 0
0.960845 0.548882 0
1 0.522164 0.000518807
1 0.513237 0.000549325
1 0.510094 0.000350958
0.362692 0.895674 0
0.361913 0.894759 0
0.360296 0.892866 0
0.356054 0.887694 0
0.527398 0.840146 0
0.887175 0.799008 0
1 0.773175 0.000137331
1 0.766522 0
1 0.764233 9.15541e-05
0.43714 0.976165 0.007187
0.43714 0.976165 0.007187
0.43714 0.976165 0.007187
0.43714 0.976165 0.007187
0.467292 0.95613 0.00418097
0.823468 0.924544 0
1 0.912261 0.00167849
1 0.908293 0.00148013
1 0.908293 0.00148013
0.43714 0.976165 0.007187
0.43714 0.976165 0.007187
0.43714 0.976165 0.007187
0.43714 0.976165 0.007187
0.431617 0.968826 0.00616464
0.776425 0.927535 0
0.999725 0.914931 0.00157168
1 0.908293 0.00148013
1 0.908293 0.00148013
0.43714 0.976165 0.007187
0.43714 0.976165 0.007187
0.43714 0.976165 0.007187
0.43714 0.976165 0.007187
0.437903 0.975769 0.0071107
0.754528 0.92874 0
0.985885 0.915648 0.000991836
1 0.908415 0.00149538
1 0.908293 0.00148013
0.0206302 0.0274815 0.0934615
0.107271 0.0254368 0.0882887
0.279988 0.0206455 0.080766
0.522988 0.00953689 0.0598459
0.832609 0 0.0128786
0.976257 0 0
0.976257 0 0
0.976257 0 0
0.976257 0 0
0.0144503 0.0623941 0.0676432
0.0407416 0.0520638 0.0652018
0.247349 0.0333104 0.05832
0.506966 0.0112612 0.0428931
0.821805 0 0.0129397
0.976257 0 0
0.976257 0 0
0.976257 0 0
0.976257 0 0
0 0.213092 0.0289769
0 0.207904 0.0299229
0.165377 0.191058 0.0260929
0.447883 0.157916 0.0174258
0.780575 0.0778058 0.00129702
0.976425 0 0
0.976593 0 0
0.976257 0 0
0.976577 0 0
0 0.411795 0
0 0.409201 0
0 0.404883 0
0.351568 0.372442 0
0.708827 0.328832 0
1 0.26331 0
1 0.224292 0
1 0.205112 0
1 0.198001 0
0.155612 0.663676 0
0.15433 0.662318 0
0.151217 0.659266 0
0.192294 0.637842 0
0.616281 0.590173 0
0.959548 0.544717 0
1 0.517754 0.000549325
1 0.50869 0.000442512
1 0.505226 0.000640879
0.360235 0.892683 0
0.359411 0.891585 0
0.357885 0.88983 0
0.353674 0.885252 0
0.523964 0.837064 0
0.885405 0.796139 0
1 0.770382 0
1 0.763699 3.0518e-05
1 0.761074 3.0518e-05
0.43714 0.976165 0.007187
0.43714 0.976165 0.007187
0.43714 0.976165 0.007187
0.43714 0.976165 0.007187
0.465812 0.956451 0.00422675
0.821942 0.92462 0
1 0.912367 0.00167849
1 0.908293 0.00148013
1 0.908293 0.00148013
0.43714 0.976165 0.007187
0.43714 0.976165 0.007187
0.43714 0.976165 0.007187
0.43714 0.976165 0.007187
0.432456 0.969589 0.0062562
0.774716 0.927657 0
0.99881 0.914931 0.0015259
1 0.908293 0.00148013
1 0.908293 0.00148013
0.43714 0.976165 0.007187
0.43714 0.976165 0.007187
0.43714 0.976165 0.007187
0.43714 0.976165 0.007187
0.437781 0.975799 0.00712596
0.75317 0.928786 0
0.98497 0.915633 0.000915541
1 0.908446 0.00149538
1 0.908293 0.00148013
0.0170138 0.0265354 0.24921
0.0889143 0.0242771 0.245823
0.269963 0.0179904 0.24538
0.514199 0.00534066 0.233539
0.825422 0 0.18967
0.978683 0 0.117067
0.978607 0 0.0839551
0.978744 0 0.0691081
0.978408 0 0.0691691
0.0164492 0.0289616 0.237201
0.0283513 0.0266117 0.235477
0.239643 0.0195163 0.232776
0.497978 0.00691234 0.221515
0.815045 0 0.175967
0.978729 0 0.0978561
0.978271 0 0.0616312
0.978012 0 0.0494698
0.978042 0 0.0510872
0 0.189319 0.197131
0 0.18407 0.195972
0.153582 0.167315 0.185809
0.443137 0.131136 0.169848
0.780468 0.0392004 0.134066
0.978317 0 0.0632029
0.977569 0 0.0325475
0.977371 0 0.0221408
0.977371 0 0.0232548
0 0.398932 0.0823072
0 0.396216 0.0809339
0 0.391623 0.0772412
0.344228 0.359411 0.0508888
0.703731 0.315343 0.0102388
1 0.248478 0
1 0.207523 0
1 0.187655 0
1 0.179782 0
0.148913 0.656489 0
0.147539 0.655024 0
0.144976 0.652506 0
0.180652 0.631586 0
0.611368 0.583429 0
0.956725 0.536858 0
1 0.509117 0.000350958
1 0.499992 0.000442512
1 0.496529 0.000595102
0.355673 0.887282 0
0.354742 0.886503 0
0.353338 0.88481 0
0.348989 0.879393 0
0.517464 0.832303 0
0.881712 0.790158 0
1 0.764508 9.15541e-05
1 0.757305 3.0518e-05
1 0.754772 0
0.43714 0.976165 0.007187
0.43714 0.976165 0.007187
0.43714 0.976165 0.007187
0.43714 0.976165 0.007187
0.462943 0.956939 0.00428779
0.819211 0.924712 0
1 0.912627 0.00167849
1 0.908293 0.00148013
1 0.908293 0.00148013
0.43714 0.976165 0.007187
0.43714 0.976165 0.007187
0.43714 0.976165 0.007187
0.43714 0.976165 0.007187
0.433814 0.971466 0.00648508
0.771878 0.927764 0
0.996551 0.915007 0.00144961
1 0.908293 0.00148013
1 0.908293 0.00148013
0.43714 0.976165 0.007187
0.43714 0.976165 0.007187
0.43714 0.976165 0.007187
0.43714 0.976165 0.007187
0.437705 0.97586 0.00714122
0.749249 0.929061 0
0.982483 0.915755 0.000808728
1 0.908492 0.00149538
1 0.908293 0.00148013
0.0112001 0.0255741 0.460426
0.0409705 0.0242161 0.45919
0.24744 0.0148165 0.460136
0.50106 0.000701915 0.453422
0.815671 0 0.424903
0.978393 0 0.381552
0.978408 0 0.371801
0.978408 0 0.36907
0.978393 0 0.371801
0.01149 0.0256352 0.456031
0.0116884 0.0256352 0.455711
0.214038 0.0166476 0.455085
0.484184 0.00198367 0.448966
0.805097 0 0.420584
0.978393 0 0.375723
0.978393 0 0.365896
0.978454 0 0.363256
0.978393 0 0.365988
0.00492866 0.119966 0.435386
0.00596628 0.112337 0.435874
0.128557 0.0927901 0.429786
0.442679 0.0425574 0.427817
0.78732 0 0.413214
0.978393 0 0.36643
0.978576 0 0.35639
0.978637 0 0.353445
0.978592 0 0.355856
0 0.363195 0.370108
0 0.360403 0.369894
0 0.355673 0.370047
0.327276 0.323323 0.347585
0.693446 0.27689 0.315511
1 0.203815 0.264622
1 0.153475 0.258595
1 0.127443 0.263828
1 0.116335 0.269642
0.138262 0.632425 0.198962
0.136873 0.630732 0.198932
0.134203 0.627909 0.198962
0.148699 0.609781 0.190539
0.59202 0.559182 0.122759
0.942946 0.510399 0.0448157
1 0.481346 0.0285649
1 0.471504 0.0288853
1 0.467658 0.0311131
0.341909 0.868132 0
0.341024 0.866896 0
0.339406 0.865064 0
0.334859 0.860197 0
0.496284 0.814267 0
0.86865 0.772793 0
1 0.745907 0
1 0.738506 0.000122072
1 0.735576 0
0.43534 0.973861 0.0068513
0.435203 0.973907 0.0068513
0.435264 0.973922 0.0068513
0.435355 0.974258 0.00689708
0.454932 0.957321 0.00434882
0.811612 0.925155 0
1 0.913191 0.00167849
1 0.905745 0.00140383
1 0.90338 0.0012665
0.43714 0.976165 0.007187
0.43714 0.976165 0.007187
0.43714 0.976165 0.007187
0.43714 0.976165 0.007187
0.437613 0.97586 0.00714122
0.764019 0.928206 0
0.991226 0.915236 0.0011902
1 0.908248 0.00148013
1 0.90808 0.00148013
0.437125 0.97612 0.00717174
0.437095 0.976089 0.00717174
0.437034 0.976013 0.00715648
0.436988 0.975921 0.00714122
0.437217 0.975586 0.00709545
0.74049 0.929274 0
0.97673 0.91574 0.000640879
1 0.908415 0.00149538
1 0.908186 0.00148013
0.00495918 0.0216983 0.735042
0.0047303 0.0217594 0.735119
0.196979 0.0113222 0.728191
0.477211 0 0.720882
0.801297 0 0.69543
0.977859 0 0.658076
0.977844 0 0.653834
0.977844 0 0.653666
0.977844 0 0.656519
0.00476081 0.0217594 0.733166
0.00488289 0.0217136 0.733242
0.153536 0.0136568 0.727184
0.459434 0 0.718959
0.790173 0 0.694087
0.977844 0 0.656016
0.977844 0 0.651072
0.97818 0 0.650752
0.977844 0 0.653468
0.00479133 0.0217899 0.729778
0.00488289 0.0217746 0.72961
0.0635538 0.0188754 0.726482
0.428992 0 0.715953
0.772702 0 0.691936
0.977844 0 0.652506
0.977829 0 0.646845
0.977829 0 0.646647
0.977844 0 0.648844
0 0.284718 0.668925
0 0.281376 0.669337
0 0.274388 0.67013
0.298863 0.241901 0.653773
0.685664 0.184497 0.633768
0.996445 0.0819104 0.601267
0.983688 0 0.604212
0.978576 0 0.616526
0.977829 0 0.62536
0.128405 0.587518 0.55433
0.127138 0.585748 0.554818
0.124712 0.583017 0.555367
0.120317 0.574807 0.556329
0.568627 0.514473 0.506981
0.930083 0.464179 0.457832
1 0.433234 0.437995
1 0.422065 0.442466
1 0.417334 0.446815
0.334737 0.835706 0.352255
0.333944 0.834669 0.352743
0.332525 0.832883 0.353735
0.327825 0.827436 0.35491
0.465736 0.782605 0.324163
0.847456 0.738338 0.266087
1 0.70956 0.220111
1 0.702113 0.222827
1 0.698573 0.229664
0.443488 0.967468 0.173983
0.44332 0.967529 0.173709
0.443259 0.967544 0.172793
0.443076 0.967559 0.168078
0.444282 0.952453 0.140841
0.787549 0.90724 0.0794995
1 0.882734 0.0360113
1 0.870054 0.014847
1 0.867338 0.0153048
0.442451 0.967666 0.145693
0.442695 0.967636 0.145769
0.442481 0.967651 0.144839
0.442252 0.967681 0.14168
0.442237 0.967453 0.134874
0.739895 0.920836 0.052842
0.973266 0.906432 0
1 0.899657 0.00102235
1 0.899458 0.000976577
0.442344 0.967697 0.159808
0.442588 0.967651 0.160708
0.442649 0.967636 0.160189
0.442496 0.967666 0.158099
0.442267 0.967498 0.148898
0.717205 0.922011 0.0472725
0.958694 0.907103 0.00321965
1 0.900801 0.00784314
1 0.899672 0.0113832
0.0122225 0.0171206 0.962509
0.0121614 0.0171206 0.962539
0.100664 0.0117494 0.960967
0.445533 0 0.950164
0.784665 0 0.9299
0.978271 0 0.900664
0.97821 0 0.8972
0.97821 0 0.896605
0.978225 0 0.897765
0.012253 0.0171359 0.962432
0.0122835 0.0171206 0.962432
0.0411383 0.0153048 0.961089
0.426505 0 0.949508
0.773709 0 0.929656
0.978256 0 0.89958
0.97818 0 0.895186
0.97818 0 0.894652
0.978195 0 0.895888
0.0121157 0.0171969 0.960647
0.0120699 0.0171817 0.960388
0.0125734 0.0170901 0.95996
0.392935 0 0.948287
0.75555 0 0.92987
0.97821 0 0.89749
0.978149 0 0.892119
0.978134 0 0.891615
0.978164 0 0.892699
0 0.132921 0.941314
0 0.126467 0.94226
0.000518807 0.114885 0.942565
0.271962 0.069398 0.936797
0.701671 0 0.923278
0.977142 0 0.889754
0.978027 0 0.882261
0.978012 0 0.881575
0.978027 0 0.882765
0.119402 0.524926 0.841443
0.11783 0.523018 0.84155
0.115557 0.519478 0.84242
0.109804 0.510231 0.843748
0.542458 0.450706 0.801312
0.916335 0.396735 0.76025
1 0.359991 0.742565
1 0.347127 0.746059
1 0.342016 0.749126
0.327794 0.792538 0.681163
0.327047 0.791241 0.681682
0.325505 0.789181 0.682383
0.320806 0.783536 0.683543
0.432288 0.740841 0.658717
0.827619 0.694133 0.61735
1 0.664179 0.589426
1 0.655177 0.590204
1 0.652262 0.592645
0.450126 0.951141 0.564691
0.449256 0.95021 0.565026
0.447578 0.948333 0.565576
0.4439 0.944121 0.566171
0.428077 0.926345 0.559091
0.765423 0.871733 0.508598
0.99202 0.84654 0.481819
1 0.833661 0.470436
1 0.830793 0.473777
0.460197 0.964096 0.544076
0.460166 0.96408 0.544366
0.460121 0.96408 0.543648
0.460075 0.964096 0.541848
0.459571 0.964065 0.536568
0.728023 0.920516 0.475441
0.964477 0.907088 0.438987
1 0.900725 0.420798
1 0.899413 0.42005
0.460395 0.964065 0.545022
0.460166 0.964096 0.545022
0.460136 0.964096 0.544564
0.459983 0.964111 0.542687
0.459754 0.96405 0.537591
0.704997 0.922118 0.479759
0.949615 0.9075 0.441978
1 0.901854 0.424765
1 0.899443 0.420539
0.0109407 0.0159457 0.965713
0.0109407 0.0159457 0.965713
0.0121767 0.0158694 0.965667
0.411231 0 0.966094
0.764462 0 0.95639
0.978851 0 0.942397
0.978851 0 0.942306
0.978851 0 0.942306
0.978851 0 0.942306
0.0109407 0.0159457 0.965713
0.0109407 0.0159457 0.965713
0.0113527 0.0158999 0.965682
0.390799 0 0.966171
0.753429 0 0.95697
0.978851 0 0.942443
0.978851 0 0.942306
0.978851 0 0.942306
0.978851 0 0.942306
0.0109407 0.0159457 0.965713
0.0109407 0.0159457 0.965713
0.0109407 0.0159457 0.965713
0.354864 0 0.966522
0.734997 0 0.958343
0.978851 0 0.94255
0.978851 0 0.942306
0.978851 0 0.94229
0.978851 0 0.942306
0.0112154 0.0162661 0.965698
0.0111696 0.0162661 0.965698
0.0111543 0.0162356 0.965698
0.235233 0.00218204 0.967117
0.685145 0 0.96022
0.976623 0 0.943191
0.978851 0 0.94229
0.978851 0 0.942306
0.978851 0 0.94229
0.109911 0.472892 0.976654
0.1084 0.470787 0.976699
0.106264 0.467231 0.97731
0.100237 0.457557 0.978317
0.524407 0.396597 0.959411
0.908202 0.338521 0.928603
1 0.294881 0.914717
1 0.280873 0.918013
1 0.275074 0.919921
0.325551 0.75903 0.864363
0.32488 0.757992 0.864698
0.323156 0.755749 0.865003
0.318395 0.750057 0.865644
0.408042 0.708904 0.844953
0.813779 0.659846 0.804822
1 0.628931 0.780728
1 0.618891 0.778195
1 0.61529 0.779583
0.445014 0.924254 0.758968
0.443992 0.923217 0.759182
0.442664 0.921767 0.759182
0.438666 0.916869 0.759335
0.430793 0.907012 0.75906
0.749905 0.843976 0.70898
0.981613 0.817853 0.686
1 0.80383 0.674922
1 0.801358 0.676127
0.474205 0.961715 0.727947
0.474022 0.96173 0.727596
0.474052 0.96173 0.727016
0.474067 0.961746 0.725124
0.473564 0.961761 0.72047
0.718761 0.919493 0.66656
0.956054 0.899107 0.638956
1 0.887221 0.627222
1 0.88249 0.625025
0.473823 0.961791 0.724956
0.473838 0.961791 0.724743
0.473869 0.961791 0.724193
0.473625 0.961807 0.722194
0.473381 0.961776 0.717403
0.69572 0.920928 0.665614
0.941772 0.906065 0.6336
1 0.900236 0.619104
1 0.897414 0.613565
0.0109407 0.0159457 0.965713
0.0109407 0.0159457 0.965713
0.0112459 0.0158999 0.965682
0.393576 0 0.966125
0.754925 0 0.956909
0.978851 0 0.942473
0.978851 0 0.942306
0.978851 0 0.942306
0.978851 0 0.942306
0.0109407 0.0159457 0.965713
0.0109407 0.0159457 0.965713
0.0110781 0.0159457 0.965667
0.372946 0 0.966537
0.743511 0 0.957443
0.978851 0 0.942504
0.978851 0 0.942306
0.978851 0 0.942306
0.978851 0 0.942306
0.0109407 0.0159457 0.965713
0.0109407 0.0159457 0.965713
0.0109407 0.0159457 0.965713
0.334722 0 0.966751
0.725048 0 0.958816
0.978851 0 0.942641
0.978851 0 0.942306
0.978851 0 0.942306
0.978851 0 0.942306
0.0111696 0.0159609 0.965698
0.0110933 0.0159609 0.965698
0.0110018 0.0159915 0.965667
0.204547 0.00369268 0.966995
0.674968 0 0.9608
0.975753 0 0.943832
0.978851 0 0.942306
0.978851 0 0.942306
0.978851 0 0.942306
0.0922408 0.444389 0.979721
0.0913405 0.442466 0.979828
0.0888228 0.438102 0.97998
0.0833143 0.428153 0.980682
0.512245 0.36849 0.970306
0.902831 0.30724 0.943358
1 0.259174 0.931167
1 0.242771 0.934569
1 0.236301 0.935973
0.317052 0.742718 0.89398
0.316472 0.741482 0.894331
0.314641 0.739239 0.895232
0.31014 0.733577 0.897658
0.391959 0.693828 0.882933
0.805325 0.642954 0.8486
1 0.611154 0.829267
1 0.600397 0.828
1 0.597696 0.828977
0.440909 0.910903 0.818524
0.44036 0.91014 0.818967
0.439048 0.908598 0.819776
0.435569 0.904158 0.821698
0.427527 0.893874 0.82562
0.742428 0.830503 0.784253
0.976669 0.803555 0.765606
1 0.789761 0.75671
1 0.787106 0.757565
0.480751 0.96051 0.796429
0.480827 0.96051 0.796399
0.480674 0.960525 0.796262
0.480705 0.960525 0.795834
0.480461 0.960342 0.795193
0.713329 0.912902 0.747433
0.95079 0.886885 0.722576
1 0.874769 0.712245
1 0.869993 0.70869
0.480674 0.960525 0.795941
0.480812 0.96051 0.795941
0.480659 0.960525 0.795941
0.480537 0.96054 0.795727
0.480339 0.960571 0.791257
0.692149 0.920729 0.741192
0.938201 0.90518 0.710353
1 0.899611 0.69633
1 0.896773 0.690288
0.0109407 0.0159457 0.965713
0.0109407 0.0159457 0.965713
0.0109407 0.0159457 0.965713
0.385397 0 0.966201
0.750103 0 0.957168
0.978851 0 0.942504
0.978851 0 0.942306
0.978851 0 0.942306
0.978851 0 0.942306
0.0109407 0.0159457 0.965713
0.0109407 0.0159457 0.965713
0.0109407 0.0159457 0.965713
0.364981 0 0.966567
0.739574 0 0.957717
0.978851 0 0.942565
0.978851 0 0.942306
0.978851 0 0.942306
0.978851 0 0.942306
0.0109407 0.0159457 0.965713
0.0109407 0.0159457 0.965713
0.0109407 0.0159457 0.965713
0.326268 0 0.966827
0.720851 0 0.958953
0.978851 0 0.942733
0.978851 0 0.942306
0.978851 0 0.942306
0.978851 0 0.942306
0.0109407 0.0159457 0.965713
0.0109407 0.0159457 0.965713
0.0109407 0.0159457 0.965713
0.190158 0.0047303 0.967269
0.670542 0 0.961028
0.975219 0 0.943999
0.978851 0 0.942306
0.978851 0 0.942306
0.978851 0 0.942306
0.0854658 0.432151 0.980392
0.0842756 0.429755 0.980514
0.0822003 0.426184 0.980819
0.0763867 0.415595 0.98146
0.50724 0.356252 0.973388
0.901228 0.29369 0.94725
1 0.243824 0.934249
1 0.226642 0.937911
1 0.219242 0.938918
0.311955 0.736126 0.896437
0.311177 0.735134 0.896941
0.309804 0.732921 0.897932
0.305684 0.727428 0.899977
0.385641 0.688762 0.886427
0.801785 0.636545 0.851469
1 0.604456 0.832288
1 0.593545 0.830625
1 0.590509 0.831556
0.437644 0.906691 0.820447
0.436774 0.905943 0.820813
0.435599 0.90425 0.821683
0.432471 0.899779 0.823667
0.424277 0.889448 0.827771
0.738293 0.825849 0.78648
0.974853 0.798993 0.769574
1 0.784695 0.76051
1 0.782254 0.761227
0.480766 0.96051 0.796933
0.480766 0.96051 0.796933
0.480766 0.96051 0.796933
0.480766 0.96051 0.796933
0.4804 0.960067 0.797147
0.709148 0.909102 0.756863
0.948791 0.882948 0.738308
1 0.870817 0.730465
1 0.866102 0.727703
0.480766 0.96051 0.796933
0.480766 0.96051 0.796933
0.480766 0.96051 0.796933
0.480766 0.96051 0.796933
0.480766 0.96051 0.796933
0.689357 0.920806 0.754788
0.936538 0.905043 0.72961
1 0.899107 0.718883
1 0.896406 0.713832
