DJI夜景青橙色调LUT（不加还原LUT使用）_2.DJI_20260420195141_0027_D.cube
TITLE "Generated by Resolve"
LUT_3D_SIZE 33
0.0233616 0.0404669 0.0841535
0.0236057 0.0404669 0.0841535
0.0344854 0.0402991 0.0840162
0.0876326 0.0400092 0.0839246
0.138354 0.041413 0.0857557
0.177356 0.0435798 0.0881514
0.217655 0.0459144 0.0903944
0.261906 0.0482643 0.0922713
0.310155 0.0501564 0.0932937
0.362768 0.0508736 0.0928359
0.420691 0.0500038 0.0906386
0.482841 0.0475929 0.0872358
0.54873 0.0440528 0.0831617
0.61796 0.0392004 0.0783246
0.690852 0.0339361 0.0731212
0.766964 0.0266728 0.0651255
0.845472 0.0175784 0.0538186
0.925322 0.00575265 0.0379339
1 0 0.0166323
1 0 0.00764477
1 0 0.0055848
1 0 0.0055848
1 0 0.0055848
1 0 0.0055848
1 0 0.0055848
1 0 0.0055848
1 0 0.0055848
1 0 0.0055848
1 0 0.0055848
1 0 0.0055848
1 0 0.0055848
1 0 0.0055848
1 0 0.0055848
0.0233616 0.0404669 0.0841535
0.0233616 0.0404669 0.0841535
0.0243381 0.0404517 0.0841535
0.0680858 0.0398566 0.0836347
0.12195 0.0407111 0.0849012
0.165499 0.0428168 0.0873732
0.207919 0.0453193 0.0898604
0.253773 0.0477913 0.0919203
0.303349 0.0499123 0.0932021
0.357015 0.0508431 0.0929427
0.415625 0.0500801 0.0908675
0.478553 0.047776 0.0874647
0.54522 0.0442054 0.08336
0.614679 0.0394598 0.0785229
0.687999 0.0341039 0.0734112
0.764263 0.0271 0.0654459
0.843061 0.0179141 0.0542
0.923217 0.00607309 0.038529
1 0 0.0172122
1 0 0.00767529
1 0 0.0055848
1 0 0.0055848
1 0 0.0055848
1 0 0.0055848
1 0 0.0055848
1 0 0.0055848
1 0 0.0055848
1 0 0.0055848
1 0 0.0055848
1 0 0.0055848
1 0 0.0055848
1 0 0.0055848
1 0 0.0055848
0.0231632 0.0411688 0.0841077
0.0231937 0.0410925 0.0841077
0.0238041 0.0410163 0.0840925
0.0495766 0.0403601 0.0835431
0.104448 0.040528 0.084062
0.152773 0.0426032 0.0867018
0.197772 0.0450752 0.0893263
0.245182 0.0474708 0.0914931
0.296071 0.0496834 0.09308
0.351095 0.0507515 0.0930037
0.410498 0.0502174 0.0910506
0.474144 0.0479744 0.0876783
0.541421 0.0444495 0.0836042
0.611505 0.0396582 0.0787366
0.685283 0.0343328 0.0735943
0.761883 0.0272068 0.0657054
0.840848 0.0181582 0.0545357
0.921202 0.00645457 0.0389868
0.999908 0 0.0178683
1 0 0.00775158
1 0 0.0055848
1 0 0.0055848
1 0 0.0055848
1 0 0.0055848
1 0 0.0055848
1 0 0.0055848
1 0 0.0055848
1 0 0.0055848
1 0 0.0055848
1 0 0.0055848
1 0 0.0055848
1 0 0.0055848
1 0 0.0055848
0.014725 0.0716564 0.0819562
0.0155337 0.0683299 0.0820783
0.0163577 0.0653544 0.082063
0.0268864 0.06215 0.0820783
0.0803998 0.0591745 0.082002
0.134646 0.0573587 0.0834058
0.184161 0.056199 0.0863203
0.234791 0.0540627 0.0896468
0.288441 0.0505074 0.0925612
0.344579 0.0513466 0.0928817
0.404974 0.050721 0.0911116
0.469642 0.0483864 0.087953
0.537514 0.0447242 0.0838483
0.60824 0.0398413 0.0789349
0.682292 0.0345617 0.0738384
0.759152 0.0275578 0.066041
0.8383 0.0186313 0.054963
0.918898 0.00683604 0.0395056
0.997787 0 0.0184787
1 0 0.00790417
1 0 0.0055848
1 0 0.0055848
1 0 0.0055848
1 0 0.0055848
1 0 0.0055848
1 0 0.0055848
1 0 0.0055848
1 0 0.0055848
1 0 0.0055848
1 0 0.0055848
1 0 0.0055848
1 0 0.0055848
1 0 0.0055848
0.00399786 0.112596 0.0796063
0.00445563 0.109789 0.0795453
0.00526436 0.107057 0.0799573
0.00697337 0.10396 0.0800641
0.0493629 0.0992294 0.0782177
0.107774 0.0957046 0.0770123
0.163912 0.0933089 0.0786755
0.216373 0.0900435 0.0800336
0.271336 0.0851911 0.0816358
0.329656 0.0785687 0.0829633
0.393545 0.0690166 0.0841535
0.46247 0.0555734 0.0850996
0.533578 0.0454566 0.083772
0.604852 0.0403906 0.0791333
0.679271 0.0348516 0.0740978
0.756558 0.0276493 0.0663462
0.835904 0.0187533 0.0553445
0.916533 0.00727855 0.0400244
0.995666 0 0.0191806
1 0 0.00807202
1 0 0.0055848
1 0 0.0055848
1 0 0.0055848
1 0 0.0055848
1 0 0.0055848
1 0 0.0055848
1 0 0.0055848
1 0 0.0055848
1 0 0.0055848
1 0 0.0055848
1 0 0.0055848
1 0 0.0055848
1 0 0.0055848
0 0.151156 0.0767529
0 0.148791 0.0769818
0 0.146334 0.0772106
0 0.143725 0.0776379
0.0236057 0.139483 0.0754253
0.0805371 0.133791 0.0720378
0.143465 0.129305 0.0708476
0.199069 0.125063 0.0703899
0.254917 0.119387 0.0701152
0.313329 0.112108 0.0696269
0.375555 0.102159 0.0691234
0.443366 0.0889296 0.0694438
0.516899 0.0721294 0.0709544
0.596277 0.0512093 0.073991
0.67602 0.0357519 0.0738994
0.753674 0.0282902 0.0664988
0.833326 0.019089 0.0557412
0.914137 0.00764477 0.0405585
0.993576 0 0.0197299
1 0 0.00822461
1 0 0.0055848
1 0 0.0055848
1 0 0.0055848
1 0 0.0055848
1 0 0.0055848
1 0 0.0055848
1 0 0.0055848
1 0 0.0055848
1 0 0.0055848
1 0 0.0055848
1 0 0.0055848
1 0 0.0055848
1 0 0.0055848
0 0.187488 0.0730755
0 0.185763 0.0733349
0 0.183948 0.0736248
0 0.182101 0.0738842
0 0.17995 0.0738842
0.0497292 0.173205 0.068574
0.120455 0.167025 0.0640574
0.180774 0.162173 0.0616159
0.238499 0.15668 0.0592203
0.297551 0.149828 0.057084
0.35935 0.141176 0.0549172
0.425055 0.129519 0.0533455
0.496086 0.114015 0.0531777
0.572229 0.0942855 0.0540932
0.65536 0.0691844 0.0578317
0.74435 0.0395514 0.0614023
0.82974 0.0204623 0.0557412
0.911131 0.00831617 0.0410315
0.990738 0 0.0206455
1 0 0.00833143
1 0 0.0055848
1 0 0.0055848
1 0 0.0055848
1 0 0.0055848
1 0 0.0055848
1 0 0.0055848
1 0 0.0055848
1 0 0.0055848
1 0 0.0055848
1 0 0.0055848
1 0 0.0055848
1 0 0.0055848
1 0 0.0055848
0 0.222782 0.0652323
0 0.22153 0.0656596
0 0.220218 0.0658122
0 0.218784 0.0661479
0 0.217288 0.0664378
0.0182193 0.213107 0.0639353
0.0893568 0.205158 0.0576638
0.160037 0.199283 0.053315
0.222141 0.193896 0.0502785
0.283375 0.187686 0.0473335
0.345968 0.180209 0.0445716
0.411246 0.171008 0.0418708
0.480369 0.159472 0.039765
0.553292 0.144381 0.0377203
0.630732 0.124758 0.0366217
0.714702 0.0972763 0.0368811
0.804929 0.0618906 0.0372778
0.900252 0.0218814 0.0359655
0.986267 0 0.0211948
1 0 0.00816358
1 0 0.0055848
1 0 0.0055848
1 0 0.0055848
1 0 0.0055848
1 0 0.0055848
1 0 0.0055848
1 0 0.0055848
1 0 0.0055848
1 0 0.0055848
1 0 0.0055848
1 0 0.0055848
1 0 0.0055848
1 0 0.0055848
0 0.260258 0.0554055
0 0.259113 0.0556802
0 0.257954 0.0559701
0 0.256916 0.0563516
0 0.255818 0.0567636
0 0.254429 0.0569314
0.0479133 0.246967 0.0512703
0.132418 0.238956 0.0448615
0.201373 0.233356 0.0412299
0.266178 0.227451 0.0380255
0.330648 0.220798 0.0348211
0.397116 0.212833 0.0317845
0.466255 0.203159 0.0289769
0.538796 0.191226 0.0263218
0.615137 0.176089 0.0231479
0.694987 0.157107 0.0189822
0.777813 0.132494 0.0135653
0.863478 0.0994125 0.00683604
0.953964 0.0527047 0
1 0.00677501 0
1 0 0.00447089
1 0 0.00479133
1 0 0.00509651
1 0 0.00540169
1 0 0.0055848
1 0 0.0055848
1 0 0.0055848
1 0 0.0055848
1 0 0.0055848
1 0 0.0055848
1 0 0.0055848
1 0 0.0055848
1 0 0.0055848
0 0.300801 0.0454719
0 0.299886 0.0455787
0 0.298894 0.0458228
0 0.297917 0.0460517
0 0.29691 0.0463111
0 0.295857 0.0465705
0 0.294133 0.0465095
0.0893568 0.283177 0.0376745
0.17322 0.276097 0.0323033
0.244038 0.270054 0.0285496
0.311574 0.2636 0.0248569
0.380072 0.256397 0.0217441
0.450553 0.247974 0.0184634
0.523735 0.237827 0.0147555
0.600031 0.225422 0.0102388
0.679377 0.210071 0.00454719
0.760693 0.191684 0
0.843488 0.168383 0
0.92665 0.139254 0
1 0.102052 0
1 0.0652018 0
1 0.0362554 0
1 0.0125582 0
1 0 0
1 0 0.00430304
1 0 0.00444038
1 0 0.00451667
1 0 0.00462348
1 0 0.00474556
1 0 0.00480659
1 0 0.00485237
1 0 0.00491341
1 0 0.00497444
0 0.344625 0.0349584
0 0.343786 0.0351415
0 0.342962 0.0353399
0 0.342107 0.0355535
0 0.341268 0.0357519
0 0.340429 0.0358129
0 0.339239 0.0359655
0.0273747 0.334478 0.0331731
0.132265 0.322927 0.0240635
0.213977 0.316045 0.0192874
0.287449 0.309758 0.0152438
0.359319 0.302663 0.0112612
0.431998 0.294957 0.00700389
0.506767 0.285939 0.00222782
0.583688 0.275273 0
0.663264 0.262364 0
0.744396 0.246921 0
0.826535 0.228367 0
0.908629 0.206317 0
0.987579 0.18024 0
1 0.153399 0
1 0.136797 0
1 0.120027 0
1 0.103929 0
1 0.0885176 0
1 0.0738231 0
1 0.060502 0
1 0.0494698 0
1 0.0411994 0
1 0.0350347 0
1 0.0303655 0
1 0.0269169 0
1 0.0243076 0
0.0030518 0.391745 0.0224918
0.00285344 0.39115 0.0227817
0.00274662 0.390448 0.0230106
0.00268559 0.389715 0.0232395
0.00230411 0.389059 0.0232853
0.00222782 0.388312 0.0234684
0.00210575 0.38735 0.023743
0.0034638 0.385916 0.0239414
0.0648814 0.377035 0.017731
0.172671 0.3664 0.00947585
0.256336 0.359228 0.00393683
0.333852 0.352178 0
0.409979 0.344762 0
0.487282 0.336324 0
0.565484 0.326558 0
0.645762 0.315267 0
0.727626 0.301808 0
0.81004 0.285954 0
0.89131 0.267659 0
0.970275 0.247028 0
1 0.223972 0
1 0.211566 0
1 0.200717 0
1 0.190768 0
1 0.181964 0
1 0.174395 0
1 0.167636 0
1 0.162249 0
1 0.157839 0
1 0.154192 0
1 0.151583 0
1 0.14934 0
1 0.147616 0
0.0200504 0.442267 0.0056611
0.019852 0.441657 0.00588998
0.0197147 0.441032 0.00611887
0.0192569 0.440406 0.00636301
0.0191653 0.43978 0.0065919
0.0190585 0.439109 0.0068513
0.0184634 0.4383 0.00714122
0.018204 0.437201 0.00753796
0.0200504 0.435767 0.00773632
0.112062 0.422339 0
0.215473 0.412619 0
0.302281 0.405097 0
0.383688 0.397574 0
0.464057 0.38938 0
0.545281 0.380301 0
0.627131 0.369711 0
0.710018 0.357641 0
0.792691 0.343786 0
0.874281 0.327855 0
0.952773 0.310277 0
1 0.291249 0
1 0.27863 0
1 0.270466 0
1 0.263096 0
1 0.256626 0
1 0.251194 0
1 0.246571 0
1 0.242786 0
1 0.239948 0
1 0.237598 0
1 0.235645 0
1 0.234211 0
1 0.233112 0
0.0462959 0.49546 0
0.0460059 0.494926 0
0.0457313 0.494392 0
0.045243 0.493858 0
0.0450599 0.493309 0
0.0447242 0.49276 0
0.0440833 0.492134 0
0.0439002 0.491341 0
0.043183 0.490166 0
0.0455177 0.488212 0
0.159976 0.471 0
0.262501 0.461707 0
0.35259 0.453437 0
0.438087 0.445167 0
0.522255 0.436286 0
0.606821 0.426444 0
0.691249 0.415015 0
0.775082 0.402319 0
0.857008 0.388205 0
0.935775 0.372595 0
1 0.356191 0
1 0.343664 0
1 0.337148 0
1 0.331121 0
1 0.326055 0
1 0.32163 0
1 0.318181 0
1 0.315206 0
1 0.312825 0
1 0.311009 0
1 0.30959 0
1 0.308629 0
1 0.30779 0
0.0884413 0.550774 0
0.0881971 0.550301 0
0.0877394 0.549844 0
0.0874495 0.549355 0
0.0874189 0.548867 0
0.0866102 0.548409 0
0.0860304 0.54789 0
0.0854658 0.54725 0
0.0847028 0.546181 0
0.0835279 0.544762 0
0.0835889 0.540124 0
0.214786 0.52166 0
0.31632 0.511925 0
0.408835 0.503243 0
0.49749 0.494514 0
0.58497 0.484718 0
0.671031 0.474022 0
0.756115 0.462303 0
0.838895 0.449332 0
0.918227 0.435203 0
0.991669 0.420539 0
1 0.407355 0
1 0.402014 0
1 0.396948 0
1 0.392874 0
1 0.389151 0
1 0.386328 0
1 0.383963 0
1 0.382086 0
1 0.380591 0
1 0.37937 0
1 0.3785 0
1 0.377859 0
0.138659 0.607431 0
0.138384 0.607019 0
0.137911 0.606607 0
0.137713 0.60618 0
0.13727 0.605753 0
0.136904 0.605341 0
0.136416 0.604761 0
0.135622 0.604044 0
0.134783 0.603143 0
0.133867 0.60209 0
0.13344 0.600397 0
0.161059 0.5879 0
0.276493 0.573327 0
0.376989 0.563363 0
0.470878 0.554131 0
0.561624 0.544518 0
0.650401 0.534127 0
0.736889 0.523049 0
0.820661 0.510979 0
0.900099 0.497826 0
0.973861 0.484581 0
1 0.471626 0
1 0.465888 0
1 0.461631 0
1 0.458076 0
1 0.455009 0
1 0.452537 0
1 0.450401 0
1 0.448829 0
1 0.447715 0
1 0.446784 0
1 0.446006 0
1 0.445426 0
0.193301 0.664347 0
0.192966 0.663996 0
0.19266 0.663615 0
0.192142 0.663249 0
0.191882 0.662867 0
0.191608 0.66247 0
0.191043 0.661982 0
0.190356 0.661341 0
0.189548 0.660502 0
0.188434 0.659419 0
0.187213 0.65803 0
0.186938 0.656016 0
0.237659 0.637476 0
0.344625 0.62475 0
0.443885 0.614832 0
0.53846 0.60502 0
0.629252 0.594934 0
0.717372 0.58407 0
0.801877 0.572656 0
0.88159 0.560678 0
0.955169 0.548684 0
1 0.536812 0
1 0.52929 0
1 0.52549 0
1 0.522393 0
1 0.519677 0
1 0.517449 0
1 0.515602 0
1 0.514183 0
1 0.513252 0
1 0.512383 0
1 0.511696 0
1 0.511177 0
0.247761 0.720516 0
0.247501 0.720165 0
0.247181 0.719829 0
0.24686 0.719509 0
0.246601 0.719203 0
0.246159 0.718868 0
0.245884 0.718425 0
0.245274 0.717845 0
0.244511 0.717067 0
0.243626 0.716075 0
0.242451 0.714824 0
0.241001 0.713237 0
0.241001 0.710781 0
0.314839 0.687114 0
0.418082 0.675258 0
0.514961 0.665034 0
0.608133 0.654948 0
0.697246 0.644633 0
0.782681 0.633906 0
0.862379 0.622751 0
0.936324 0.611597 0
1 0.600809 0
1 0.591409 0
1 0.58819 0
1 0.585168 0
1 0.582712 0
1 0.580743 0
1 0.579187 0
1 0.577935 0
1 0.576989 0
1 0.57615 0
1 0.57557 0
1 0.575128 0
0.297185 0.775174 0
0.297017 0.774899 0
0.296727 0.774609 0
0.296544 0.774304 0
0.296239 0.773983 0
0.295964 0.773648 0
0.295583 0.773236 0
0.295094 0.772671 0
0.294423 0.771984 0
0.29369 0.771054 0
0.292683 0.769879 0
0.291402 0.768414 0
0.290044 0.76643 0
0.294087 0.752026 0
0.393301 0.734905 0
0.492317 0.723796 0
0.586801 0.713756 0
0.677333 0.703624 0
0.762829 0.693355 0
0.84332 0.683009 0
0.916655 0.672572 0
0.983276 0.66244 0
1 0.653071 0
1 0.648264 0
1 0.645747 0
1 0.643442 0
1 0.641596 0
1 0.640055 0
1 0.638849 0
1 0.637949 0
1 0.637263 0
1 0.636713 0
1 0.636255 0
0.341314 0.82707 0
0.340978 0.82678 0
0.340764 0.82649 0
0.340536 0.826185 0
0.340261 0.825879 0
0.340108 0.825559 0
0.339681 0.825162 0
0.339315 0.824659 0
0.338643 0.823987 0
0.337987 0.823194 0
0.337255 0.822232 0
0.336233 0.820935 0
0.334737 0.819211 0
0.334051 0.816587 0
0.373342 0.793347 0
0.471061 0.780194 0
0.566323 0.769589 0
0.657267 0.759793 0
0.743557 0.749844 0
0.823819 0.740017 0
0.897902 0.730205 0
0.963989 0.720943 0
1 0.712123 0
1 0.705211 0
1 0.702907 0
1 0.700725 0
1 0.699001 0
1 0.697581 0
1 0.696452 0
1 0.695598 0
1 0.695003 0
1 0.694392 0
1 0.693996 0
0.379812 0.875212 0
0.37966 0.874922 0
0.3794 0.874632 0
0.379248 0.874327 0
0.378927 0.874067 0
0.378698 0.873762 0
0.378424 0.873381 0
0.378058 0.872892 0
0.377554 0.872267 0
0.37702 0.871519 0
0.376135 0.870466 0
0.375082 0.869154 0
0.373953 0.867674 0
0.372213 0.865476 0
0.364584 0.852842 0
0.452628 0.832944 0
0.547448 0.821622 0
0.638682 0.81178 0
0.725185 0.801968 0
0.805844 0.792767 0
0.879683 0.783368 0
0.94609 0.774487 0
1 0.766384 0
1 0.758968 0
1 0.755322 0
1 0.753338 0
1 0.751751 0
1 0.750591 0
1 0.749493 0
1 0.748669 0
1 0.748012 0
1 0.747509 0
1 0.747097 0
0.413108 0.918456 0
0.412879 0.918181 0
0.41268 0.917922 0
0.412497 0.917647 0
0.412345 0.917372 0
0.412055 0.917098 0
0.41181 0.916732 0
0.411414 0.916259 0
0.410941 0.915633 0
0.410437 0.914885 0
0.409781 0.914015 0
0.408911 0.912871 0
0.40763 0.911299 0
0.406226 0.909346 0
0.40528 0.906508 0
0.439765 0.881544 0
0.53109 0.86865 0
0.622248 0.85861 0
0.708431 0.849104 0
0.789212 0.840116 0
0.862928 0.831296 0
0.929213 0.822873 0
0.986587 0.815122 0
1 0.808179 0
1 0.802701 0
1 0.800671 0
1 0.799237 0
1 0.798032 0
1 0.796963 0
1 0.796262 0
1 0.79559 0
1 0.795178 0
1 0.794751 0
0.440009 0.954894 0
0.440009 0.954894 0
0.440009 0.954894 0
0.440009 0.954894 0
0.439994 0.954894 0
0.439841 0.954742 0
0.439658 0.954376 0
0.439216 0.953933 0
0.438849 0.953307 0
0.438285 0.952529 0
0.437644 0.951537 0
0.436652 0.950347 0
0.43566 0.948989 0
0.434256 0.947143 0
0.433234 0.944549 0
0.434333 0.925841 0
0.518029 0.909743 0
0.607584 0.899367 0
0.693874 0.890181 0
0.77435 0.881468 0
0.848112 0.872908 0
0.914031 0.865049 0
0.971237 0.857725 0
1 0.850996 0
1 0.845197 0
1 0.842268 0
1 0.840772 0
1 0.839536 0
1 0.838499 0
1 0.83772 0
1 0.837186 0
1 0.836759 0
1 0.836515 0
0.440009 0.954894 0
0.440009 0.954894 0
0.440009 0.954894 0
0.440009 0.954894 0
0.440009 0.954894 0
0.440009 0.954894 0
0.440009 0.954894 0
0.440009 0.954894 0
0.440009 0.954894 0
0.440009 0.954894 0
0.440009 0.954894 0
0.440009 0.954894 0
0.440009 0.954894 0
0.440009 0.954894 0
0.439979 0.954864 0
0.439979 0.952895 0
0.499748 0.927901 0
0.590066 0.919707 0
0.677882 0.913741 0
0.759426 0.908324 0
0.833768 0.903441 0
0.900099 0.89897 0
0.957366 0.893538 0
1 0.887083 0
1 0.881651 0
1 0.877348 0
1 0.875853 0
1 0.874647 0
1 0.873701 0
1 0.87303 0
1 0.872557 0
1 0.872129 0
1 0.871824 0
0.440009 0.954894 0
0.440009 0.954894 0
0.440009 0.954894 0
0.440009 0.954894 0
0.440009 0.954894 0
0.440009 0.954894 0
0.440009 0.954894 0
0.440009 0.954894 0
0.440009 0.954894 0
0.440009 0.954894 0
0.440009 0.954894 0
0.440009 0.954894 0
0.440009 0.954894 0
0.440009 0.954894 0
0.440009 0.954894 0
0.440879 0.954314 0
0.478325 0.930663 0
0.570108 0.921324 0
0.659419 0.914916 0
0.742687 0.909514 0
0.81796 0.904646 0
0.884871 0.899962 0
0.942855 0.895872 0
0.992065 0.89192 0
1 0.888502 0
1 0.885847 0
1 0.885237 0
1 0.885237 0
1 0.885237 0
1 0.885237 0
1 0.885237 0
1 0.885237 0
1 0.885237 0
0.440009 0.954894 0
0.440009 0.954894 0
0.440009 0.954894 0
0.440009 0.954894 0
0.440009 0.954894 0
0.440009 0.954894 0
0.440009 0.954894 0
0.440009 0.954894 0
0.440009 0.954894 0
0.440009 0.954894 0
0.440009 0.954894 0
0.440009 0.954894 0
0.440009 0.954894 0
0.440009 0.954894 0
0.440009 0.954894 0
0.440635 0.954376 0
0.461311 0.933471 0
0.553063 0.92282 0
0.644053 0.916075 0
0.728206 0.910338 0
0.80441 0.905425 0
0.872129 0.90074 0
0.930617 0.896696 0
0.980209 0.893065 0
1 0.889708 0
1 0.886885 0
1 0.885237 0
1 0.885237 0
1 0.885237 0
1 0.885237 0
1 0.885237 0
1 0.885237 0
1 0.885237 0
0.440009 0.954894 0
0.440009 0.954894 0
0.440009 0.954894 0
0.440009 0.954894 0
0.440009 0.954894 0
0.440009 0.954894 0
0.440009 0.954894 0
0.440009 0.954894 0
0.440009 0.954894 0
0.440009 0.954894 0
0.440009 0.954894 0
0.440009 0.954894 0
0.440009 0.954894 0
0.440009 0.954894 0
0.440009 0.954894 0
0.440345 0.954437 0
0.448066 0.936416 0
0.538811 0.923919 0
0.631067 0.916854 0
0.716045 0.911101 0
0.793225 0.906111 0
0.86154 0.901534 0
0.920424 0.897398 0
0.970336 0.893751 0
1 0.890425 0
1 0.887633 0
1 0.885267 0
1 0.885237 0
1 0.885237 0
1 0.885237 0
1 0.885237 0
1 0.885237 0
1 0.885237 0
0.440009 0.954894 0
0.440009 0.954894 0
0.440009 0.954894 0
0.440009 0.954894 0
0.440009 0.954894 0
0.440009 0.954894 0
0.440009 0.954894 0
0.440009 0.954894 0
0.440009 0.954894 0
