DJI肤色还原LUT_7.DJI_20260422222336_0031_D.cube
TITLE "Generated by Resolve"
LUT_3D_SIZE 9
0 0 0
0.178882 0.00808728 0.00315862
0.410819 0.0286259 0.023621
0.693004 0.0491188 0.0440375
1 0.0696574 0.0644999
1 0.0845502 0.0793317
1 0.0845502 0.0793317
1 0.0845502 0.0793317
1 0.0845197 0.0792859
0 0.130678 0
0.0609903 0.11075 0
0.344488 0.095491 0
0.675731 0.0479591 0.0428931
1 0.0690776 0.06392
1 0.0845655 0.0793317
1 0.0845655 0.0793469
1 0.0845655 0.0793469
1 0.084535 0.0793164
0 0.362722 0
0 0.355764 0
0.267613 0.336645 0
0.589166 0.310552 0
0.930129 0.240345 0.000228885
1 0.0845655 0.0793317
1 0.0845655 0.0793469
1 0.0845502 0.0793317
1 0.0845502 0.0793164
0.0118715 0.617655 0
0.0116274 0.614466 0
0.0113222 0.609369 0
0.506477 0.57821 0
0.870741 0.54931 0
1 0.508293 0
1 0.468467 0
1 0.446342 0
1 0.437385 0
0.0307774 0.897932 0.0168612
0.0306401 0.896193 0.0167239
0.0304417 0.893416 0.016556
0.23859 0.869566 0
0.776379 0.839948 0
1 0.815381 0
1 0.796857 0
1 0.787411 0
1 0.783703 0
0.0489662 1 0.0348211
0.0488594 1 0.0347143
0.0487221 1 0.0345769
0.0483406 1 0.0342107
0.612818 1 0
1 1 0
1 1 0
1 1 0
1 1 0
0.0555886 1 0.0413672
0.0555581 1 0.0413367
0.0555734 1 0.0413367
0.0555734 1 0.0413367
0.400656 1 0.0142367
0.933364 1 0
1 1 0
1 1 0
1 1 0
0.0556039 1 0.0413977
0.0555734 1 0.0413519
0.0555734 1 0.0413519
0.0555734 1 0.0413367
0.163882 1 0.0291905
0.885863 1 0
1 1 0
1 1 0
1 1 0
0.0556039 1 0.041413
0.0555886 1 0.0413672
0.0555734 1 0.0413519
0.0555886 1 0.0413825
0.0555886 1 0.0413825
0.866545 1 0
1 1 0
1 1 0
1 1 0
0 0 0.140429
0.16144 0.00364691 0.150729
0.400717 0.0236515 0.157061
0.685954 0.0446326 0.13904
1 0.0695811 0.0644236
1 0.0845808 0.0793622
1 0.0845655 0.0793469
1 0.0845655 0.0793469
1 0.0845502 0.0793164
0 0.0815442 0.0811627
0.0420081 0.0602731 0.0710918
0.347005 0.0470283 0.0805371
0.67245 0.0473945 0.0509957
1 0.0690166 0.0638743
1 0.0845808 0.0793774
1 0.0845808 0.0793622
1 0.0845808 0.0793622
1 0.0845808 0.0793622
0 0.345724 0
0 0.338308 0
0.259953 0.319036 0
0.587121 0.291279 0
0.932708 0.212543 0.00453193
1 0.0845808 0.0793622
1 0.0845655 0.0793469
1 0.0845655 0.0793469
1 0.0845655 0.0793469
0.011429 0.609979 0
0.0112001 0.606714 0
0.0108797 0.601526 0
0.502831 0.570397 0
0.869154 0.541039 0
1 0.499062 0
1 0.458015 0
1 0.435096 0
1 0.425772 0
0.030518 0.893736 0.0166476
0.0303807 0.891981 0.016495
0.0301671 0.889174 0.0162966
0.229282 0.865751 0
0.774304 0.835721 0
1 0.811002 0
1 0.79234 0
1 0.782788 0
1 0.779065 0
0.0487526 1 0.034638
0.048661 1 0.0345312
0.0485084 1 0.0343786
0.048127 1 0.0339971
0.609903 1 0
1 1 0
1 1 0
1 1 0
1 1 0
0.0556039 1 0.0413977
0.0555886 1 0.0413672
0.0555734 1 0.0413519
0.0555734 1 0.0413519
0.395621 1 0.0144808
0.931868 1 0
1 1 0
1 1 0
1 1 0
0.0555886 1 0.0413825
0.0555886 1 0.0413672
0.0555734 1 0.0413367
0.0555734 1 0.0413519
0.150225 1 0.0303655
0.88423 1 0
1 1 0
1 1 0
1 1 0
0.0556039 1 0.041413
0.0555886 1 0.0413672
0.0555886 1 0.0413672
0.0555886 1 0.0413672
0.0555886 1 0.0413672
0.864881 1 0
1 1 0
1 1 0
1 1 0
0.0102083 0.00294499 0.386938
0.142123 0.0077821 0.389181
0.392996 0.0243076 0.401175
0.679713 0.0423285 0.40618
1 0.061265 0.395254
1 0.0758679 0.360327
1 0.0765087 0.310292
1 0.0770581 0.278477
1 0.0773175 0.265003
0.00915541 0.00189212 0.368566
0.0365301 0.00134279 0.365011
0.354879 0.0214694 0.380438
0.662165 0.0411536 0.386007
0.995911 0.0608072 0.3729
1 0.0762188 0.33228
1 0.0771954 0.271885
1 0.0780041 0.235325
1 0.0784009 0.220249
0 0.308812 0.317464
0 0.300572 0.31371
0.239322 0.280064 0.300755
0.575998 0.248219 0.292821
0.932555 0.151537 0.284047
1 0.0771191 0.27599
1 0.0789807 0.19939
1 0.0807202 0.151049
1 0.0818036 0.126833
0.00207523 0.589014 0.216922
0.00199893 0.585794 0.210452
0.00189212 0.580652 0.199664
0.489326 0.549996 0.151247
0.861448 0.522271 0.078584
1 0.483818 0
1 0.440635 0
1 0.416266 0
1 0.406302 0
0.0300298 0.887007 0.0161746
0.0298924 0.885222 0.0160372
0.0296788 0.882368 0.0158083
0.213626 0.859678 0
0.770977 0.828901 0
1 0.803967 0
1 0.785046 0
1 0.775372 0
1 0.771588 0
0.0484016 1 0.0342718
0.0483101 1 0.0341802
0.0481575 1 0.0340429
0.047776 1 0.0336614
0.605249 1 0
1 1 0
1 1 0
1 1 0
1 1 0
0.0556039 1 0.0413977
0.0555734 1 0.0413672
0.0555734 1 0.0413519
0.0555734 1 0.0413519
0.387427 1 0.0149081
0.929473 1 0
1 1 0
1 1 0
1 1 0
0.0555886 1 0.0413825
0.0555734 1 0.0413519
0.0555734 1 0.0413367
0.0555581 1 0.0413367
0.12784 1 0.0324102
0.881651 1 0
1 1 0
1 1 0
1 1 0
0.0556039 1 0.041413
0.0555886 1 0.0413672
0.0555886 1 0.0413825
0.0555886 1 0.0413672
0.0555886 1 0.0413825
0.862196 1 0
1 1 0
1 1 0
1 1 0
0.024979 0.0176242 0.636164
0.0855879 0.0164187 0.633799
0.373968 0.0296483 0.645396
0.671839 0.045716 0.656107
1 0.0628672 0.661265
1 0.0761273 0.657359
1 0.0759899 0.643076
1 0.0759289 0.635706
1 0.0758679 0.632822
0.024506 0.0171664 0.628275
0.0244297 0.0170901 0.626932
0.332769 0.0271916 0.635401
0.653895 0.0445869 0.647349
0.991089 0.0622568 0.65275
1 0.0760662 0.648951
1 0.0759289 0.634287
1 0.0758679 0.626703
1 0.0758068 0.623743
0 0.21207 0.583566
0 0.19913 0.582406
0.209644 0.172763 0.577127
0.583535 0.120653 0.592538
0.975052 0.0612192 0.638819
1 0.0759289 0.635172
1 0.0757916 0.619837
1 0.0757305 0.611902
1 0.0757 0.608804
0 0.551812 0.556252
0 0.548165 0.554604
0 0.542336 0.55201
0.469505 0.509758 0.528389
0.848173 0.476173 0.516182
1 0.426642 0.502983
1 0.376318 0.490227
1 0.346838 0.484047
1 0.334493 0.481819
0.0154726 0.855573 0.48246
0.0153658 0.853758 0.480369
0.015198 0.850858 0.477012
0.151369 0.830579 0.455283
0.748363 0.796613 0.417487
1 0.771084 0.385809
1 0.751888 0.359548
1 0.742061 0.345281
1 0.738231 0.339559
0.0369726 1 0.276905
0.0370184 1 0.271427
0.0371099 1 0.262409
0.0374914 1 0.235813
0.585458 1 0.134936
1 1 0
1 1 0
1 1 0
1 1 0
0.0555886 1 0.0413825
0.0555886 1 0.0413672
0.0555734 1 0.0413519
0.0555734 1 0.0413519
0.36437 1 0.016083
0.923049 1 0
1 1 0
1 1 0
1 1 0
0.0555886 1 0.0413825
0.0555734 1 0.0413367
0.0555734 1 0.0413367
0.0555581 1 0.0413367
0.0555886 1 0.0413672
0.874693 1 0
1 1 0
1 1 0
1 1 0
0.0556039 1 0.0413977
0.0555886 1 0.0413825
0.0555734 1 0.0413519
0.0555734 1 0.0413519
0.0555886 1 0.0413825
0.855024 1 0
1 1 0
1 1 0
1 1 0
0.0412909 0.0338445 0.899916
0.0412451 0.0337987 0.899214
0.322103 0.0375677 0.90222
0.652949 0.0522469 0.914321
0.992187 0.0679026 0.923842
1 0.0805829 0.927779
1 0.080415 0.920699
1 0.0803388 0.917128
1 0.080293 0.91574
0.0410315 0.0336004 0.895735
0.0409857 0.0335546 0.895033
0.26978 0.0353552 0.895994
0.634134 0.0512551 0.909346
0.982101 0.0673381 0.919264
1 0.0804913 0.923583
1 0.0803388 0.916442
1 0.0802625 0.912825
1 0.0802167 0.911437
0.0406195 0.0332036 0.889036
0.0405585 0.0331273 0.888319
0.14963 0.0313573 0.885573
0.602548 0.0495308 0.901274
0.965789 0.066392 0.911894
1 0.0799725 0.916487
1 0.0801862 0.909606
1 0.0801099 0.905959
1 0.0800641 0.90454
0 0.46746 0.831739
0 0.462791 0.830884
0 0.455268 0.829557
0.437934 0.42034 0.812421
0.839612 0.37615 0.810987
1 0.301427 0.816342
1 0.207019 0.827558
1 0.139681 0.8448
1 0.111086 0.857359
0.0136873 0.814755 0.806729
0.0135653 0.812787 0.805844
0.0133822 0.809628 0.80444
0.0128939 0.801144 0.800671
0.728206 0.753628 0.763638
1 0.725567 0.751171
1 0.704158 0.74313
1 0.693111 0.739101
1 0.688777 0.737545
0.0297093 1 0.761074
0.0296178 1 0.760098
0.0294652 1 0.758526
0.029099 1 0.754345
0.547478 1 0.713085
0.973831 0.999451 0.690517
1 0.984054 0.678111
1 0.977615 0.673075
1 0.975113 0.671107
0.03888 1 0.713191
0.03888 1 0.712139
0.03888 1 0.710491
0.03888 1 0.706065
0.290089 1 0.67425
0.890944 1 0.637125
1 1 0.620615
1 1 0.613733
1 1 0.611383
0.0390021 1 0.681254
0.0389868 1 0.68011
0.0390021 1 0.678309
0.0390021 1 0.673457
0.0390784 1 0.662882
0.842023 1 0.6038
1 1 0.585809
1 1 0.577798
1 1 0.57528
0.0390784 1 0.668177
0.0390784 1 0.666987
0.0390631 1 0.66511
0.0390936 1 0.66009
0.0391699 1 0.649088
0.821973 1 0.589929
1 1 0.571115
1 1 0.562631
1 1 0.559899
0.0555428 0.0480201 1
0.0555123 0.0479896 1
0.209888 0.0454719 1
0.622156 0.059205 1
0.97818 0.0738384 1
1 0.0860914 1
1 0.0861524 1
1 0.0860914 1
1 0.0860456 1
0.0553597 0.0478523 1
0.0553292 0.0478218 1
0.118379 0.0447547 1
0.601694 0.0582742 1
0.967834 0.0733349 1
1 0.0857404 1
1 0.0860914 1
1 0.0860304 1
1 0.0859693 1
0.0550851 0.0475929 1
0.0550546 0.0475319 1
0.0550088 0.0475013 1
0.567086 0.0567178 1
0.95108 0.0724804 1
1 0.0851606 1
1 0.0859541 1
1 0.085893 1
1 0.0858473 1
0.00672923 0.286473 1
0.00698863 0.27718 1
0.00755322 0.261601 1
0.401389 0.207767 1
0.884916 0.0893873 1
1 0.0835431 1
1 0.0856184 1
1 0.0855421 1
1 0.0855116 1
0.0141909 0.754818 1
0.0140688 0.752575 1
0.013901 0.749004 1
0.0134279 0.739361 1
0.703304 0.691005 1
1 0.659419 0.995071
1 0.634638 0.99086
1 0.621592 0.988769
1 0.616464 0.987976
0.0290379 1 1
0.0289464 1 1
0.028809 1 1
0.0284276 1 1
0.506416 0.988357 0.977768
0.955947 0.960662 0.959915
1 0.944152 0.951568
1 0.93724 0.948821
1 0.934554 0.947753
0.0390784 1 0.99675
0.0389868 1 0.996139
0.0388495 1 0.995163
0.038529 1 0.992569
0.173144 1 0.972671
0.869017 1 0.93492
1 1 0.923796
1 1 0.919738
1 1 0.918578
0.0395209 1 0.981125
0.0394751 1 0.980545
0.0394751 1 0.979675
0.0394598 1 0.977295
0.0394293 1 0.972213
0.819364 1 0.921187
1 1 0.909224
1 1 0.904479
1 1 0.903258
0.0394751 1 0.974746
0.0394598 1 0.974182
0.0394598 1 0.973281
0.0394446 1 0.970886
0.0393988 1 0.965728
0.798398 1 0.915221
1 1 0.902876
1 1 0.898024
1 1 0.896574
0.0616159 0.0540627 1
0.0616312 0.054078 1
0.0616312 0.054078 1
0.592523 0.0621195 1
0.964767 0.0767071 1
1 0.0888228 1
1 0.0894789 1
1 0.0894636 1
1 0.0894484 1
0.0616312 0.0540932 1
0.0616312 0.054078 1
0.0616312 0.0540932 1
0.570489 0.0613107 1
0.954253 0.0762951 1
1 0.0885634 1
1 0.0894942 1
1 0.0894789 1
1 0.0894636 1
0.0616312 0.054078 1
0.0616312 0.054078 1
0.0616312 0.0540932 1
0.532815 0.0599222 1
0.937224 0.0755932 1
1 0.0881208 1
1 0.0894789 1
1 0.0894789 1
1 0.0894636 1
0.0616312 0.0540932 1
0.0616312 0.054078 1
0.0616159 0.0540627 1
0.40734 0.0556497 1
0.889372 0.0736706 1
1 0.0869001 1
1 0.0894789 1
1 0.0894636 1
1 0.0894789 1
0.0149081 0.700908 1
0.0148013 0.69839 1
0.0146487 0.694377 1
0.0142367 0.683467 1
0.683406 0.634058 1
1 0.59855 1
1 0.569757 1
1 0.554238 1
1 0.548074 1
0.0291752 1 1
0.0290837 1 1
0.0289464 1 1
0.0285649 0.99971 1
0.47129 0.958083 1
0.942397 0.928756 1
1 0.911528 1
1 0.904097 1
1 0.901259 1
0.038941 1 1
0.0388495 1 1
0.0387121 1 1
0.0383917 1 1
0.0377203 1 1
0.852674 1 1
1 1 1
1 1 1
1 1 1
0.0409705 1 1
0.0409552 1 1
0.04094 1 1
0.0409247 1 1
0.0408942 1 1
0.802396 1 1
1 1 1
1 1 1
1 1 1
0.0409552 1 1
0.0409247 1 1
0.0409094 1 1
0.0408942 1 1
0.0408484 1 1
0.780728 1 1
1 1 1
1 1 1
1 1 1
0.0616159 0.0540627 1
0.0616312 0.054078 1
0.0616312 0.054078 1
0.574624 0.0614481 1
0.956207 0.0763561 1
1 0.0885939 1
1 0.0894789 1
1 0.0894636 1
1 0.0894484 1
0.0616312 0.0540932 1
0.0616312 0.054078 1
0.0616312 0.0540932 1
0.551553 0.0606088 1
0.945541 0.0759442 1
1 0.0883497 1
1 0.0894789 1
1 0.0894789 1
1 0.0894636 1
0.0616312 0.0540932 1
0.0616312 0.054078 1
0.0616312 0.054078 1
0.511864 0.0591897 1
0.928267 0.0752422 1
1 0.087892 1
1 0.0894789 1
1 0.0894789 1
1 0.0894636 1
0.0616465 0.0540932 1
0.0616159 0.0540627 1
0.0616159 0.0540627 1
0.376196 0.0546883 1
0.879667 0.0732891 1
1 0.086656 1
1 0.0894789 1
1 0.0894789 1
1 0.0894636 1
0.0137942 0.669779 1
0.0136873 0.667063 1
0.01355 0.662745 1
0.0131685 0.651011 1
0.672236 0.601068 1
1 0.563104 1
1 0.531594 1
1 0.514305 1
1 0.507408 1
0.0287022 0.992859 1
0.0286107 0.991424 1
0.0284886 0.989166 1
0.0281376 0.983078 1
0.452003 0.942061 1
0.935363 0.911971 1
1 0.894392 1
1 0.886717 1
1 0.883787 1
0.038819 1 1
0.0387274 1 1
0.0386206 1 1
0.0383154 1 1
0.0376898 1 1
0.844572 1 1
1 1 1
1 1 1
1 1 1
0.0417945 1 1
0.0417639 1 1
0.0417487 1 1
0.0417487 1 1
0.0417029 1 1
0.793698 1 1
1 1 1
1 1 1
1 1 1
0.0417639 1 1
0.0417334 1 1
0.0417182 1 1
0.0417029 1 1
0.0416571 1 1
0.771862 1 1
1 1 1
1 1 1
1 1 1
0.0616312 0.054078 1
0.0616312 0.054078 1
0.0616312 0.054078 1
0.567529 0.0611887 1
0.95288 0.0762188 1
1 0.0885176 1
1 0.0894636 1
1 0.0894636 1
1 0.0894484 1
0.0616312 0.054078 1
0.0616312 0.054078 1
0.0616312 0.0540932 1
0.544015 0.0603494 1
0.942168 0.0758068 1
1 0.0882429 1
1 0.0894789 1
1 0.0894942 1
1 0.0894636 1
0.0616312 0.0540932 1
0.0616312 0.054078 1
0.0616312 0.054078 1
0.503471 0.0588846 1
0.924788 0.0751049 1
1 0.0878004 1
1 0.0894636 1
1 0.0894636 1
1 0.0894636 1
0.0616465 0.0541238 1
0.0616312 0.054078 1
0.0616312 0.054078 1
0.363241 0.0543069 1
0.875898 0.0731518 1
1 0.0865797 1
1 0.0894942 1
1 0.0894942 1
1 0.0894789 1
0.0133669 0.65716 1
0.0132753 0.654383 1
0.0131228 0.649927 1
0.012726 0.637812 1
0.667887 0.587564 1
1 0.548424 1
1 0.515648 1
1 0.497505 1
1 0.490242 1
0.028397 0.986267 1
0.0282902 0.984833 1
0.0281682 0.982528 1
0.0278172 0.976379 1
0.444114 0.935592 1
0.932479 0.905196 1
1 0.887495 1
1 0.879683 1
1 0.876707 1
0.0385138 1 1
0.0384375 1 1
0.0383307 1 1
0.0380255 1 1
0.0373999 1 1
0.841184 1 1
1 1 1
1 1 1
1 1 1
0.041825 1 1
0.0417945 1 1
0.0418097 1 1
0.0418097 1 1
0.0418097 1 1
0.790097 1 1
1 1 1
1 1 1
1 1 1
0.0419013 1 1
0.0418402 1 1
0.041825 1 1
0.041825 1 1
0.041825 1 1
0.768368 1 1
1 1 1
1 1 1
1 1 1
