DJI肤色还原LUT_7.DJI_20260422222336_0031_D.cube
TITLE "Generated by Resolve"
LUT_3D_SIZE 33
0 0 0
0 0 0
0.0152895 0 0
0.107347 7.62951e-05 0
0.178882 0.00808728 0.00315862
0.235325 0.0136263 0.00866712
0.291279 0.0186923 0.0137331
0.349523 0.0236515 0.0186618
0.410819 0.0286259 0.023621
0.47567 0.0336461 0.0286259
0.544335 0.0387274 0.0336919
0.616861 0.0439002 0.0388342
0.693004 0.0491188 0.0440375
0.772229 0.0543832 0.0492866
0.853635 0.0596017 0.05449
0.935973 0.0647288 0.0595865
1 0.0696574 0.0644999
1 0.074342 0.0691539
1 0.078645 0.0734417
1 0.0825513 0.0773327
1 0.0845502 0.0793317
1 0.0845502 0.0793317
1 0.0845502 0.0793317
1 0.0845502 0.0793317
1 0.0845502 0.0793317
1 0.0845502 0.0793317
1 0.0845655 0.0793469
1 0.0845502 0.0793317
1 0.0845502 0.0793317
1 0.0845502 0.0793164
1 0.084535 0.0793011
1 0.0845197 0.0792859
1 0.0845197 0.0792859
0 0 0
0 0 0
0 0 0
0.080293 0 0
0.155886 0.00567636 0.000762951
0.218463 0.0120241 0.00708019
0.278096 0.0175326 0.0125734
0.338964 0.0227665 0.0177768
0.402228 0.0279393 0.0229496
0.468574 0.0331121 0.0280919
0.53843 0.0383001 0.0332647
0.611902 0.0435645 0.0384985
0.688807 0.0488441 0.0437629
0.768643 0.0541543 0.0490578
0.850538 0.0594034 0.0542916
0.933272 0.0645609 0.0594186
1 0.0695201 0.0643626
1 0.0742046 0.0690318
1 0.0785382 0.0733501
1 0.0824445 0.0772259
1 0.0845502 0.0793164
1 0.0845502 0.0793317
1 0.0845655 0.0793317
1 0.0845502 0.0793317
1 0.0845655 0.0793469
1 0.0845655 0.0793469
1 0.0845655 0.0793317
1 0.0845655 0.0793317
1 0.0845502 0.0793317
1 0.0845502 0.0793164
1 0.084535 0.0793164
1 0.084535 0.0793011
1 0.0845197 0.0792706
0 0 0
0 0 0
0 0 0
0.049485 0 0
0.131289 0.00294499 0
0.199954 0.0102235 0.00527962
0.264012 0.0162661 0.0113069
0.327871 0.0218357 0.0168612
0.393286 0.0272374 0.0222324
0.461265 0.0325322 0.027512
0.532372 0.0378576 0.0328222
0.606821 0.0431983 0.0381323
0.68452 0.0485542 0.043473
0.764981 0.0539101 0.0488136
0.847379 0.059205 0.0540932
0.930526 0.0643931 0.059266
1 0.0693828 0.0642252
1 0.0740826 0.0688945
1 0.0784314 0.073228
1 0.0823682 0.0771496
1 0.0845502 0.0793164
1 0.0845502 0.0793317
1 0.0845502 0.0793164
1 0.0845502 0.0793317
1 0.0845502 0.0793317
1 0.0845502 0.0793317
1 0.0845502 0.0793317
1 0.0845502 0.0793317
1 0.0845502 0.0793317
1 0.0845502 0.0793317
1 0.0845502 0.0793317
1 0.0845502 0.0793164
1 0.084535 0.0793011
0 0.0632486 0
0 0.0576791 0
0 0.0518654 0
0.00851453 0.0453346 0
0.0903639 0.0434882 0
0.162585 0.0429236 0
0.232914 0.0409247 0
0.304585 0.0362249 0.00421149
0.383658 0.0271458 0.0211643
0.453712 0.0319677 0.0269474
0.526146 0.0373999 0.0323644
0.601633 0.0428321 0.0377813
0.68014 0.0482643 0.043183
0.761257 0.053666 0.0485695
0.844175 0.0590066 0.0538949
0.927733 0.06421 0.0590829
1 0.0692302 0.0640726
1 0.0739605 0.0687724
1 0.0783246 0.0731212
1 0.0822614 0.0770428
1 0.0845502 0.0793317
1 0.0845502 0.0793317
1 0.0845502 0.0793317
1 0.0845502 0.0793317
1 0.0845655 0.0793317
1 0.0845655 0.0793317
1 0.0845655 0.0793469
1 0.0845502 0.0793317
1 0.0845655 0.0793469
1 0.0845655 0.0793469
1 0.0845502 0.0793317
1 0.0845502 0.0793164
1 0.084535 0.0793164
0 0.130678 0
0 0.126223 0
0 0.12166 0
0 0.117021 0
0.0609903 0.11075 0
0.132494 0.108049 0
0.205371 0.105333 0
0.274617 0.10132 0
0.344488 0.095491 0
0.417258 0.0872206 0
0.494972 0.0755627 0.00688182
0.582284 0.0583352 0.0232548
0.675731 0.0479591 0.0428931
0.757504 0.0534218 0.0483253
0.840955 0.0588083 0.0536812
0.924941 0.0640574 0.0589151
1 0.0690776 0.06392
1 0.0738231 0.0686503
1 0.0782177 0.0730144
1 0.0821546 0.076936
1 0.0845655 0.0793317
1 0.0845502 0.0793317
1 0.0845502 0.0793317
1 0.0845655 0.0793317
1 0.0845655 0.0793469
1 0.0845655 0.0793469
1 0.0845502 0.0793317
1 0.0845502 0.0793317
1 0.0845655 0.0793469
1 0.0845655 0.0793317
1 0.0845502 0.0793317
1 0.0845502 0.0793317
1 0.084535 0.0793164
0 0.190097 0
0 0.186419 0
0 0.18262 0
0 0.178698 0
0.034226 0.172015 0
0.107256 0.167636 0
0.184955 0.16347 0
0.256794 0.158907 0
0.327428 0.15288 0
0.399512 0.144808 0
0.474662 0.134066 0
0.554086 0.119875 0
0.639216 0.101183 0.0104677
0.734112 0.075761 0.0285039
0.837598 0.0585946 0.0534829
0.922026 0.0638743 0.0587472
1 0.0689403 0.0637827
1 0.0737011 0.068513
1 0.0780957 0.0729076
1 0.0820478 0.0768444
1 0.0845655 0.0793469
1 0.0845655 0.0793317
1 0.0845655 0.0793469
1 0.0845655 0.0793469
1 0.0845655 0.0793469
1 0.0845655 0.0793469
1 0.0845655 0.0793469
1 0.0845655 0.0793469
1 0.0845655 0.0793469
1 0.0845655 0.0793469
1 0.0845655 0.0793469
1 0.0845655 0.0793469
1 0.0845502 0.0793317
0 0.247456 0
0 0.244709 0
0 0.241871 0
0 0.238987 0
0 0.23592 0
0.0770581 0.228763 0
0.160418 0.224765 0
0.237659 0.220798 0
0.310842 0.215839 0
0.383917 0.209232 0
0.458839 0.200229 0
0.536782 0.187747 0
0.618601 0.170199 0
0.704784 0.148379 0.00357061
0.796368 0.121019 0.0160372
0.89836 0.0855726 0.0384985
1 0.0687419 0.0635843
1 0.073518 0.0683452
1 0.0779431 0.0727398
1 0.0819257 0.0767071
1 0.0845502 0.0793317
1 0.0845655 0.0793317
1 0.0845502 0.0793317
1 0.0845655 0.0793469
1 0.0845655 0.0793317
1 0.0845655 0.0793469
1 0.0845655 0.0793469
1 0.0845655 0.0793469
1 0.0845655 0.0793622
1 0.0845655 0.0793469
1 0.0845655 0.0793469
1 0.0845655 0.0793317
1 0.0845502 0.0793164
0 0.30454 0
0 0.302388 0
0 0.300206 0
0 0.297993 0
0 0.29575 0
0.0363622 0.28983 0
0.125566 0.284535 0
0.213626 0.280522 0
0.291936 0.27628 0
0.367803 0.271046 0
0.444099 0.264286 0
0.522286 0.255344 0
0.603052 0.243412 0
0.686656 0.227405 0
0.773175 0.205646 0
0.862928 0.175708 0.00730907
0.956115 0.140063 0.0213779
1 0.0968795 0.0463874
1 0.0777447 0.0725414
1 0.0817426 0.0765393
1 0.0845502 0.0793317
1 0.0845502 0.0793317
1 0.0845655 0.0793469
1 0.0845655 0.0793469
1 0.0845655 0.0793469
1 0.0845655 0.0793469
1 0.0845655 0.0793469
1 0.0845655 0.0793469
1 0.0845808 0.0793622
1 0.0845808 0.0793622
1 0.0845655 0.0793469
1 0.0845655 0.0793469
1 0.0845655 0.0793469
0 0.362722 0
0 0.361028 0
0 0.359289 0
0 0.357534 0
0 0.355764 0
0 0.353918 0
0.0775616 0.345907 0
0.17995 0.340826 0
0.267613 0.336645 0
0.348501 0.332097 0
0.427771 0.326543 0
0.507668 0.319539 0
0.589166 0.310552 0
0.672541 0.29897 0
0.757595 0.284062 0
0.843717 0.264942 0
0.930129 0.240345 0.000228885
1 0.208255 0.00935378
1 0.168017 0.022858
1 0.124422 0.0432593
1 0.0845655 0.0793317
1 0.0845655 0.0793469
1 0.0845502 0.0793317
1 0.0845655 0.0793469
1 0.0845655 0.0793469
1 0.0845502 0.0793317
1 0.0845655 0.0793469
1 0.0845655 0.0793317
1 0.0845502 0.0793317
1 0.0845655 0.0793317
1 0.0845502 0.0793317
1 0.0845502 0.0793317
1 0.0845502 0.0793164
0.000640879 0.422843 0
0.000564584 0.421454 0
0.000488289 0.420066 0
0.000396735 0.418647 0
0.000320439 0.417227 0
0.000244144 0.415747 0
0.00234989 0.413626 0
0.126635 0.403571 0
0.233845 0.39855 0
0.323461 0.394125 0
0.407752 0.389197 0
0.490745 0.383307 0
0.574182 0.376059 0
0.65861 0.36701 0
0.743938 0.355764 0
0.82948 0.341894 0
0.914168 0.325002 0
0.996704 0.304738 0
1 0.280766 0.00106813
1 0.252705 0.00820935
1 0.219699 0.0171817
1 0.180163 0.0268711
1 0.14229 0.0394751
1 0.105287 0.0588235
1 0.0845502 0.0793317
1 0.0845502 0.0793317
1 0.0845502 0.0793317
1 0.0845502 0.0793317
1 0.0845502 0.0793317
1 0.0845655 0.0793317
1 0.0845655 0.0793469
1 0.0845655 0.0793317
1 0.0845502 0.0793317
0.00402838 0.485313 0
0.00395209 0.484184 0
0.00387579 0.48304 0
0.00381476 0.48188 0
0.00373846 0.48072 0
0.00367742 0.479515 0
0.00360113 0.477974 0
0.0460517 0.471519 0
0.182513 0.463249 0
0.289067 0.458213 0
0.381781 0.453452 0
0.469825 0.448173 0
0.556497 0.441962 0
0.643046 0.434485 0
0.729641 0.425437 0
0.815763 0.414618 0
0.900404 0.401846 0
0.982223 0.387091 0
1 0.370474 0
1 0.35227 0
1 0.332891 0
1 0.311131 0.0021973
1 0.289311 0.00511177
1 0.268086 0.00830091
1 0.24799 0.0116884
1 0.229419 0.015198
1 0.21268 0.0187533
1 0.197894 0.0222019
1 0.186252 0.0252079
1 0.177005 0.0277562
1 0.169757 0.0299382
1 0.16408 0.031693
1 0.159701 0.0331426
0.00776684 0.550301 0
0.00770581 0.549355 0
0.00766003 0.548409 0
0.00758373 0.547448 0
0.00753796 0.546487 0
0.00746166 0.545495 0
0.00740063 0.544228 0
0.00729381 0.54255 0
0.0930343 0.532998 0
0.238346 0.52517 0
0.346532 0.519951 0
0.442802 0.514839 0
0.534569 0.509209 0
0.62446 0.502708 0
0.713314 0.495094 0
0.800885 0.486198 0
0.886351 0.475944 0
0.968475 0.464393 0
1 0.451743 0
1 0.4383 0
1 0.424491 0
1 0.409689 0
1 0.395331 0
1 0.382071 0
1 0.370214 0
1 0.359899 0
1 0.351171 0
1 0.343938 0
1 0.338048 0
1 0.333349 0
1 0.329625 0
1 0.326711 0.000335698
1 0.324437 0.000595102
0.0118715 0.617655 0
0.0118105 0.616876 0
0.0117647 0.616083 0
0.0117037 0.615274 0
0.0116274 0.614466 0
0.0115663 0.613626 0
0.0115053 0.612558 0
0.011429 0.61117 0
0.0113222 0.609369 0
0.151644 0.596506 0
0.295995 0.589151 0
0.406668 0.583658 0
0.506477 0.57821 0
0.60148 0.572259 0
0.693751 0.56553 0
0.783673 0.5579 0
0.870741 0.54931 0
0.953872 0.539818 0
1 0.52961 0
1 0.518975 0
1 0.508293 0
1 0.497246 0
1 0.486595 0
1 0.476936 0
1 0.468467 0
1 0.461234 0
1 0.455207 0
1 0.450294 0
1 0.446342 0
1 0.443214 0
1 0.440757 0
1 0.438865 0
1 0.437385 0
0.0162661 0.686961 0.00262455
0.0162203 0.68629 0.00256352
0.0161746 0.685618 0.00251774
0.0161288 0.684947 0.00248722
0.016083 0.68426 0.00242618
0.0160372 0.683558 0.00236515
0.0159609 0.682658 0.00230411
0.0158999 0.681483 0.00224308
0.0157931 0.679957 0.00215152
0.015671 0.677989 0.00202945
0.215534 0.661814 0
0.356451 0.654734 0
0.469688 0.648966 0
0.572488 0.643198 0
0.669825 0.636988 0
0.763195 0.630167 0
0.852644 0.62266 0
0.937453 0.614542 0
1 0.605966 0
1 0.597162 0
1 0.588434 0
1 0.579751 0
1 0.571374 0
1 0.563836 0
1 0.557305 0
1 0.551766 0
1 0.547189 0
1 0.543481 0
1 0.540505 0
1 0.53817 0
1 0.536339 0
1 0.534936 0
1 0.533822 0
0.0209506 0.757504 0.00721752
0.0209201 0.756939 0.00717174
0.0208743 0.756359 0.00712596
0.0208286 0.755779 0.00708019
0.0207828 0.755199 0.00704967
0.0207523 0.754589 0.00700389
0.0206912 0.753826 0.00695811
0.0206302 0.752819 0.00689708
0.0205386 0.751522 0.00680552
0.0204318 0.749844 0.00669871
0.0531167 0.743511 0.00231937
0.281224 0.728222 0
0.420188 0.721218 0
0.535409 0.715175 0
0.640177 0.709133 0
0.73846 0.70277 0
0.831312 0.695979 0
0.918486 0.688777 0
0.999237 0.6813 0
1 0.673732 0
1 0.666316 0
1 0.65922 0
1 0.652369 0
1 0.64625 0
1 0.64097 0
1 0.63653 0
1 0.632868 0
1 0.629908 0
1 0.627543 0
1 0.625681 0
1 0.624231 0
1 0.623102 0
1 0.622248 0
0.0258183 0.828244 0.0119783
0.0257725 0.827756 0.0119478
0.025742 0.827253 0.0119173
0.0256962 0.826749 0.0118715
0.0256657 0.826246 0.011841
0.0256352 0.825727 0.0118105
0.0255894 0.825055 0.0117494
0.0255283 0.824201 0.0116884
0.025452 0.823072 0.0116121
0.0253452 0.821622 0.0115206
0.0252232 0.819776 0.0113985
0.139345 0.806714 0.000274662
0.350301 0.794568 0
0.487297 0.787549 0
0.603342 0.781308 0
0.708553 0.775097 0
0.806043 0.768719 0
0.896468 0.762097 0
0.979522 0.755352 0
1 0.748638 0
1 0.742138 0
1 0.736034 0
1 0.730312 0
1 0.7252 0
1 0.720806 0
1 0.717113 0
1 0.714076 0
1 0.711635 0
1 0.709682 0
1 0.708156 0
1 0.706966 0
1 0.706035 0
1 0.705318 0
0.0307774 0.897932 0.0168612
0.0307469 0.897505 0.016846
0.0307164 0.897078 0.0168154
0.0306706 0.896635 0.0167697
0.0306401 0.896193 0.0167239
0.0306096 0.895735 0.0167086
0.0305791 0.895155 0.0166781
0.0305028 0.894392 0.0166018
0.0304417 0.893416 0.016556
0.0303502 0.892149 0.0164492
0.0302281 0.890532 0.0163424
0.0300908 0.888487 0.0161898
0.23859 0.869566 0
0.423301 0.859556 0
0.557458 0.852567 0
0.672618 0.846204 0
0.776379 0.839948 0
0.871061 0.833677 0
0.957122 0.82742 0
1 0.821271 0
1 0.815381 0
1 0.809918 0
1 0.804974 0
1 0.80061 0
1 0.796857 0
1 0.793713 0
1 0.791135 0
1 0.789059 0
1 0.787411 0
1 0.786114 0
1 0.785092 0
1 0.784314 0
1 0.783703 0
0.0356909 0.965164 0.0217288
0.0356603 0.964782 0.0216831
0.0356298 0.964401 0.0216678
0.0355993 0.964004 0.021622
0.035584 0.963623 0.0216068
0.0355535 0.963211 0.0215763
0.0355077 0.962692 0.0215305
0.035462 0.96202 0.0214847
0.0354009 0.961151 0.0214237
0.0353094 0.960021 0.0213321
0.0352026 0.958602 0.0212253
0.0350805 0.956786 0.0211185
0.0349126 0.954528 0.0209506
0.332876 0.930709 0
0.499992 0.921828 0
0.629801 0.9149 0
0.742061 0.908553 0
0.842222 0.902388 0
0.932052 0.896391 0
1 0.890608 0
1 0.88513 0
1 0.880095 0
1 0.875639 0
1 0.871824 0
1 0.868559 0
1 0.865812 0
1 0.863584 0
1 0.861769 0
1 0.860334 0
1 0.85922 0
1 0.858335 0
1 0.857664 0
1 0.85713 0
0.0404517 1 0.0264134
0.0404059 1 0.0263676
0.0403906 1 0.0263371
0.0403601 1 0.0263218
0.0403296 1 0.0262913
0.0403143 1 0.026276
0.0402838 1 0.0262455
0.0402228 1 0.0261845
0.040177 1 0.0261387
0.0401007 1 0.0260624
0.0399939 1 0.0259556
0.0398871 1 0.0258488
0.0397345 1 0.0257115
0.174075 1 0.0121767
0.426596 0.988144 0
0.579339 0.980026 0
0.703075 0.973266 0
0.810208 0.967041 0
0.904631 0.961135 0
0.987701 0.95555 0
1 0.950347 0
1 0.945602 0
1 0.94139 0
1 0.937926 0
1 0.935027 0
1 0.932601 0
1 0.930617 0
1 0.929015 0
1 0.927749 0
1 0.926757 0
1 0.925978 0
1 0.925368 0
1 0.92491 0
0.0449073 1 0.0308232
0.0448768 1 0.0307927
0.0448463 1 0.0307469
0.044831 1 0.0307317
0.0448005 1 0.0306859
0.0447852 1 0.0306859
0.0447547 1 0.0306554
0.0446937 1 0.0306096
0.0446479 1 0.0305486
0.0445716 1 0.0304875
0.0444953 1 0.0304112
0.0443732 1 0.0302892
0.0442359 1 0.0301518
0.0440681 1 0.029984
0.327016 1 0.00737011
0.520272 1 0
0.6598 1 0
0.775601 1 0
0.875502 1 0
0.96228 1 0
1 1 0
1 1 0
1 1 0
1 0.998047 0
1 0.995422 0
1 0.993225 0
1 0.99144 0
1 0.990005 0
1 0.988861 0
1 0.987961 0
1 0.987259 0
1 0.986725 0
1 0.986297 0
0.0489662 1 0.0348211
0.0489357 1 0.0347906
0.0489204 1 0.0347753
0.0488899 1 0.0347448
0.0488594 1 0.0347143
0.0488441 1 0.034699
0.0488136 1 0.0346685
0.0487678 1 0.0346227
0.0487221 1 0.0345769
0.048661 1 0.0345159
0.0485695 1 0.0344244
0.0484779 1 0.0343328
0.0483406 1 0.0342107
0.048188 1 0.0340581
0.154986 1 0.0221256
0.450904 1 0.00518807
0.612818 1 0
0.739315 1 0
0.845533 1 0
0.936446 1 0
1 1 0
1 1 0
1 1 0
1 1 0
1 1 0
1 1 0
1 1 0
1 1 0
1 1 0
1 1 0
1 1 0
1 1 0
1 1 0
0.0525521 1 0.0383612
0.0525368 1 0.0383459
0.0525063 1 0.0383154
0.052491 1 0.0383001
0.0524605 1 0.0382696
0.0524453 1 0.0382544
0.0524147 1 0.0382239
0.052369 1 0.0381781
0.0523232 1 0.0381323
0.0522621 1 0.0380713
0.0521706 1 0.0379797
0.052079 1 0.0378729
0.051957 1 0.0377661
0.0518044 1 0.0376287
0.0516213 1 0.0374304
0.367391 1 0.0121462
0.562921 1 0.00367742
0.702434 1 0
0.815747 1 0
0.911086 1 0
0.991775 1 0
1 1 0
1 1 0
1 1 0
1 1 0
1 1 0
1 1 0
1 1 0
1 1 0
1 1 0
1 1 0
1 1 0
1 1 0
0.0555734 1 0.0413519
0.0555734 1 0.0413367
0.0555734 1 0.0413367
0.0555581 1 0.0413214
0.0555734 1 0.0413367
0.0555581 1 0.0413367
0.0555276 1 0.0412909
0.0554971 1 0.0412604
0.0554513 1 0.0412146
0.0553902 1 0.0411536
0.055314 1 0.0410925
0.0552071 1 0.0409857
0.0551003 1 0.0408789
0.0549477 1 0.0407111
0.0547799 1 0.0405737
0.257557 1 0.0213474
0.510979 1 0.00822461
0.666117 1 0.0024567
0.787137 1 0
0.887083 1 0
0.970794 1 0
1 1 0
1 1 0
1 1 0
1 1 0
1 1 0
1 1 0
1 1 0
1 1 0
1 1 0
1 1 0
1 1 0
1 1 0
0.0555886 1 0.0413672
0.0555886 1 0.0413672
0.0555734 1 0.0413519
0.0555581 1 0.0413367
0.0555581 1 0.0413367
0.0555734 1 0.0413367
0.0555734 1 0.0413367
0.0555734 1 0.0413367
0.0555734 1 0.0413519
0.0555734 1 0.0413519
0.0555581 1 0.0413214
0.0555734 1 0.0413367
0.0555734 1 0.0413367
0.0555734 1 0.0413519
0.0555734 1 0.0413367
0.0744335 1 0.0384222
0.456565 1 0.0115969
0.630549 1 0.00476081
0.75993 1 0.000747692
0.864683 1 0
0.951507 1 0
1 1 0
1 1 0
1 1 0
1 1 0
1 1 0
1 1 0
1 1 0
1 1 0
1 1 0
1 1 0
1 1 0
1 1 0
0.0555886 1 0.0413672
0.0555734 1 0.0413519
0.0555886 1 0.0413672
0.0555734 1 0.0413367
0.0555581 1 0.0413367
0.0555581 1 0.0413367
0.0555581 1 0.0413367
0.0555734 1 0.0413519
0.0555734 1 0.0413367
0.0555734 1 0.0413519
0.0555734 1 0.0413367
0.0555734 1 0.0413367
0.0555734 1 0.0413367
0.0555734 1 0.0413367
0.0555734 1 0.0413672
0.0555734 1 0.0413519
0.400656 1 0.0142367
0.596704 1 0.00595102
0.734447 1 0.00149538
0.843717 1 0
0.933364 1 0
1 1 0
1 1 0
1 1 0
1 1 0
1 1 0
1 1 0
1 1 0
1 1 0
1 1 0
1 1 0
1 1 0
1 1 0
0.0555886 1 0.0413825
0.0555734 1 0.0413672
0.0555734 1 0.0413519
0.0555886 1 0.0413672
0.0555734 1 0.0413519
0.0555734 1 0.0413519
0.0555734 1 0.0413519
0.0555734 1 0.0413519
0.0555734 1 0.0413519
0.0555734 1 0.0413519
0.0555734 1 0.0413672
0.0555734 1 0.0413519
0.0555734 1 0.0413672
0.0555734 1 0.0413519
0.0555886 1 0.0413672
0.0555886 1 0.0413825
0.344411 1 0.0171664
0.566293 1 0.00709545
0.7122 1 0.00215152
0.825681 1 0
0.917876 1 0
0.993515 1 0
1 1 0
1 1 0
1 1 0
1 1 0
1 1 0
1 1 0
1 1 0
1 1 0
1 1 0
1 1 0
1 1 0
0.0556039 1 0.0413977
0.0555886 1 0.0413825
0.0555886 1 0.0413672
0.0555734 1 0.0413519
0.0555734 1 0.0413519
0.0555734 1 0.0413519
0.0555734 1 0.0413672
0.0555886 1 0.0413672
0.0555886 1 0.0413672
0.0555886 1 0.0413672
0.0555734 1 0.0413519
0.0555734 1 0.0413519
0.0555734 1 0.0413519
0.0555734 1 0.0413519
0.0555886 1 0.0413672
0.0555886 1 0.0413825
0.287419 1 0.0204623
0.539666 1 0.0081178
0.693294 1 0.00274662
0.810513 1 0
0.904936 1 0
0.982025 1 0
1 1 0
1 1 0
1 1 0
1 1 0
1 1 0
1 1 0
1 1 0
1 1 0
1 1 0
1 1 0
1 1 0
0.0555886 1 0.0413825
0.0555734 1 0.0413672
0.0555734 1 0.0413519
0.0555734 1 0.0413519
0.0555734 1 0.0413367
0.0555734 1 0.0413367
0.0555581 1 0.0413367
0.0555734 1 0.0413519
0.0555734 1 0.0413519
