DJI肤色还原LUT_7.DJI_20260422222336_0031_D.cube
TITLE "Generated by Resolve"
LUT_3D_SIZE 5
0 0 0
0.410819 0.0286259 0.023621
1 0.0696574 0.0644999
1 0.0845502 0.0793317
1 0.0845197 0.0792859
0 0.362722 0
0.267613 0.336645 0
0.930129 0.240345 0.000228885
1 0.0845655 0.0793469
1 0.0845502 0.0793164
0.0307774 0.897932 0.0168612
0.0304417 0.893416 0.016556
0.776379 0.839948 0
1 0.796857 0
1 0.783703 0
0.0555886 1 0.0413672
0.0555734 1 0.0413367
0.400656 1 0.0142367
1 1 0
1 1 0
0.0556039 1 0.041413
0.0555734 1 0.0413519
0.0555886 1 0.0413825
1 1 0
1 1 0
0.0102083 0.00294499 0.386938
0.392996 0.0243076 0.401175
1 0.061265 0.395254
1 0.0765087 0.310292
1 0.0773175 0.265003
0 0.308812 0.317464
0.239322 0.280064 0.300755
0.932555 0.151537 0.284047
1 0.0789807 0.19939
1 0.0818036 0.126833
0.0300298 0.887007 0.0161746
0.0296788 0.882368 0.0158083
0.770977 0.828901 0
1 0.785046 0
1 0.771588 0
0.0556039 1 0.0413977
0.0555734 1 0.0413519
0.387427 1 0.0149081
1 1 0
1 1 0
0.0556039 1 0.041413
0.0555886 1 0.0413825
0.0555886 1 0.0413825
1 1 0
1 1 0
0.0412909 0.0338445 0.899916
0.322103 0.0375677 0.90222
0.992187 0.0679026 0.923842
1 0.080415 0.920699
1 0.080293 0.91574
0.0406195 0.0332036 0.889036
0.14963 0.0313573 0.885573
0.965789 0.066392 0.911894
1 0.0801862 0.909606
1 0.0800641 0.90454
0.0136873 0.814755 0.806729
0.0133822 0.809628 0.80444
0.728206 0.753628 0.763638
1 0.704158 0.74313
1 0.688777 0.737545
0.03888 1 0.713191
0.03888 1 0.710491
0.290089 1 0.67425
1 1 0.620615
1 1 0.611383
0.0390784 1 0.668177
0.0390631 1 0.66511
0.0391699 1 0.649088
1 1 0.571115
1 1 0.559899
0.0616159 0.0540627 1
0.0616312 0.054078 1
0.964767 0.0767071 1
1 0.0894789 1
1 0.0894484 1
0.0616312 0.054078 1
0.0616312 0.0540932 1
0.937224 0.0755932 1
1 0.0894789 1
1 0.0894636 1
0.0149081 0.700908 1
0.0146487 0.694377 1
0.683406 0.634058 1
1 0.569757 1
1 0.548074 1
0.038941 1 1
0.0387121 1 1
0.0377203 1 1
1 1 1
1 1 1
0.0409552 1 1
0.0409094 1 1
0.0408484 1 1
1 1 1
1 1 1
0.0616312 0.054078 1
0.0616312 0.054078 1
0.95288 0.0762188 1
1 0.0894636 1
1 0.0894484 1
0.0616312 0.0540932 1
0.0616312 0.054078 1
0.924788 0.0751049 1
1 0.0894636 1
1 0.0894636 1
0.0133669 0.65716 1
0.0131228 0.649927 1
0.667887 0.587564 1
1 0.515648 1
1 0.490242 1
0.0385138 1 1
0.0383307 1 1
0.0373999 1 1
1 1 1
1 1 1
0.0419013 1 1
0.041825 1 1
0.041825 1 1
1 1 1
1 1 1
