DJI阴天还原LUT_8.DJI_20260421172911_0029_D.cube
TITLE "Generated by Resolve"
LUT_3D_SIZE 9
0 0 0
0.0155184 0 0
0.291859 0 0
0.560067 0 0
0.834669 0 0
1 0 0
1 0 0
1 0 0
1 0 0
0 0 0
0.00234989 0 0
0.213184 0 0
0.493797 0 0
0.793332 0 0
0.999359 0 0
1 0 0
1 0 0
1 0 0
0 0.209857 0
0 0.205097 0
0.20383 0.181415 0
0.40856 0.167361 0
0.591592 0.162753 0
0.770321 0.159075 0
0.944213 0.158572 0
1 0.155001 0
1 0.148745 0
0 0.433066 0
0 0.422599 0
0.105394 0.389319 0
0.352377 0.36321 0
0.559731 0.338689 0
0.701274 0.328984 0
0.863111 0.323796 0
0.999954 0.321813 0
1 0.318135 0
0 0.594003 0
0 0.585199 0
0.0255741 0.553704 0
0.257511 0.529076 0
0.480369 0.505577 0
0.682078 0.483192 0
0.807813 0.472389 0
0.936645 0.468177 0
0.937713 0.465522 0
0 0.73463 0
0 0.727459 0
0 0.700221 0
0.179965 0.677729 0
0.390814 0.65568 0
0.596262 0.635111 0
0.789349 0.615915 0
0.898085 0.60621 0.00296025
0.898039 0.604486 0.00317388
0 0.861555 0
0 0.854688 0
0 0.834821 0
0.119997 0.816144 0
0.31809 0.797223 0
0.515328 0.778744 0
0.708644 0.761257 0
0.870497 0.747112 0
0.871183 0.745861 0
0 0.980591 0
0 0.970352 0
0 0.953429 0
0.0820478 0.934844 0
0.267491 0.915862 0
0.455802 0.89778 0
0.643183 0.880888 0
0.80325 0.867521 0
0.80325 0.867521 0
0 0.983398 0
0 0.970977 0
0 0.95404 0
0.0772869 0.935332 0
0.263188 0.916289 0
0.452415 0.898085 0
0.640589 0.881117 0
0.80325 0.867521 0
0.80325 0.867521 0
0 0 0.00854505
0.0141451 0 0
0.289647 0 0
0.559518 0 0
0.833326 0 0
1 0 0
1 0 0
1 0 0
1 0 0
0 0 0
0.00410468 0 0
0.269841 0 0
0.56347 0 0
0.825132 0 0
1 0 0
1 0 0
1 0 0
1 0 0
0 0.209766 0
0 0.202914 0
0.19823 0.1785 0
0.396643 0.167559 0
0.59556 0.160067 0
0.810254 0.146548 0
0.997818 0.129168 0
1 0.123995 0
1 0.119219 0
0 0.428199 0
0 0.416251 0
0.100053 0.382559 0
0.345693 0.356252 0
0.535164 0.334691 0
0.696773 0.325673 0.000122072
0.864805 0.319585 0.00489815
0.998978 0.316655 0.012192
1 0.313283 0.00833143
0 0.588785 0
0 0.578302 0
0.024567 0.546487 0
0.252171 0.521904 0
0.474342 0.498939 0
0.666026 0.478141 0
0.802121 0.471244 0.0319219
0.933135 0.467948 0.0569619
0.934188 0.465492 0.0540932
0 0.729625 0
0 0.721279 0
0 0.694728 0
0.177966 0.673045 0
0.389105 0.652445 0
0.594873 0.632898 0
0.785168 0.614572 0
0.888747 0.607324 0.0800031
0.888975 0.605753 0.0793164
0 0.860304 0
0 0.852079 0
0 0.833173 0
0.121874 0.814832 0
0.31928 0.796109 0
0.515969 0.778195 0
0.709209 0.761074 0
0.865995 0.747723 0.000320439
0.86656 0.746715 0.000259403
0 0.980545 0.0065156
0 0.967025 0.00424201
0 0.950072 0
0.0862593 0.931426 0.0009308
0.27097 0.912581 0.00129702
0.458762 0.894774 0.00265507
0.646311 0.878004 0.00851453
0.801831 0.865156 0.0226139
0.801846 0.865187 0.0222324
0 0.98088 0.00340276
0 0.967773 0.00355535
0 0.950805 0
0.0815595 0.932052 0
0.267109 0.913069 0.000595102
0.45568 0.89514 0.00170901
0.644007 0.878264 0.00717174
0.801862 0.865202 0.0217746
0.801862 0.865202 0.0217746
0 0 0.278737
0.00981155 0 0.254765
0.277607 0 0.20824
0.548638 0 0.18436
0.822248 0 0.193942
1 0 0.212787
1 0 0.203159
1 0 0.180484
1 0 0.166979
0 0 0.219455
0.0071107 0 0.208469
0.274235 0 0.197391
0.554711 0 0.206867
0.809445 0 0.214588
0.9991 0 0.208423
1 0 0.188891
1 0 0.162173
1 0 0.155993
0 0.199786 0.164263
0 0.191867 0.163134
0.183566 0.167086 0.149889
0.436774 0.147387 0.141649
0.675776 0.128283 0.133761
0.888502 0.114595 0.126619
1 0.10898 0.120317
1 0.11252 0.119249
1 0.107591 0.113497
0 0.414588 0.137285
0 0.402472 0.134234
0.0884871 0.369665 0.110124
0.333898 0.344213 0.0972763
0.517601 0.328466 0.14667
0.704417 0.317205 0.140688
0.92401 0.299763 0.118105
1 0.286122 0.104097
1 0.282216 0.0989548
0 0.576806 0.0979629
0 0.566659 0.0966964
0.0205234 0.535958 0.075288
0.245212 0.512367 0.0643931
0.467521 0.490471 0.058854
0.643397 0.473457 0.135943
0.799191 0.467811 0.166384
0.933379 0.464118 0.174838
0.934478 0.461738 0.171832
0 0.721645 0.0811475
0 0.713008 0.0819867
0 0.687251 0.065919
0.17464 0.66627 0.0579385
0.385245 0.646387 0.0548714
0.590875 0.627329 0.0570535
0.773114 0.610346 0.110933
0.877852 0.605798 0.198611
0.878325 0.604227 0.196963
0 0.854475 0.0873579
0 0.845594 0.0871443
0 0.827726 0.0784314
0.121157 0.809674 0.072694
0.3178 0.791592 0.0707256
0.514015 0.77409 0.0734112
0.707134 0.757336 0.0809339
0.860777 0.744488 0.097322
0.861295 0.743496 0.0964218
0 0.974823 0.107668
0 0.961151 0.107332
0 0.944366 0.102358
0.0874952 0.925902 0.097322
0.271611 0.907332 0.0952773
0.459251 0.889647 0.0974746
0.646616 0.873167 0.10425
0.799146 0.860868 0.113375
0.799161 0.860883 0.112902
0 0.975113 0.102434
0 0.961975 0.102937
0 0.945098 0.0985122
0.0832074 0.926513 0.0939651
0.267964 0.90782 0.092546
0.456382 0.890013 0.0951705
0.644495 0.873426 0.102617
0.799176 0.860914 0.112306
0.799176 0.860914 0.112306
0 0 0.538201
0.00726329 0 0.519432
0.272648 0 0.482368
0.54284 0 0.474189
0.817075 0 0.494331
1 0 0.495918
1 0 0.464714
1 0 0.420798
1 0 0.40621
0 0 0.495933
0.0112459 0 0.493568
0.275395 0 0.490532
0.546456 0 0.499367
0.795087 0 0.498741
0.997848 0 0.477333
1 0 0.439872
1 0 0.396033
1 0 0.390616
0 0.193408 0.456443
0 0.184558 0.452811
0.174075 0.158572 0.433371
0.427008 0.138277 0.419226
0.661891 0.119829 0.402213
0.875227 0.106264 0.381353
1 0.100984 0.360006
1 0.104677 0.344289
1 0.0998703 0.339345
0 0.403601 0.409827
0 0.391745 0.401679
0.0789502 0.359045 0.372656
0.323537 0.334112 0.352209
0.553399 0.311315 0.333761
0.76907 0.291981 0.318151
0.970352 0.278248 0.306691
1 0.271534 0.299794
1 0.267903 0.295689
0 0.56614 0.341009
0 0.555993 0.335821
0.0164492 0.525963 0.311162
0.238254 0.502998 0.294942
0.45977 0.481559 0.282445
0.632029 0.468971 0.322271
0.811948 0.459464 0.314076
0.984176 0.44535 0.293141
0.986908 0.442924 0.289723
0 0.711986 0.293339
0 0.703227 0.290837
0 0.678492 0.272557
0.170428 0.657908 0.260441
0.380255 0.638361 0.25182
0.585367 0.619806 0.246494
0.752987 0.605783 0.310872
0.872724 0.602335 0.33547
0.87335 0.600748 0.333593
0 0.845991 0.267018
0 0.83682 0.264927
0 0.820127 0.255177
0.119478 0.802472 0.246494
0.315053 0.78468 0.240223
0.510765 0.767544 0.237339
0.703456 0.751247 0.238056
0.852461 0.738903 0.25655
0.852827 0.737896 0.256077
0 0.96527 0.255833
0 0.953109 0.258717
0 0.936706 0.253849
0.0880598 0.918456 0.247715
0.270649 0.900236 0.24303
0.457938 0.88275 0.241138
0.644999 0.866545 0.242725
0.79559 0.854582 0.246799
0.795605 0.854597 0.246189
0 0.965713 0.249729
0 0.953887 0.253773
0 0.937438 0.249622
0.0839246 0.919066 0.244022
0.267262 0.90071 0.239948
0.455314 0.883116 0.238682
0.643153 0.866789 0.24094
0.795636 0.854627 0.245594
0.795621 0.854627 0.245716
0 0 0.789014
0.00419623 0 0.776181
0.271931 0 0.754147
0.54023 0 0.760342
0.810819 0 0.783108
1 0 0.763638
1 0 0.716335
1 0 0.659312
1 0 0.644587
0 0 0.770291
0.0137942 0 0.77612
0.273777 0 0.777401
0.53608 0 0.782574
0.777356 0 0.769207
0.986603 0 0.734188
1 0 0.683024
1 0 0.630076
1 0 0.625208
0 0.18706 0.739788
0 0.178332 0.733181
0.161288 0.151232 0.708049
0.41207 0.131273 0.686641
0.645136 0.113405 0.660365
0.859327 0.10016 0.629358
1 0.0950484 0.598489
1 0.0986343 0.573587
1 0.0938888 0.569284
0 0.392798 0.670817
0 0.381582 0.659159
0.0681773 0.349203 0.626673
0.311757 0.324987 0.601297
0.541253 0.302831 0.576898
0.756863 0.284367 0.55436
0.958862 0.270802 0.534676
1 0.26424 0.519875
1 0.260685 0.516304
0 0.555444 0.58146
0 0.545739 0.573449
0.0122683 0.516487 0.546441
0.230472 0.493965 0.52697
0.451041 0.47306 0.509773
0.662943 0.453864 0.494728
0.864698 0.438148 0.482033
1 0.427558 0.473518
1 0.425208 0.470909
0 0.70193 0.513542
0 0.692958 0.508476
0 0.669291 0.488609
0.165896 0.649317 0.473808
0.374426 0.630167 0.461158
0.578882 0.612009 0.450782
0.743282 0.601495 0.483162
0.883482 0.594858 0.475944
0.883772 0.593439 0.474266
0 0.836255 0.465049
0 0.827085 0.461082
0 0.81146 0.45037
0.117723 0.794278 0.439597
0.311681 0.777005 0.430137
0.506539 0.760143 0.422858
0.698878 0.744183 0.418357
0.837064 0.732876 0.452216
0.837125 0.732021 0.452033
0 0.954849 0.43061
0 0.943938 0.435294
0 0.928145 0.430488
0.0880751 0.910277 0.423072
0.269413 0.892271 0.416114
0.455634 0.875059 0.410819
0.642008 0.859098 0.408087
0.79118 0.84741 0.407797
0.79118 0.84744 0.407263
0 0.955184 0.424475
0 0.944671 0.430259
0 0.928847 0.426123
0.0842603 0.910857 0.419318
0.266194 0.892714 0.413031
0.4533 0.87538 0.40853
0.640421 0.859312 0.406332
0.791196 0.847456 0.406729
0.791196 0.847456 0.406867
0 0 1
0.00289921 0 0.999954
0.272084 0 0.998703
0.535698 0 1
0.794079 0 1
0.99826 0 0.999573
1 0 0.95697
1 0 0.890608
1 0 0.875471
0 0 1
0.0129702 0 1
0.265003 0 1
0.519829 0 1
0.753323 0 0.999481
0.959167 0 0.978241
1 0 0.914549
1 0 0.85803
1 0 0.853452
0 0.180652 1
0 0.172869 0.992065
0.145037 0.145617 0.97023
0.393759 0.126085 0.943389
0.625223 0.109438 0.908431
0.83978 0.0974289 0.869352
1 0.0929122 0.831785
1 0.0962692 0.80032
1 0.0916762 0.796414
0 0.382483 0.921645
0 0.372351 0.907408
0.0556649 0.340597 0.871794
0.298177 0.317067 0.84271
0.526787 0.296132 0.814298
0.742443 0.278401 0.78674
0.944808 0.265766 0.760678
1 0.259098 0.740307
1 0.255665 0.737224
0 0.545693 0.816861
0 0.5364 0.806882
0.00715648 0.508034 0.77818
0.220905 0.486107 0.756283
0.44062 0.465614 0.735592
0.652018 0.446983 0.716258
0.854063 0.431434 0.698405
0.99968 0.421241 0.684993
0.999832 0.418875 0.682643
0 0.692409 0.734066
0 0.683619 0.726909
0 0.660761 0.706111
0.160189 0.641321 0.689326
0.367407 0.622461 0.673899
0.571344 0.604593 0.659907
0.769314 0.588418 0.647517
0.924666 0.576974 0.638773
0.925566 0.57557 0.637217
0 0.82652 0.669459
0 0.817624 0.663951
0 0.803113 0.652644
0.114946 0.786587 0.640116
0.307393 0.769635 0.628321
0.501472 0.752743 0.618006
0.69308 0.737194 0.609293
0.821622 0.729183 0.634775
0.821912 0.728328 0.63389
0 0.944869 0.618418
0 0.934829 0.623682
0 0.919692 0.618799
0.0881056 0.902098 0.610498
0.267155 0.884459 0.601694
0.452567 0.867384 0.593866
0.6383 0.851591 0.58764
0.786419 0.84007 0.5841
0.786435 0.840085 0.583688
0 0.945159 0.61236
0 0.935454 0.618845
0 0.920302 0.614816
0.0845197 0.902617 0.607034
0.264317 0.884855 0.599023
0.450553 0.867643 0.591852
0.636851 0.851759 0.586313
0.78645 0.840101 0.583276
0.78645 0.840101 0.583413
0 0 1
0.00415045 0 1
0.263203 0 1
0.527169 0 1
0.766537 0 1
0.972671 0 1
1 0 1
1 0 1
1 0 1
0 0 1
0.00646983 0 1
0.245838 0 1
0.492149 0 1
0.719783 0 1
0.922057 0 1
1 0 1
1 0 1
1 0 1
0 0.1776 1
0 0.171313 1
0.123384 0.143679 1
0.370336 0.12546 1
0.601083 0.110048 1
0.816342 0.0992294 1
0.997818 0.0954147 1
1 0.0986801 1
1 0.0941939 1
0 0.374289 1
0 0.365423 1
0.0416724 0.3346 1
0.281895 0.312215 1
0.509499 0.292409 1
0.724712 0.275822 0.995087
0.927611 0.2636 0.979614
1 0.257313 0.957046
1 0.253895 0.954452
0 0.537621 1
0 0.529213 0.999939
0.00215152 0.50132 0.991608
0.209735 0.480034 0.979614
0.428153 0.460334 0.956954
0.638941 0.442161 0.934447
0.840986 0.426932 0.912688
0.99736 0.416953 0.895415
0.998444 0.414588 0.893446
0 0.684153 0.951797
0 0.675669 0.943114
0 0.653803 0.921294
0.153063 0.634699 0.903044
0.358801 0.61619 0.885374
0.561868 0.598596 0.86862
0.759579 0.582757 0.852811
0.915022 0.571374 0.840925
0.915923 0.569955 0.839353
0 0.817472 0.874693
0 0.809491 0.868254
0 0.795529 0.856245
0.111498 0.779431 0.842451
0.30219 0.762844 0.829023
0.495094 0.746273 0.816037
0.686213 0.730724 0.804425
0.837125 0.719249 0.796033
0.837598 0.718441 0.795132
0 0.935973 0.811246
0 0.926589 0.816785
0 0.911971 0.811795
0.0867628 0.894804 0.802716
0.264454 0.877302 0.792599
0.448646 0.860395 0.782666
0.633524 0.84477 0.773938
0.780575 0.833448 0.767712
0.780591 0.833448 0.767315
0 0.936187 0.805524
0 0.927123 0.812146
0 0.91252 0.808026
0.0834821 0.895262 0.799588
0.262013 0.877623 0.790097
0.446738 0.860639 0.780835
0.632334 0.844923 0.772747
0.780591 0.833463 0.767178
0.780591 0.833448 0.767315
0 0 1
0 0 1
0.239826 0 1
0.498344 0 1
0.725673 0 1
0.928939 0 1
1 0 1
1 0 1
1 0 1
0 0 1
0 0 1
0.214374 0 1
0.457862 0 1
0.678416 0 1
0.878325 0 1
1 0 1
1 0 1
1 0 1
0 0.179141 1
0 0.174105 1
0.100679 0.146426 1
0.347097 0.128878 1
0.577646 0.114824 1
0.792248 0.105669 1
0.987015 0.102602 1
1 0.105821 1
1 0.101762 1
0 0.369787 1
0 0.362325 1
0.0294804 0.332311 1
0.266117 0.310735 1
0.492683 0.291966 1
0.707668 0.276249 1
0.910643 0.264698 1
1 0.258595 1
1 0.25539 1
0 0.532311 1
0 0.524788 1
0 0.49749 1
0.19855 0.476799 1
0.416144 0.457527 1
0.626642 0.440055 1
0.82829 0.425223 1
0.98819 0.415366 1
0.989349 0.413245 1
0 0.677958 1
0 0.670207 1
0 0.649027 1
0.145693 0.630533 1
0.350454 0.612406 1
0.552972 0.595117 1
0.750271 0.579477 1
0.90573 0.568338 0.999008
0.906493 0.566888 0.999146
0 0.810498 1
0 0.803326 1
0 0.790249 1
0.10721 0.774563 1
0.296727 0.75816 0.991485
0.488991 0.741909 0.975555
0.679377 0.72665 0.96144
0.830182 0.715282 0.951568
0.830594 0.714443 0.951843
0 0.928328 1
0 0.920012 0.992554
0 0.906294 0.979873
0.0847944 0.889647 0.965057
0.261341 0.872358 0.950515
0.444343 0.855711 0.937133
0.628656 0.840192 0.925338
0.775296 0.828946 0.917235
0.775296 0.828946 0.917235
0 0.928359 0.999039
0 0.920333 0.992859
0 0.906661 0.980194
0.0818189 0.889952 0.965316
0.258991 0.872572 0.950713
0.442695 0.855863 0.93724
0.62771 0.840269 0.925399
0.775296 0.828946 0.917235
0.775296 0.828946 0.917235
0 0 1
0 0 1
0.233234 0 1
0.493324 0 1
0.721462 0 1
0.923827 0 1
1 0 1
1 0 1
1 0 1
0 0 1
0 0 1
0.212833 0 1
0.457206 0 1
0.677607 0 1
0.877852 0 1
1 0 1
1 0 1
1 0 1
0 0.175692 1
0 0.171359 1
0.0982223 0.143816 1
0.345403 0.126604 1
0.576242 0.112642 1
0.791211 0.103853 1
0.986923 0.100862 1
1 0.104387 1
1 0.100572 1
0 0.367605 1
0 0.360754 1
0.0275578 0.33077 1
0.264591 0.309255 1
0.491539 0.290593 1
0.706691 0.274891 1
0.90988 0.263462 1
1 0.257481 1
1 0.254398 1
0 0.530831 1
0 0.523766 1
0 0.49659 1
0.197375 0.475837 1
0.415259 0.456657 1
0.62591 0.43917 1
0.827573 0.424445 1
0.988571 0.414664 1
0.989731 0.412528 1
0 0.676982 1
0 0.669642 1
0 0.648386 1
0.144762 0.629862 1
0.349798 0.611704 1
0.552377 0.594522 1
0.749844 0.578958 1
0.90602 0.567773 0.999054
0.906722 0.566445 0.999191
0 0.809827 1
0 0.802823 1
0 0.789715 1
0.106538 0.774227 1
0.296284 0.757794 0.991714
0.488548 0.741634 0.975708
0.679118 0.726375 0.961593
0.830335 0.714977 0.951675
0.830701 0.714229 0.951919
0 0.928328 1
0 0.920043 0.992584
0 0.906355 0.979934
0.0843824 0.889693 0.965087
0.261067 0.872374 0.950545
0.444068 0.855741 0.937148
0.628519 0.840208 0.925353
0.775296 0.828946 0.917235
0.775296 0.828946 0.917235
0 0.928328 1
0 0.920363 0.992889
0 0.906676 0.980224
0.0816815 0.889967 0.965331
0.258854 0.872587 0.950713
0.442557 0.855879 0.937255
0.62771 0.840269 0.925399
0.775296 0.828946 0.917235
0.775296 0.828946 0.917235
