DJI阴天还原LUT_8.DJI_20260421172911_0029_D.cube
TITLE "Generated by Resolve"
LUT_3D_SIZE 5
0 0 0
0.291859 0 0
0.834669 0 0
1 0 0
1 0 0
0 0.209857 0
0.20383 0.181415 0
0.591592 0.162753 0
0.944213 0.158572 0
1 0.148745 0
0 0.594003 0
0.0255741 0.553704 0
0.480369 0.505577 0
0.807813 0.472389 0
0.937713 0.465522 0
0 0.861555 0
0 0.834821 0
0.31809 0.797223 0
0.708644 0.761257 0
0.871183 0.745861 0
0 0.983398 0
0 0.95404 0
0.263188 0.916289 0
0.640589 0.881117 0
0.80325 0.867521 0
0 0 0.278737
0.277607 0 0.20824
0.822248 0 0.193942
1 0 0.203159
1 0 0.166979
0 0.199786 0.164263
0.183566 0.167086 0.149889
0.675776 0.128283 0.133761
1 0.10898 0.120317
1 0.107591 0.113497
0 0.576806 0.0979629
0.0205234 0.535958 0.075288
0.467521 0.490471 0.058854
0.799191 0.467811 0.166384
0.934478 0.461738 0.171832
0 0.854475 0.0873579
0 0.827726 0.0784314
0.3178 0.791592 0.0707256
0.707134 0.757336 0.0809339
0.861295 0.743496 0.0964218
0 0.975113 0.102434
0 0.945098 0.0985122
0.267964 0.90782 0.092546
0.644495 0.873426 0.102617
0.799176 0.860914 0.112306
0 0 0.789014
0.271931 0 0.754147
0.810819 0 0.783108
1 0 0.716335
1 0 0.644587
0 0.18706 0.739788
0.161288 0.151232 0.708049
0.645136 0.113405 0.660365
1 0.0950484 0.598489
1 0.0938888 0.569284
0 0.555444 0.58146
0.0122683 0.516487 0.546441
0.451041 0.47306 0.509773
0.864698 0.438148 0.482033
1 0.425208 0.470909
0 0.836255 0.465049
0 0.81146 0.45037
0.311681 0.777005 0.430137
0.698878 0.744183 0.418357
0.837125 0.732021 0.452033
0 0.955184 0.424475
0 0.928847 0.426123
0.266194 0.892714 0.413031
0.640421 0.859312 0.406332
0.791196 0.847456 0.406867
0 0 1
0.263203 0 1
0.766537 0 1
1 0 1
1 0 1
0 0.1776 1
0.123384 0.143679 1
0.601083 0.110048 1
0.997818 0.0954147 1
1 0.0941939 1
0 0.537621 1
0.00215152 0.50132 0.991608
0.428153 0.460334 0.956954
0.840986 0.426932 0.912688
0.998444 0.414588 0.893446
0 0.817472 0.874693
0 0.795529 0.856245
0.30219 0.762844 0.829023
0.686213 0.730724 0.804425
0.837598 0.718441 0.795132
0 0.936187 0.805524
0 0.91252 0.808026
0.262013 0.877623 0.790097
0.632334 0.844923 0.772747
0.780591 0.833448 0.767315
0 0 1
0.233234 0 1
0.721462 0 1
1 0 1
1 0 1
0 0.175692 1
0.0982223 0.143816 1
0.576242 0.112642 1
0.986923 0.100862 1
1 0.100572 1
0 0.530831 1
0 0.49659 1
0.415259 0.456657 1
0.827573 0.424445 1
0.989731 0.412528 1
0 0.809827 1
0 0.789715 1
0.296284 0.757794 0.991714
0.679118 0.726375 0.961593
0.830701 0.714229 0.951919
0 0.928328 1
0 0.906676 0.980224
0.258854 0.872587 0.950713
0.62771 0.840269 0.925399
0.775296 0.828946 0.917235
