DJI阴天还原LUT_8.DJI_20260421172911_0029_D.cube
TITLE "Generated by Resolve"
LUT_3D_SIZE 33
0 0 0
0 0 0
0 0 0
0 0 0
0.0155184 0 0
0.0732891 0 0
0.15378 0 0
0.224033 0 0
0.291859 0 0
0.358465 0 0
0.42504 0 0
0.492134 0 0
0.560067 0 0
0.629053 0 0
0.698024 0 0
0.766934 0 0
0.834669 0 0
0.900389 0 0
0.964538 0 0
1 0 0
1 0 0
1 0 0
1 0 0
1 0 0
1 0 0
1 0 0
1 0 0
1 0 0
1 0 0
1 0 0
1 0 0
1 0 0
1 0 0
0 0 0
0 0 0
0 0 0
0 0 0
0.0138399 0 0
0.0712291 0 0
0.15552 0 0
0.227893 0 0
0.297002 0 0
0.36463 0 0
0.432197 0 0
0.500404 0 0
0.56907 0 0
0.638529 0 0
0.708354 0 0
0.777661 0 0
0.845701 0 0
0.911818 0 0
0.972885 0 0
1 0 0
1 0 0
1 0 0
1 0 0
1 0 0
1 0 0
1 0 0
1 0 0
1 0 0
1 0 0
1 0 0
1 0 0
1 0 0
1 0 0
0 0 0
0 0 0
0 0 0
0 0 0
0.00518807 0 0
0.0492561 0 0
0.129183 0 0
0.204334 0 0
0.279423 0 0
0.352697 0 0
0.424765 0 0
0.495735 0 0
0.566445 0 0
0.637369 0 0
0.708171 0 0
0.777813 0 0
0.84625 0 0
0.915816 0 0
0.974853 0 0
1 0 0
1 0 0
1 0 0
1 0 0
1 0 0
1 0 0
1 0 0
1 0 0
1 0 0
1 0 0
1 0 0
1 0 0
1 0 0
1 0 0
0 0 0
0 0 0
0 0 0
0 0 0
0 0 0
0.0315862 0 0
0.0995956 0 0
0.168414 0 0
0.240452 0 0
0.314611 0 0
0.390631 0 0
0.467781 0 0
0.545953 0 0
0.622278 0 0
0.698451 0 0
0.772641 0 0
0.841718 0 0
0.906523 0 0
0.965072 0 0
0.997696 0 0
1 0 0
1 0 0
1 0 0
1 0 0
1 0 0
1 0 0
1 0 0
1 0 0
1 0 0
1 0 0
1 0 0
1 0 0
1 0 0
0 0 0
0 0 0
0 0 0
0 0 0
0.00234989 0 0
0.0340887 0 0
0.0945449 0 0
0.153017 0 0
0.213184 0 0
0.276951 0 0
0.344549 0 0
0.4168 0 0
0.493797 0 0
0.570397 0 0
0.646113 0 0
0.720668 0 0
0.793332 0 0
0.860014 0 0
0.922011 0 0
0.980865 0 0
0.999359 0 0
1 0 0
1 0 0
1 0 0
1 0 0
1 0 0
1 0 0
1 0 0
1 0 0
1 0 0
1 0 0
1 0 0
1 0 0
0 0.0157778 0
0 0.0178683 0
0 0.0179904 0
0 0.0172122 0
0.00271611 0.015671 0
0.0367437 0.013901 0
0.10071 0.0126345 0
0.156161 0.0118715 0
0.210971 0.0121157 0
0.269795 0.0123903 0
0.328756 0.0124361 0
0.387167 0.0123751 0
0.445411 0.0122377 0
0.505333 0.01178 0
0.567498 0.0111543 0
0.631968 0.0104067 0
0.697017 0.00970474 0
0.761013 0.00889601 0
0.824414 0.00766003 0
0.885969 0.00628672 0
0.942275 0.00457771 0
0.986709 0.00299077 0
0.998947 0.00114443 0
1 0 0
1 0.000137331 0
1 0.00283818 0
1 0.00769055 0
1 0.0126192 0
1 0.0157778 0
1 0.0148928 0
1 0.0139315 0
1 0.0129702 0
1 0.0119936 0
0 0.0693828 0
0 0.0732586 0
0 0.074403 0
0 0.0735637 0
0 0.0700542 0
0.031754 0.0650187 0
0.102464 0.0610819 0
0.163821 0.05832 0
0.21619 0.0567178 0
0.265095 0.0568551 0
0.315785 0.0572976 0
0.369192 0.0576333 0
0.423163 0.057847 0
0.476707 0.0576944 0
0.529809 0.0574655 0
0.581765 0.0573892 0
0.632181 0.0576944 0
0.682383 0.0581979 0
0.733471 0.0581979 0
0.78526 0.0580911 0
0.838895 0.0574197 0
0.893828 0.0566415 0
0.950317 0.0556954 0
0.992081 0.0544594 0
0.999573 0.053666 0
1 0.0534524 0
1 0.0537575 0
1 0.0556191 0
1 0.0564126 0
1 0.0547036 0
1 0.0529793 0
1 0.0512703 0
1 0.0494087 0
0 0.139498 0
0 0.144671 0
0 0.145922 0
0 0.145052 0
0 0.140597 0
0.024445 0.133928 0
0.0885328 0.128161 0
0.157153 0.124056 0
0.219608 0.119936 0
0.272511 0.116991 0
0.317998 0.115404 0
0.362936 0.115068 0
0.41146 0.114733 0
0.461555 0.114122 0
0.511727 0.113619 0
0.561196 0.113054 0
0.609735 0.112383 0
0.657221 0.112078 0
0.703761 0.111772 0
0.748928 0.11162 0
0.793774 0.111681 0
0.839872 0.111604 0
0.887648 0.111376 0
0.937758 0.110735 0
0.985183 0.109728 0
0.99855 0.108659 0
1 0.1075 0
1 0.106386 0
1 0.105348 0
1 0.10367 0
1 0.101991 0
1 0.100145 0
1 0.0983139 0
0 0.209857 0
0 0.213062 0
0 0.212711 0
0 0.21033 0
0 0.205097 0
0.0158389 0.19765 0
0.0691081 0.191348 0
0.137362 0.18613 0
0.20383 0.181415 0
0.267338 0.176745 0
0.323293 0.172213 0
0.368124 0.168933 0
0.40856 0.167361 0
0.451469 0.166354 0
0.497581 0.165423 0
0.544823 0.164248 0
0.591592 0.162753 0
0.637247 0.161807 0
0.682292 0.160769 0
0.726665 0.159762 0
0.770321 0.159075 0
0.813291 0.158755 0
0.855848 0.158541 0
0.899229 0.158526 0
0.944213 0.158572 0
0.984497 0.158389 0
0.99942 0.157809 0
1 0.156435 0
1 0.155001 0
1 0.153552 0
1 0.151949 0
1 0.150347 0
1 0.148745 0
0 0.27303 0
0 0.275792 0
0 0.274479 0
0 0.271489 0
0 0.266194 0
0.00643931 0.257984 0
0.0458686 0.250553 0
0.114046 0.244724 0
0.180316 0.239231 0
0.245502 0.233692 0
0.308843 0.22829 0
0.366186 0.222675 0
0.412528 0.218402 0
0.450889 0.215457 0
0.489219 0.213596 0
0.530877 0.21207 0
0.575158 0.210285 0
0.61976 0.20853 0
0.663554 0.206867 0
0.706874 0.205386 0
0.749844 0.204166 0
0.792706 0.203021 0
0.834989 0.202289 0
0.876936 0.201907 0
0.918044 0.202228 0
0.95996 0.202533 0
0.994461 0.20293 0
1 0.20267 0
1 0.201877 0
1 0.200565 0
1 0.199268 0
1 0.197955 0
1 0.19649 0
0 0.331289 0
0 0.333715 0
0 0.332006 0
0 0.328511 0
0 0.322911 0
0.000366217 0.314412 0
0.025803 0.305699 0
0.0894484 0.299199 0
0.155642 0.292958 0
0.220081 0.287098 0
0.28368 0.281086 0
0.345663 0.275212 0
0.403647 0.269352 0
0.45211 0.263584 0
0.490013 0.259342 0
0.524315 0.256764 0
0.56231 0.254627 0
0.603769 0.252735 0
0.646754 0.250706 0
0.689815 0.248798 0
0.732052 0.24715 0
0.773968 0.245823 0
0.815732 0.244724 0
0.857282 0.244068 0
0.898558 0.243702 0
0.9393 0.243641 0
0.979492 0.244114 0
1 0.244511 0
1 0.244266 0
1 0.243214 0
1 0.242023 0
1 0.240955 0
1 0.239643 0
0 0.38436 0
0 0.386572 0
0 0.384527 0
0 0.380621 0
0 0.374914 0
0 0.366369 0
0.0140536 0.356695 0
0.0644694 0.34963 0
0.13019 0.342977 0
0.194446 0.336553 0
0.257343 0.330327 0
0.319005 0.323964 0
0.379202 0.317784 0
0.436805 0.311284 0
0.486549 0.305104 0
0.525887 0.300023 0
0.558938 0.296849 0
0.593912 0.294606 0
0.632456 0.292653 0
0.673945 0.290578 0
0.715892 0.288792 0
0.757534 0.287144 0
0.79852 0.285893 0
0.839399 0.284886 0
0.880156 0.28423 0
0.920653 0.283742 0
0.960922 0.28365 0
0.993667 0.283864 0
1 0.283604 0
1 0.282597 0
1 0.281605 0
1 0.280613 0
1 0.279484 0
0 0.433066 0
0 0.434836 0
0 0.432197 0
0 0.428275 0
0 0.422599 0
0 0.414023 0
0.00444038 0.403861 0
0.0406043 0.396262 0
0.105394 0.389319 0
0.169131 0.382635 0
0.231296 0.376074 0
0.292302 0.369711 0
0.352377 0.36321 0
0.411322 0.356893 0
0.468254 0.350393 0
0.519142 0.344076 0
0.559731 0.338689 0
0.593072 0.335027 0
0.626215 0.33254 0
0.662013 0.330678 0
0.701274 0.328984 0
0.742153 0.327291 0
0.782849 0.325872 0
0.82327 0.324651 0
0.863111 0.323796 0
0.903075 0.323095 0
0.942992 0.322515 0
0.981628 0.322454 0
0.999954 0.321813 0
1 0.320958 0
1 0.319982 0
1 0.319112 0
1 0.318135 0
0 0.477104 0
0 0.478843 0
0 0.476112 0
0 0.472038 0
0 0.466545 0
0 0.458091 0
0 0.447791 0
0.0230716 0.439902 0
0.0819409 0.432914 0
0.14493 0.42623 0
0.206744 0.419532 0
0.267353 0.413046 0
0.326802 0.406744 0
0.385519 0.400336 0
0.443229 0.394125 0
0.49929 0.387808 0
0.549935 0.381628 0
0.591775 0.376318 0
0.62594 0.372213 0
0.65771 0.369635 0
0.691478 0.367864 0
0.728664 0.366339 0
0.767956 0.364767 0
0.807996 0.363409 0
0.84773 0.362173 0
0.887037 0.361379 0
0.926131 0.360678 0
0.96524 0.359991 0
0.984558 0.359319 0
0.984955 0.358511 0
0.985336 0.357702 0
0.985794 0.356771 0
0.986191 0.355962 0
0 0.517754 0
0 0.519677 0
0 0.517037 0
0 0.51313 0
0 0.507744 0
0 0.499794 0
0 0.489296 0
0.0129702 0.481529 0
0.0607309 0.474479 0
0.123018 0.467735 0
0.183749 0.461341 0
0.243793 0.454871 0
0.302693 0.4486 0
0.360723 0.442359 0
0.418006 0.436332 0
0.474327 0.43032 0
0.529305 0.424216 0
0.579828 0.41828 0
0.622934 0.412757 0
0.657954 0.408423 0
0.688334 0.405814 0
0.720378 0.404028 0
0.75552 0.40264 0
0.793652 0.401205 0
0.832929 0.399847 0
0.871992 0.398688 0
0.910521 0.397757 0
0.948867 0.396765 0
0.967193 0.395987 0
0.967559 0.395178 0
0.96788 0.394491 0
0.968246 0.393683 0
0.968612 0.392874 0
0 0.556542 0
0 0.558648 0
0 0.555978 0
0 0.552285 0
0 0.547127 0
0 0.539452 0
0 0.529152 0
0.00479133 0.521462 0
0.0413825 0.514611 0
0.102342 0.508141 0
0.162387 0.501762 0
0.221393 0.495521 0
0.279622 0.489326 0
0.336934 0.483314 0
0.393637 0.477302 0
0.449729 0.471382 0
0.504631 0.465614 0
0.558663 0.459754 0
0.609445 0.453864 0
0.653605 0.448386 0
0.688411 0.443992 0
0.718181 0.441108 0
0.748547 0.43946 0
0.782193 0.438102 0
0.818875 0.436698 0
0.857191 0.435248 0
0.895384 0.433997 0
0.933593 0.432975 0
0.951278 0.43238 0
0.951568 0.431708 0
0.951904 0.430915 0
0.952193 0.430243 0
0.952529 0.42945 0
0 0.594003 0
0 0.596353 0
0 0.59379 0
0 0.590188 0
0 0.585199 0
0 0.577996 0
0 0.567895 0
0 0.560494 0
0.0255741 0.553704 0
0.0831769 0.547387 0
0.142168 0.541085 0
0.200305 0.535042 0
0.257511 0.529076 0
0.314321 0.523079 0
0.370291 0.517235 0
0.425772 0.511391 0
0.480369 0.505577 0
0.534463 0.49987 0
0.587472 0.494255 0
0.638056 0.488609 0
0.682078 0.483192 0
0.717464 0.478706 0
0.746853 0.475685 0
0.775753 0.473915 0
0.807813 0.472389 0
0.843168 0.47097 0
0.881086 0.469856 0
0.91928 0.468894 0
0.936645 0.468177 0
0.936904 0.467506 0
0.937133 0.466957 0
0.937407 0.466285 0
0.937713 0.465522 0
0 0.630564 0
0 0.633188 0
0 0.63061 0
0 0.627039 0
0 0.622202 0
0 0.615198 0
0 0.605509 0
0 0.598215 0
0.016434 0.591653 0
0.0654154 0.585443 0
0.123049 0.579416 0
0.180285 0.573449 0
0.236606 0.567651 0
0.292607 0.561715 0
0.347784 0.556085 0
0.402625 0.550301 0
0.456977 0.544579 0
0.510475 0.538949 0
0.563363 0.533471 0
0.615473 0.528069 0
0.665125 0.522454 0
0.708797 0.517052 0
0.744579 0.512337 0
0.773739 0.509056 0
0.802457 0.50721 0
0.833875 0.506127 0
0.86862 0.505074 0
0.905699 0.50425 0
0.922637 0.503517 0
0.92285 0.502983 0
0.923064 0.502449 0
0.923308 0.501793 0
0.923522 0.501259 0
0 0.666117 0
0 0.668788 0
0 0.66627 0
0 0.662806 0
0 0.658137 0
0 0.651469 0
0 0.641947 0
0 0.635035 0
0.00848402 0.628672 0
0.0486915 0.622675 0
0.105272 0.616754 0
0.161273 0.611002 0
0.2168 0.60528 0
0.271946 0.599527 0
0.326513 0.593942 0
0.380667 0.588327 0
0.434333 0.582681 0
0.487388 0.577127 0
0.539696 0.571664 0
0.591363 0.566018 0
0.642329 0.56054 0
0.691142 0.555047 0
0.735225 0.549828 0
0.771878 0.545403 0
0.801724 0.542428 0
0.830076 0.540749 0
0.860594 0.539712 0
0.89427 0.538964 0.00178531
0.909911 0.53843 0.00428779
0.910079 0.537911 0.00411994
0.910216 0.537484 0.00399786
0.910414 0.536858 0.0037995
0.910597 0.536339 0.00364691
0 0.700755 0
0 0.703563 0
0 0.701152 0
0 0.697643 0
0 0.693278 0
0 0.686595 0
0 0.677607 0
0 0.670954 0
0.00207523 0.664897 0
0.0333715 0.659007 0
0.0884413 0.653346 0
0.143755 0.647684 0
0.197848 0.642115 0
0.252003 0.636576 0
0.305806 0.630991 0
0.359228 0.625376 0
0.412207 0.619715 0
0.464302 0.614069 0
0.516228 0.608606 0
0.567788 0.603189 0
0.618799 0.597971 0
0.669245 0.592905 0
0.717983 0.587991 0
0.762615 0.582956 0
0.799786 0.578729 0
0.830167 0.575738 0
0.857893 0.574029 0
0.887495 0.573114 0.00399786
0.901289 0.572595 0.00968948
0.901366 0.572183 0.00967422
0.901473 0.571664 0.00962844
0.901564 0.571252 0.00959792
0.901671 0.570748 0.00956741
0 0.73463 0
0 0.73756 0
0 0.735271 0
0 0.73164 0
0 0.727459 0
0 0.72105 0
0 0.712535 0
0 0.706096 0
0 0.700221 0
0.0221866 0.694469 0
0.0726329 0.68896 0
0.126268 0.68336 0
0.179965 0.677729 0
0.233021 0.672221 0
0.285695 0.666575 0
0.338262 0.661143 0
0.390814 0.65568 0
0.442618 0.650431 0
0.494224 0.645274 0
0.545419 0.640116 0
0.596262 0.635111 0
0.646571 0.630228 0
0.696422 0.625391 0
0.74493 0.620706 0
0.789349 0.615915 0
0.827634 0.611673 0
0.85864 0.608667 0
0.886122 0.606989 0.00120546
0.898085 0.60621 0.00296025
0.89807 0.605798 0.00300603
0.89807 0.605402 0.00306706
0.898054 0.60499 0.00311284
0.898039 0.604486 0.00317388
0 0.767391 0
0 0.770428 0
0 0.768154 0
0 0.764446 0
0 0.760357 0
0 0.753262 0
0 0.745861 0
0 0.73994 0
0 0.734279 0
0.0140688 0.728618 0
0.0577401 0.723171 0
0.110277 0.717876 0
0.16289 0.712505 0
0.215137 0.707301 0
0.267262 0.702098 0
0.319097 0.69688 0
0.370947 0.691737 0
0.422339 0.68661 0
0.47361 0.681575 0
0.524407 0.6766 0
0.574853 0.671702 0
0.624674 0.666911 0
0.674357 0.662211 0
0.723384 0.657725 0
0.771069 0.653193 0
0.815885 0.648646 0
0.854795 0.644526 0
0.886427 0.641566 0
0.899107 0.640162 0
0.899107 0.639857 0
0.899092 0.639445 0
0.899077 0.639033 0
0.899062 0.638621 0
0 0.799008 0
0 0.801816 0
0 0.799756 0
0 0.796231 0
0 0.792157 0
0 0.784817 0
0 0.778637 0
0 0.773144 0
0 0.767926 0
0.00750744 0.762722 0
0.0442664 0.757519 0
0.0959029 0.752483 0
0.14725 0.747433 0
0.198535 0.742397 0
0.249958 0.737316 0
0.301076 0.732341 0
0.352239 0.727321 0
0.403067 0.722377 0
0.453681 0.717479 0
0.504005 0.712688 0
0.553979 0.707881 0
0.603616 0.703227 0
0.652934 0.698589 0
0.701946 0.694041 0
0.750195 0.689708 0
0.797711 0.685405 0
0.842481 0.681102 0
0.881605 0.677058 0
0.897292 0.675349 0
0.897337 0.675029 0
0.897383 0.674601 0
0.897414 0.674296 0
0.897475 0.673869 0
0 0.830411 0
0 0.833295 0
0 0.831418 0
0 0.828092 0
0 0.82388 0
0 0.817014 0
0 0.811612 0
0 0.806531 0
0 0.801572 0
0.00231937 0.796689 0
0.0324712 0.791775 0
0.0827497 0.786831 0
0.133165 0.781964 0
0.18352 0.77705 0
0.233722 0.772259 0
0.284138 0.767361 0
0.334752 0.762509 0
0.384894 0.757748 0
0.434836 0.752941 0
0.484825 0.748074 0
0.534173 0.743603 0
0.583459 0.738979 0
0.632288 0.734493 0
0.680827 0.730068 0
0.72903 0.725704 0
0.776974 0.721508 0
0.824079 0.717418 0
0.868757 0.713222 0
0.887465 0.711299 0
0.887602 0.710979 0
0.887755 0.710658 0
0.887877 0.710338 0
0.888014 0.709911 0
0 0.861555 0
0 0.864469 0
0 0.862837 0
0 0.859541 0
0 0.854688 0
0 0.848875 0
0 0.843946 0
0 0.839368 0
0 0.834821 0
0 0.830167 0
0.0234836 0.825498 0
0.0708476 0.820813 0
0.119997 0.816144 0
0.169619 0.811261 0
0.218936 0.806668 0
0.268574 0.801892 0
0.31809 0.797223 0
0.367514 0.792599 0
0.416999 0.787945 0
0.466194 0.783307 0
0.515328 0.778744 0
0.56408 0.774289 0
0.612558 0.769863 0
0.660838 0.765438 0
0.708644 0.761257 0
0.756268 0.757046 0
0.803479 0.752956 0
0.849989 0.74905 0
0.870497 0.747112 0
0.870665 0.746792 0
0.870771 0.746593 0
0.870954 0.746273 0
0.871183 0.745861 0
0 0.89221 0
0 0.895048 0
0 0.893675 0
0 0.890105 0
0 0.884962 0
0 0.880278 0
0 0.876249 0
0 0.871931 0
0 0.867536 0
0 0.863218 0
0.0173495 0.858839 0
0.0605325 0.854261 0
0.108309 0.849729 0
0.156634 0.845228 0
0.204959 0.840635 0
0.253712 0.836072 0
0.302892 0.831449 0
0.351507 0.826871 0
0.400092 0.822446 0
0.448661 0.817975 0
0.497383 0.813443 0
0.54551 0.809094 0
0.593576 0.804746 0
0.641581 0.800397 0
0.68896 0.796277 0
0.736233 0.792111 0
0.783215 0.788113 0
0.829664 0.784283 0
0.85069 0.782391 0
0.850797 0.782177 0
0.850919 0.781979 0
0.851102 0.781659 0
0.851209 0.78146 0
0 0.922255 0
0 0.925048 0
0 0.923873 0
0 0.919676 0
0 0.915312 0
0 0.911513 0
0 0.907912 0
0 0.903944 0
0 0.900023 0
0 0.89604 0
0.0125734 0.891737 0
0.0513161 0.887404 0
0.0979934 0.882994 0
0.144793 0.87866 0
0.192401 0.87425 0
0.240024 0.869825 0
0.287953 0.865415 0
0.336065 0.860975 0
0.384192 0.856535 0
0.432013 0.852171 0
0.479805 0.847883 0
0.527886 0.843488 0
0.575418 0.839246 0
0.622797 0.835004 0
0.669902 0.8309 0
0.716762 0.826871 0
0.763439 0.822904 0
0.809781 0.819028 0
0.830732 0.817288 0
0.830839 0.81709 0
0.830961 0.816892 0
0.831067 0.816693 0
0.831235 0.816388 0
0 0.951873 0
0 0.95465 0
0 0.953277 0
0 0.948913 0
0 0.945403 0
0 0.942489 0
0 0.939269 0
0 0.935729 0
0 0.932128 0
